(Start of Tape)

(Made in : UPC)
(G Code optimized for RS-CNC32 with GRBL V0.9j controller)

( PART NUMBER=1 )
( PART NAME=  )
( PROGRAMMER=  )
( OPERATION NUMBER=  )
( DATE=  )

G90 G17 G21 G80
m8
(Init Tool Change)
(6MM CRB 2FL 19 LOC)
G53
G0 Z2 
G54
S12000 M3
M8
G4 P1 
(Rapid From Tool Change)
G0 G90 X-37.2638 Y-79.4475
(Rapid Z Down)
Z2.8
(Feed Z Down)
G1 Z-.78 F411.48
(Line Move)
X-36.9418 Y-79.4475 Z-.78 F822.96
(Arc Move)
G3 X-37.2638 Y-79.1255 I-.322 J0 F1645.92
(Arc Move)
X-37.5858 Y-79.4475 I0 J-.322
(Arc Move)
X-37.2638 Y-79.7695 I.322 J0
(Arc Move)
X-36.9418 Y-79.4475 I0 J.322
(Line Move)
G1 X-36.0778 Y-79.4475 Z-.78
(Arc Move)
G3 X-37.2638 Y-78.2615 I-1.186 J0
(Arc Move)
X-38.4498 Y-79.4475 I0 J-1.186
(Arc Move)
X-37.2638 Y-80.6335 I1.186 J0
(Arc Move)
X-36.0778 Y-79.4475 I0 J1.186
(Line Move)
G1 X-35.2138 Y-79.4475 Z-.78
(Arc Move)
G3 X-37.2638 Y-77.3975 I-2.05 J0
(Arc Move)
X-39.3138 Y-79.4475 I0 J-2.05
(Arc Move)
X-37.2638 Y-81.4975 I2.05 J0
(Arc Move)
X-35.2138 Y-79.4475 I0 J2.05
(Line Move)
G1 X-34.3498 Y-79.4475 Z-.78
(Arc Move)
G3 X-37.2638 Y-76.5335 I-2.914 J0
(Arc Move)
X-40.1778 Y-79.4475 I0 J-2.914
(Arc Move)
X-37.2638 Y-82.3615 I2.914 J0
(Arc Move)
X-34.3498 Y-79.4475 I0 J2.914
(Line Move)
G1 X-33.4858 Y-79.4475 Z-.78
(Arc Move)
G3 X-37.2638 Y-75.6695 I-3.778 J0
(Arc Move)
X-41.0418 Y-79.4475 I0 J-3.778
(Arc Move)
X-37.2638 Y-83.2255 I3.778 J0
(Arc Move)
X-33.4858 Y-79.4475 I0 J3.778
(Line Move)
G1 X-32.6218 Y-79.4475 Z-.78
(Arc Move)
G3 X-37.2638 Y-74.8055 I-4.642 J0
(Arc Move)
X-41.9058 Y-79.4475 I0 J-4.642
(Arc Move)
X-37.2638 Y-84.0895 I4.642 J0
(Arc Move)
X-32.6218 Y-79.4475 I0 J4.642
(Line Move)
G1 X-31.7578 Y-79.4475 Z-.78
(Arc Move)
G3 X-37.2638 Y-73.9415 I-5.506 J0
(Arc Move)
X-42.7698 Y-79.4475 I0 J-5.506
(Arc Move)
X-37.2638 Y-84.9535 I5.506 J0
(Arc Move)
X-31.7578 Y-79.4475 I0 J5.506
(Line Move)
G1 X-30.8938 Y-79.4475 Z-.78
(Arc Move)
G3 X-37.2638 Y-73.0775 I-6.37 J0
(Arc Move)
X-43.6338 Y-79.4475 I0 J-6.37
(Arc Move)
X-37.2638 Y-85.8175 I6.37 J0
(Arc Move)
X-30.8938 Y-79.4475 I0 J6.37
(Arc Move)
X-37.2638 Y-73.0775 I-6.37 J0
(Arc Move)
X-43.6338 Y-79.4475 I0 J-6.37
(Arc Move)
X-37.2638 Y-85.8175 I6.37 J0
(Arc Move)
X-30.8938 Y-79.4475 I0 J6.37
(Line Move)
G1 X-37.2638 Y-79.4475 Z-.78
(Rapid Z up)
G0 Z2.8
(Rapid Z Down)
Z1.72
(Feed Z Down)
G1 Z-1.45 F411.48
(Line Move)
X-36.9418 Y-79.4475 Z-1.45 F822.96
(Arc Move)
G3 X-37.2638 Y-79.1255 I-.322 J0 F1645.92
(Arc Move)
X-37.5858 Y-79.4475 I0 J-.322
(Arc Move)
X-37.2638 Y-79.7695 I.322 J0
(Arc Move)
X-36.9418 Y-79.4475 I0 J.322
(Line Move)
G1 X-36.0778 Y-79.4475 Z-1.45
(Arc Move)
G3 X-37.2638 Y-78.2615 I-1.186 J0
(Arc Move)
X-38.4498 Y-79.4475 I0 J-1.186
(Arc Move)
X-37.2638 Y-80.6335 I1.186 J0
(Arc Move)
X-36.0778 Y-79.4475 I0 J1.186
(Line Move)
G1 X-35.2138 Y-79.4475 Z-1.45
(Arc Move)
G3 X-37.2638 Y-77.3975 I-2.05 J0
(Arc Move)
X-39.3138 Y-79.4475 I0 J-2.05
(Arc Move)
X-37.2638 Y-81.4975 I2.05 J0
(Arc Move)
X-35.2138 Y-79.4475 I0 J2.05
(Line Move)
G1 X-34.3498 Y-79.4475 Z-1.45
(Arc Move)
G3 X-37.2638 Y-76.5335 I-2.914 J0
(Arc Move)
X-40.1778 Y-79.4475 I0 J-2.914
(Arc Move)
X-37.2638 Y-82.3615 I2.914 J0
(Arc Move)
X-34.3498 Y-79.4475 I0 J2.914
(Line Move)
G1 X-33.4858 Y-79.4475 Z-1.45
(Arc Move)
G3 X-37.2638 Y-75.6695 I-3.778 J0
(Arc Move)
X-41.0418 Y-79.4475 I0 J-3.778
(Arc Move)
X-37.2638 Y-83.2255 I3.778 J0
(Arc Move)
X-33.4858 Y-79.4475 I0 J3.778
(Line Move)
G1 X-32.6218 Y-79.4475 Z-1.45
(Arc Move)
G3 X-37.2638 Y-74.8055 I-4.642 J0
(Arc Move)
X-41.9058 Y-79.4475 I0 J-4.642
(Arc Move)
X-37.2638 Y-84.0895 I4.642 J0
(Arc Move)
X-32.6218 Y-79.4475 I0 J4.642
(Line Move)
G1 X-31.7578 Y-79.4475 Z-1.45
(Arc Move)
G3 X-37.2638 Y-73.9415 I-5.506 J0
(Arc Move)
X-42.7698 Y-79.4475 I0 J-5.506
(Arc Move)
X-37.2638 Y-84.9535 I5.506 J0
(Arc Move)
X-31.7578 Y-79.4475 I0 J5.506
(Line Move)
G1 X-30.8938 Y-79.4475 Z-1.45
(Arc Move)
G3 X-37.2638 Y-73.0775 I-6.37 J0
(Arc Move)
X-43.6338 Y-79.4475 I0 J-6.37
(Arc Move)
X-37.2638 Y-85.8175 I6.37 J0
(Arc Move)
X-30.8938 Y-79.4475 I0 J6.37
(Arc Move)
X-37.2638 Y-73.0775 I-6.37 J0
(Arc Move)
X-43.6338 Y-79.4475 I0 J-6.37
(Arc Move)
X-37.2638 Y-85.8175 I6.37 J0
(Arc Move)
X-30.8938 Y-79.4475 I0 J6.37
(Line Move)
G1 X-37.2638 Y-79.4475 Z-1.45
(Rapid Z up)
G0 Z2.8
(Rapid Z Down)
Z1.05
(Feed Z Down)
G1 Z-1.7 F411.48
(Line Move)
X-36.9418 Y-79.4475 Z-1.7 F822.96
(Arc Move)
G3 X-37.2638 Y-79.1255 I-.322 J0 F1645.92
(Arc Move)
X-37.5858 Y-79.4475 I0 J-.322
(Arc Move)
X-37.2638 Y-79.7695 I.322 J0
(Arc Move)
X-36.9418 Y-79.4475 I0 J.322
(Line Move)
G1 X-36.0778 Y-79.4475 Z-1.7
(Arc Move)
G3 X-37.2638 Y-78.2615 I-1.186 J0
(Arc Move)
X-38.4498 Y-79.4475 I0 J-1.186
(Arc Move)
X-37.2638 Y-80.6335 I1.186 J0
(Arc Move)
X-36.0778 Y-79.4475 I0 J1.186
(Line Move)
G1 X-35.2138 Y-79.4475 Z-1.7
(Arc Move)
G3 X-37.2638 Y-77.3975 I-2.05 J0
(Arc Move)
X-39.3138 Y-79.4475 I0 J-2.05
(Arc Move)
X-37.2638 Y-81.4975 I2.05 J0
(Arc Move)
X-35.2138 Y-79.4475 I0 J2.05
(Line Move)
G1 X-34.3498 Y-79.4475 Z-1.7
(Arc Move)
G3 X-37.2638 Y-76.5335 I-2.914 J0
(Arc Move)
X-40.1778 Y-79.4475 I0 J-2.914
(Arc Move)
X-37.2638 Y-82.3615 I2.914 J0
(Arc Move)
X-34.3498 Y-79.4475 I0 J2.914
(Line Move)
G1 X-33.4858 Y-79.4475 Z-1.7
(Arc Move)
G3 X-37.2638 Y-75.6695 I-3.778 J0
(Arc Move)
X-41.0418 Y-79.4475 I0 J-3.778
(Arc Move)
X-37.2638 Y-83.2255 I3.778 J0
(Arc Move)
X-33.4858 Y-79.4475 I0 J3.778
(Line Move)
G1 X-32.6218 Y-79.4475 Z-1.7
(Arc Move)
G3 X-37.2638 Y-74.8055 I-4.642 J0
(Arc Move)
X-41.9058 Y-79.4475 I0 J-4.642
(Arc Move)
X-37.2638 Y-84.0895 I4.642 J0
(Arc Move)
X-32.6218 Y-79.4475 I0 J4.642
(Line Move)
G1 X-31.7578 Y-79.4475 Z-1.7
(Arc Move)
G3 X-37.2638 Y-73.9415 I-5.506 J0
(Arc Move)
X-42.7698 Y-79.4475 I0 J-5.506
(Arc Move)
X-37.2638 Y-84.9535 I5.506 J0
(Arc Move)
X-31.7578 Y-79.4475 I0 J5.506
(Line Move)
G1 X-30.8938 Y-79.4475 Z-1.7
(Arc Move)
G3 X-37.2638 Y-73.0775 I-6.37 J0
(Arc Move)
X-43.6338 Y-79.4475 I0 J-6.37
(Arc Move)
X-37.2638 Y-85.8175 I6.37 J0
(Arc Move)
X-30.8938 Y-79.4475 I0 J6.37
(Arc Move)
X-37.2638 Y-73.0775 I-6.37 J0
(Arc Move)
X-43.6338 Y-79.4475 I0 J-6.37
(Arc Move)
X-37.2638 Y-85.8175 I6.37 J0
(Arc Move)
X-30.8938 Y-79.4475 I0 J6.37
(Line Move)
G1 X-37.2638 Y-79.4475 Z-1.7
(Rapid Z up)
G0 Z2.8
(Rapid Z up)
Z25.
(Rapid Z Down)
Z3.3
(Feed Z Down)
G1 Z-.78 F411.48
(Line Leadin Move)
X-31.5353 Y-80.582 F1234.44
(Line Leadin Move)
X-30.7155 Y-79.8141
(Arc Move)
G3 X-30.6473 Y-79.6635 I-.1477 J.1576
(Arc Move)
X-30.6438 Y-79.4475 I-6.6165 J.216 F1645.92
(Arc Move)
X-37.2638 Y-72.8275 I-6.62 J0
(Arc Move)
X-43.8838 Y-79.4475 I0 J-6.62
(Arc Move)
X-37.2638 Y-86.0675 I6.62 J0
(Arc Move)
X-30.6438 Y-79.4475 I0 J6.62
(Arc Move)
X-30.6473 Y-79.2316 I-6.62 J0
(Arc Move)
X-30.7155 Y-79.081 I-.2159 J-.007
(Line Leadout Move)
G1 X-31.5353 Y-78.3131
(Rapid Z up)
G0 Z3.3
(Rapid Move)
X-37.2638 Y-79.4475
(Rapid Z Down)
Z2.22
(Feed Z Down)
G1 Z-1.7 F411.48
(Line Leadin Move)
X-31.5353 Y-80.582 F1234.44
(Line Leadin Move)
X-30.7155 Y-79.8141
(Arc Move)
G3 X-30.6473 Y-79.6635 I-.1477 J.1576
(Arc Move)
X-30.6438 Y-79.4475 I-6.6165 J.216 F1645.92
(Arc Move)
X-37.2638 Y-72.8275 I-6.62 J0
(Arc Move)
X-43.8838 Y-79.4475 I0 J-6.62
(Arc Move)
X-37.2638 Y-86.0675 I6.62 J0
(Arc Move)
X-30.6438 Y-79.4475 I0 J6.62
(Arc Move)
X-30.6473 Y-79.2316 I-6.62 J0
(Arc Move)
X-30.7155 Y-79.081 I-.2159 J-.007
(Line Leadout Move)
G1 X-31.5353 Y-78.3131
(Rapid Z up)
G0 Z3.3
(Rapid Z up)
Z25.
(Rapid Move)
X-32.7066 Y-159.0568
(Rapid Z Down)
Z3.
(Feed Z Down)
G1 Z-3. F411.48
(Line Leadin Move)
X-33.7584 Y-158.6628 F1234.44
(Arc Move)
G3 X-33.8342 Y-158.6491 I-.0758 J-.2023
(Arc Move)
X-33.9236 Y-158.6685 I0 J-.216
(Line Move)
G1 X-34.1202 Y-158.758 Z-3. F1645.92
(Line Move)
X-35.0091 Y-159.165 Z-3.
(Line Move)
X-36.4339 Y-159.6962 Z-3.
(Line Move)
X-38.2655 Y-160.1477 Z-3.
(Line Move)
X-39.1945 Y-160.131 Z-3.
(Line Move)
X-40.0035 Y-159.9355 Z-3.
(Line Move)
X-40.7088 Y-159.4702 Z-3.
(Line Move)
X-41.2072 Y-158.8126 Z-3.
(Line Move)
X-41.5809 Y-158.0221 Z-3.
(Line Move)
X-41.8922 Y-156.9186 Z-3.
(Line Move)
X-42.0709 Y-155.9736 Z-3.
(Line Move)
X-42.1235 Y-154.8625 Z-3.
(Line Move)
X-42.0099 Y-153.767 Z-3.
(Line Move)
X-41.5509 Y-151.8929 Z-3.
(Line Move)
X-40.9491 Y-149.2136 Z-3.
(Line Move)
X-40.3592 Y-145.5538 Z-3.
(Line Move)
X-39.7766 Y-141.0481 Z-3.
(Line Move)
X-39.5666 Y-138.222 Z-3.
(Line Move)
X-39.5887 Y-136.7926 Z-3.
(Line Move)
X-39.6779 Y-136.2105 Z-3.
(Line Move)
X-39.8528 Y-135.6303 Z-3.
(Line Move)
X-40.1033 Y-135.1079 Z-3.
(Line Move)
X-40.4133 Y-134.6507 Z-3.
(Line Move)
X-40.8623 Y-134.0962 Z-3.
(Line Move)
X-42.3777 Y-132.7006 Z-3.
(Line Move)
X-43.4474 Y-131.8601 Z-3.
(Line Move)
X-44.6118 Y-131.1216 Z-3.
(Line Move)
X-45.8512 Y-130.4709 Z-3.
(Arc Move)
G3 X-51.5007 Y-127.8662 I-2680.9337 J-5807.4209
(Arc Move)
X-53.2789 Y-127.1609 I-8.125 J-17.8895
(Arc Move)
X-63.7027 Y-123.7415 I-1008.5316 J-3056.8405
(Line Move)
G1 X-63.7106 Y-123.7389 Z-3.
(Line Move)
X-63.7185 Y-123.7362 Z-3.
(Arc Move)
G3 X-68.7933 Y-122.3517 I-13.2728 J-38.6576
(Line Move)
G1 X-68.8065 Y-122.349 Z-3.
(Line Move)
X-68.8196 Y-122.346 Z-3.
(Arc Move)
G3 X-101.0338 Y-117.2365 I-52.7766 J-228.6405
(Line Move)
G1 X-101.0723 Y-117.2331 Z-3.
(Line Move)
X-101.1105 Y-117.227 Z-3.
(Arc Move)
G2 X-102.4884 Y-116.9096 I1.6728 J10.4103
(Line Move)
G1 X-103.5222 Y-116.5971 Z-3.
(Line Move)
X-103.6805 Y-116.1383 Z-3.
(Line Move)
X-103.0595 Y-115.2547 Z-3.
(Arc Move)
G2 X-102.4285 Y-114.4312 I10.325 J-7.2568
(Line Move)
G1 X-102.4056 Y-114.4037 Z-3.
(Line Move)
X-98.648 Y-110.4596 Z-3.
(Line Move)
X-98.6473 Y-110.4589 Z-3.
(Arc Move)
G3 X-86.6906 Y-96.3826 I-115.3019 J110.0569
(Line Move)
G1 X-86.6883 Y-96.3796 Z-3.
(Line Move)
X-86.686 Y-96.3766 Z-3.
(Arc Move)
G3 X-72.4877 Y-67.6892 I-66.0605 J50.5526
(Arc Move)
X-70.3932 Y-54.2721 I-60.2463 J16.2768
(Arc Move)
X-70.2804 Y-33.2543 I-1956.9067 J21.0178
(Arc Move)
X-70.3601 Y-15.5873 I-1957.0195 J0
(Line Move)
G1 X-70.3897 Y-14.7846 Z-3.
(Line Move)
X-70.2933 Y-14.2635 Z-3.
(Line Move)
X-70.068 Y-13.774 Z-3.
(Line Move)
X-69.4589 Y-12.9298 Z-3.
(Line Move)
X-67.1685 Y-12.9298 Z-3.
(Arc Move)
G2 X-61.9231 Y-12.9245 I5.2453 J-2591.3969
(Arc Move)
X-52.327 Y-12.9422 I0 J-2591.4022
(Line Move)
G1 X-51.5293 Y-12.8697 Z-3.
(Line Move)
X-50.9742 Y-12.765 Z-3.
(Line Move)
X-50.5588 Y-12.6076 Z-3.
(Line Move)
X-50.1002 Y-12.3266 Z-3.
(Line Move)
X-49.4855 Y-11.8414 Z-3.
(Arc Move)
G2 X-35.6242 Y.807 I502.4893 J-536.7589
(Line Move)
G1 X-34.9198 Y1.4335 Z-3.
(Line Move)
X-33.2436 Y-.0022 Z-3.
(Line Move)
X-33.238 Y-.0072 Z-3.
(Arc Move)
G3 X-31.6166 Y-1.3049 I14.5391 J16.5043
(Arc Move)
X-23.5227 Y-6.7919 I795.9538 J1165.382
(Line Move)
G1 X-23.5222 Y-6.7923 Z-3.
(Arc Move)
G2 X-11.4285 Y-15.202 I-279.7131 J-415.1495
(Arc Move)
X-2.1682 Y-21.646 I-474.0179 J-691.0538
(Line Move)
G1 X-1.409 Y-22.0852 Z-3.
(Line Move)
X-.6107 Y-22.691 Z-3.
(Line Move)
X-.1235 Y-23.2308 Z-3.
(Line Move)
X.3654 Y-24.0451 Z-3.
(Line Move)
X.5913 Y-24.6056 Z-3.
(Line Move)
X.7447 Y-25.2133 Z-3.
(Line Move)
X.8397 Y-25.887 Z-3.
(Line Move)
X.8687 Y-27.4476 Z-3.
(Line Move)
X.8408 Y-33.6898 Z-3.
(Line Move)
X.8862 Y-45.4207 Z-3.
(Line Move)
X.8426 Y-57.2632 Z-3.
(Line Move)
X.8828 Y-62.728 Z-3.
(Line Move)
X1.0138 Y-69.0793 Z-3.
(Line Move)
X1.016 Y-74.673 Z-3.
(Line Move)
X.8873 Y-86.4679 Z-3.
(Line Move)
X.8586 Y-128.3086 Z-3.
(Line Move)
X.79 Y-134.0343 Z-3.
(Line Move)
X.5234 Y-140.1884 Z-3.
(Line Move)
X.2953 Y-141.197 Z-3.
(Line Move)
X.0097 Y-142.0164 Z-3.
(Line Move)
X-.443 Y-142.7515 Z-3.
(Line Move)
X-1.0776 Y-143.377 Z-3.
(Line Move)
X-1.8991 Y-143.963 Z-3.
(Line Move)
X-1.954 Y-143.9933 Z-3.
(Arc Move)
G2 X-4.4295 Y-145.2474 I-19.2244 J34.8768
(Line Move)
G1 X-4.4329 Y-145.249 Z-3.
(Line Move)
X-34.1202 Y-158.758 Z-3.
(Line Move)
X-34.3166 Y-158.8479 Z-3.
(Arc Move)
G3 X-34.4292 Y-158.969 I.0899 J-.1964
(Line Leadout Move)
G1 X-34.8206 Y-160.0218
(Rapid Z up)
G0 Z3.
(Rapid Move)
X-32.7066 Y-159.0568
(Rapid Z Down)
Z0
(Feed Z Down)
G1 Z-5.6667 F411.48
(Line Leadin Move)
X-33.7584 Y-158.6628 F1234.44
(Arc Move)
G3 X-33.8342 Y-158.6491 I-.0758 J-.2023
(Arc Move)
X-33.9236 Y-158.6685 I0 J-.216
(Line Move)
G1 X-34.1202 Y-158.758 Z-5.6667 F1645.92
(Line Move)
X-35.0091 Y-159.165 Z-5.6667
(Line Move)
X-36.4339 Y-159.6962 Z-5.6667
(Line Move)
X-38.2655 Y-160.1477 Z-5.6667
(Line Move)
X-39.1945 Y-160.131 Z-5.6667
(Line Move)
X-40.0035 Y-159.9355 Z-5.6667
(Line Move)
X-40.7088 Y-159.4702 Z-5.6667
(Line Move)
X-41.2072 Y-158.8126 Z-5.6667
(Line Move)
X-41.5809 Y-158.0221 Z-5.6667
(Line Move)
X-41.8922 Y-156.9186 Z-5.6667
(Line Move)
X-42.0709 Y-155.9736 Z-5.6667
(Line Move)
X-42.1235 Y-154.8625 Z-5.6667
(Line Move)
X-42.0099 Y-153.767 Z-5.6667
(Line Move)
X-41.5509 Y-151.8929 Z-5.6667
(Line Move)
X-40.9491 Y-149.2136 Z-5.6667
(Line Move)
X-40.3592 Y-145.5538 Z-5.6667
(Line Move)
X-39.7766 Y-141.0481 Z-5.6667
(Line Move)
X-39.5666 Y-138.222 Z-5.6667
(Line Move)
X-39.5887 Y-136.7926 Z-5.6667
(Line Move)
X-39.6779 Y-136.2105 Z-5.6667
(Line Move)
X-39.8528 Y-135.6303 Z-5.6667
(Line Move)
X-40.1033 Y-135.1079 Z-5.6667
(Line Move)
X-40.4133 Y-134.6507 Z-5.6667
(Line Move)
X-40.8623 Y-134.0962 Z-5.6667
(Line Move)
X-42.3777 Y-132.7006 Z-5.6667
(Line Move)
X-43.4474 Y-131.8601 Z-5.6667
(Line Move)
X-44.6118 Y-131.1216 Z-5.6667
(Line Move)
X-45.8512 Y-130.4709 Z-5.6667
(Arc Move)
G3 X-51.5007 Y-127.8662 I-2680.9337 J-5807.4209
(Arc Move)
X-53.2789 Y-127.1609 I-8.125 J-17.8895
(Arc Move)
X-63.7027 Y-123.7415 I-1008.5316 J-3056.8405
(Line Move)
G1 X-63.7106 Y-123.7389 Z-5.6667
(Line Move)
X-63.7185 Y-123.7362 Z-5.6667
(Arc Move)
G3 X-68.7933 Y-122.3517 I-13.2728 J-38.6576
(Line Move)
G1 X-68.8065 Y-122.349 Z-5.6667
(Line Move)
X-68.8196 Y-122.346 Z-5.6667
(Arc Move)
G3 X-101.0338 Y-117.2365 I-52.7766 J-228.6405
(Line Move)
G1 X-101.0723 Y-117.2331 Z-5.6667
(Line Move)
X-101.1105 Y-117.227 Z-5.6667
(Arc Move)
G2 X-102.4884 Y-116.9096 I1.6728 J10.4103
(Line Move)
G1 X-103.5222 Y-116.5971 Z-5.6667
(Line Move)
X-103.6805 Y-116.1383 Z-5.6667
(Line Move)
X-103.0595 Y-115.2547 Z-5.6667
(Arc Move)
G2 X-102.4285 Y-114.4312 I10.325 J-7.2568
(Line Move)
G1 X-102.4056 Y-114.4037 Z-5.6667
(Line Move)
X-98.648 Y-110.4596 Z-5.6667
(Line Move)
X-98.6473 Y-110.4589 Z-5.6667
(Arc Move)
G3 X-86.6906 Y-96.3826 I-115.3019 J110.0569
(Line Move)
G1 X-86.6883 Y-96.3796 Z-5.6667
(Line Move)
X-86.686 Y-96.3766 Z-5.6667
(Arc Move)
G3 X-72.4877 Y-67.6892 I-66.0605 J50.5526
(Arc Move)
X-70.3932 Y-54.2721 I-60.2463 J16.2768
(Arc Move)
X-70.2804 Y-33.2543 I-1956.9067 J21.0178
(Arc Move)
X-70.3601 Y-15.5873 I-1957.0195 J0
(Line Move)
G1 X-70.3897 Y-14.7846 Z-5.6667
(Line Move)
X-70.2933 Y-14.2635 Z-5.6667
(Line Move)
X-70.068 Y-13.774 Z-5.6667
(Line Move)
X-69.4589 Y-12.9298 Z-5.6667
(Line Move)
X-67.1685 Y-12.9298 Z-5.6667
(Arc Move)
G2 X-61.9231 Y-12.9245 I5.2453 J-2591.3969
(Arc Move)
X-52.327 Y-12.9422 I0 J-2591.4022
(Line Move)
G1 X-51.5293 Y-12.8697 Z-5.6667
(Line Move)
X-50.9742 Y-12.765 Z-5.6667
(Line Move)
X-50.5588 Y-12.6076 Z-5.6667
(Line Move)
X-50.1002 Y-12.3266 Z-5.6667
(Line Move)
X-49.4855 Y-11.8414 Z-5.6667
(Arc Move)
G2 X-35.6242 Y.807 I502.4893 J-536.7589
(Line Move)
G1 X-34.9198 Y1.4335 Z-5.6667
(Line Move)
X-33.2436 Y-.0022 Z-5.6667
(Line Move)
X-33.238 Y-.0072 Z-5.6667
(Arc Move)
G3 X-31.6166 Y-1.3049 I14.5391 J16.5043
(Arc Move)
X-23.5227 Y-6.7919 I795.9538 J1165.382
(Line Move)
G1 X-23.5222 Y-6.7923 Z-5.6667
(Arc Move)
G2 X-11.4285 Y-15.202 I-279.7131 J-415.1495
(Arc Move)
X-2.1682 Y-21.646 I-474.0179 J-691.0538
(Line Move)
G1 X-1.409 Y-22.0852 Z-5.6667
(Line Move)
X-.6107 Y-22.691 Z-5.6667
(Line Move)
X-.1235 Y-23.2308 Z-5.6667
(Line Move)
X.3654 Y-24.0451 Z-5.6667
(Line Move)
X.5913 Y-24.6056 Z-5.6667
(Line Move)
X.7447 Y-25.2133 Z-5.6667
(Line Move)
X.8397 Y-25.887 Z-5.6667
(Line Move)
X.8687 Y-27.4476 Z-5.6667
(Line Move)
X.8408 Y-33.6898 Z-5.6667
(Line Move)
X.8862 Y-45.4207 Z-5.6667
(Line Move)
X.8426 Y-57.2632 Z-5.6667
(Line Move)
X.8828 Y-62.728 Z-5.6667
(Line Move)
X1.0138 Y-69.0793 Z-5.6667
(Line Move)
X1.016 Y-74.673 Z-5.6667
(Line Move)
X.8873 Y-86.4679 Z-5.6667
(Line Move)
X.8586 Y-128.3086 Z-5.6667
(Line Move)
X.79 Y-134.0343 Z-5.6667
(Line Move)
X.5234 Y-140.1884 Z-5.6667
(Line Move)
X.2953 Y-141.197 Z-5.6667
(Line Move)
X.0097 Y-142.0164 Z-5.6667
(Line Move)
X-.443 Y-142.7515 Z-5.6667
(Line Move)
X-1.0776 Y-143.377 Z-5.6667
(Line Move)
X-1.8991 Y-143.963 Z-5.6667
(Line Move)
X-1.954 Y-143.9933 Z-5.6667
(Arc Move)
G2 X-4.4295 Y-145.2474 I-19.2244 J34.8768
(Line Move)
G1 X-4.4329 Y-145.249 Z-5.6667
(Line Move)
X-34.1202 Y-158.758 Z-5.6667
(Line Move)
X-34.3166 Y-158.8479 Z-5.6667
(Arc Move)
G3 X-34.4292 Y-158.969 I.0899 J-.1964
(Line Leadout Move)
G1 X-34.8206 Y-160.0218
(Rapid Z up)
G0 Z3.
(Rapid Move)
X-32.7066 Y-159.0568
(Rapid Z Down)
Z-2.6667
(Feed Z Down)
G1 Z-8.3333 F411.48
(Line Leadin Move)
X-33.7584 Y-158.6628 F1234.44
(Arc Move)
G3 X-33.8342 Y-158.6491 I-.0758 J-.2023
(Arc Move)
X-33.9236 Y-158.6685 I0 J-.216
(Line Move)
G1 X-34.1202 Y-158.758 Z-8.3333 F1645.92
(Line Move)
X-35.0091 Y-159.165 Z-8.3333
(Line Move)
X-36.4339 Y-159.6962 Z-8.3333
(Line Move)
X-38.2655 Y-160.1477 Z-8.3333
(Line Move)
X-39.1945 Y-160.131 Z-8.3333
(Line Move)
X-40.0035 Y-159.9355 Z-8.3333
(Line Move)
X-40.7088 Y-159.4702 Z-8.3333
(Line Move)
X-41.2072 Y-158.8126 Z-8.3333
(Line Move)
X-41.5809 Y-158.0221 Z-8.3333
(Line Move)
X-41.8922 Y-156.9186 Z-8.3333
(Line Move)
X-42.0709 Y-155.9736 Z-8.3333
(Line Move)
X-42.1235 Y-154.8625 Z-8.3333
(Line Move)
X-42.0099 Y-153.767 Z-8.3333
(Line Move)
X-41.5509 Y-151.8929 Z-8.3333
(Line Move)
X-40.9491 Y-149.2136 Z-8.3333
(Line Move)
X-40.3592 Y-145.5538 Z-8.3333
(Line Move)
X-39.7766 Y-141.0481 Z-8.3333
(Line Move)
X-39.5666 Y-138.222 Z-8.3333
(Line Move)
X-39.5887 Y-136.7926 Z-8.3333
(Line Move)
X-39.6779 Y-136.2105 Z-8.3333
(Line Move)
X-39.8528 Y-135.6303 Z-8.3333
(Line Move)
X-40.1033 Y-135.1079 Z-8.3333
(Line Move)
X-40.4133 Y-134.6507 Z-8.3333
(Line Move)
X-40.8623 Y-134.0962 Z-8.3333
(Line Move)
X-42.3777 Y-132.7006 Z-8.3333
(Line Move)
X-43.4474 Y-131.8601 Z-8.3333
(Line Move)
X-44.6118 Y-131.1216 Z-8.3333
(Line Move)
X-45.8512 Y-130.4709 Z-8.3333
(Arc Move)
G3 X-51.5007 Y-127.8662 I-2680.9337 J-5807.4209
(Arc Move)
X-53.2789 Y-127.1609 I-8.125 J-17.8895
(Arc Move)
X-63.7027 Y-123.7415 I-1008.5316 J-3056.8405
(Line Move)
G1 X-63.7106 Y-123.7389 Z-8.3333
(Line Move)
X-63.7185 Y-123.7362 Z-8.3333
(Arc Move)
G3 X-68.7933 Y-122.3517 I-13.2728 J-38.6576
(Line Move)
G1 X-68.8065 Y-122.349 Z-8.3333
(Line Move)
X-68.8196 Y-122.346 Z-8.3333
(Arc Move)
G3 X-101.0338 Y-117.2365 I-52.7766 J-228.6405
(Line Move)
G1 X-101.0723 Y-117.2331 Z-8.3333
(Line Move)
X-101.1105 Y-117.227 Z-8.3333
(Arc Move)
G2 X-102.4884 Y-116.9096 I1.6728 J10.4103
(Line Move)
G1 X-103.5222 Y-116.5971 Z-8.3333
(Line Move)
X-103.6805 Y-116.1383 Z-8.3333
(Line Move)
X-103.0595 Y-115.2547 Z-8.3333
(Arc Move)
G2 X-102.4285 Y-114.4312 I10.325 J-7.2568
(Line Move)
G1 X-102.4056 Y-114.4037 Z-8.3333
(Line Move)
X-98.648 Y-110.4596 Z-8.3333
(Line Move)
X-98.6473 Y-110.4589 Z-8.3333
(Arc Move)
G3 X-86.6906 Y-96.3826 I-115.3019 J110.0569
(Line Move)
G1 X-86.6883 Y-96.3796 Z-8.3333
(Line Move)
X-86.686 Y-96.3766 Z-8.3333
(Arc Move)
G3 X-72.4877 Y-67.6892 I-66.0605 J50.5526
(Arc Move)
X-70.3932 Y-54.2721 I-60.2463 J16.2768
(Arc Move)
X-70.2804 Y-33.2543 I-1956.9067 J21.0178
(Arc Move)
X-70.3601 Y-15.5873 I-1957.0195 J0
(Line Move)
G1 X-70.3897 Y-14.7846 Z-8.3333
(Line Move)
X-70.2933 Y-14.2635 Z-8.3333
(Line Move)
X-70.068 Y-13.774 Z-8.3333
(Line Move)
X-69.4589 Y-12.9298 Z-8.3333
(Line Move)
X-67.1685 Y-12.9298 Z-8.3333
(Arc Move)
G2 X-61.9231 Y-12.9245 I5.2453 J-2591.3969
(Arc Move)
X-52.327 Y-12.9422 I0 J-2591.4022
(Line Move)
G1 X-51.5293 Y-12.8697 Z-8.3333
(Line Move)
X-50.9742 Y-12.765 Z-8.3333
(Line Move)
X-50.5588 Y-12.6076 Z-8.3333
(Line Move)
X-50.1002 Y-12.3266 Z-8.3333
(Line Move)
X-49.4855 Y-11.8414 Z-8.3333
(Arc Move)
G2 X-35.6242 Y.807 I502.4893 J-536.7589
(Line Move)
G1 X-34.9198 Y1.4335 Z-8.3333
(Line Move)
X-33.2436 Y-.0022 Z-8.3333
(Line Move)
X-33.238 Y-.0072 Z-8.3333
(Arc Move)
G3 X-31.6166 Y-1.3049 I14.5391 J16.5043
(Arc Move)
X-23.5227 Y-6.7919 I795.9538 J1165.382
(Line Move)
G1 X-23.5222 Y-6.7923 Z-8.3333
(Arc Move)
G2 X-11.4285 Y-15.202 I-279.7131 J-415.1495
(Arc Move)
X-2.1682 Y-21.646 I-474.0179 J-691.0538
(Line Move)
G1 X-1.409 Y-22.0852 Z-8.3333
(Line Move)
X-.6107 Y-22.691 Z-8.3333
(Line Move)
X-.1235 Y-23.2308 Z-8.3333
(Line Move)
X.3654 Y-24.0451 Z-8.3333
(Line Move)
X.5913 Y-24.6056 Z-8.3333
(Line Move)
X.7447 Y-25.2133 Z-8.3333
(Line Move)
X.8397 Y-25.887 Z-8.3333
(Line Move)
X.8687 Y-27.4476 Z-8.3333
(Line Move)
X.8408 Y-33.6898 Z-8.3333
(Line Move)
X.8862 Y-45.4207 Z-8.3333
(Line Move)
X.8426 Y-57.2632 Z-8.3333
(Line Move)
X.8828 Y-62.728 Z-8.3333
(Line Move)
X1.0138 Y-69.0793 Z-8.3333
(Line Move)
X1.016 Y-74.673 Z-8.3333
(Line Move)
X.8873 Y-86.4679 Z-8.3333
(Line Move)
X.8586 Y-128.3086 Z-8.3333
(Line Move)
X.79 Y-134.0343 Z-8.3333
(Line Move)
X.5234 Y-140.1884 Z-8.3333
(Line Move)
X.2953 Y-141.197 Z-8.3333
(Line Move)
X.0097 Y-142.0164 Z-8.3333
(Line Move)
X-.443 Y-142.7515 Z-8.3333
(Line Move)
X-1.0776 Y-143.377 Z-8.3333
(Line Move)
X-1.8991 Y-143.963 Z-8.3333
(Line Move)
X-1.954 Y-143.9933 Z-8.3333
(Arc Move)
G2 X-4.4295 Y-145.2474 I-19.2244 J34.8768
(Line Move)
G1 X-4.4329 Y-145.249 Z-8.3333
(Line Move)
X-34.1202 Y-158.758 Z-8.3333
(Line Move)
X-34.3166 Y-158.8479 Z-8.3333
(Arc Move)
G3 X-34.4292 Y-158.969 I.0899 J-.1964
(Line Leadout Move)
G1 X-34.8206 Y-160.0218
(Rapid Z up)
G0 Z3.
(Rapid Move)
X-32.7066 Y-159.0568
(Rapid Z Down)
Z-5.3333
(Feed Z Down)
G1 Z-11. F411.48
(Line Leadin Move)
X-33.7584 Y-158.6628 F1234.44
(Arc Move)
G3 X-33.8342 Y-158.6491 I-.0758 J-.2023
(Arc Move)
X-33.9236 Y-158.6685 I0 J-.216
(Line Move)
G1 X-34.1202 Y-158.758 Z-11. F1645.92
(Line Move)
X-35.0091 Y-159.165 Z-11.
(Line Move)
X-36.4339 Y-159.6962 Z-11.
(Line Move)
X-38.2655 Y-160.1477 Z-11.
(Line Move)
X-39.1945 Y-160.131 Z-11.
(Line Move)
X-40.0035 Y-159.9355 Z-11.
(Line Move)
X-40.7088 Y-159.4702 Z-11.
(Line Move)
X-41.2072 Y-158.8126 Z-11.
(Line Move)
X-41.5809 Y-158.0221 Z-11.
(Line Move)
X-41.8922 Y-156.9186 Z-11.
(Line Move)
X-42.0709 Y-155.9736 Z-11.
(Line Move)
X-42.1235 Y-154.8625 Z-11.
(Line Move)
X-42.0099 Y-153.767 Z-11.
(Line Move)
X-41.5509 Y-151.8929 Z-11.
(Line Move)
X-40.9491 Y-149.2136 Z-11.
(Line Move)
X-40.3592 Y-145.5538 Z-11.
(Line Move)
X-39.7766 Y-141.0481 Z-11.
(Line Move)
X-39.5666 Y-138.222 Z-11.
(Line Move)
X-39.5887 Y-136.7926 Z-11.
(Line Move)
X-39.6779 Y-136.2105 Z-11.
(Line Move)
X-39.8528 Y-135.6303 Z-11.
(Line Move)
X-40.1033 Y-135.1079 Z-11.
(Line Move)
X-40.4133 Y-134.6507 Z-11.
(Line Move)
X-40.8623 Y-134.0962 Z-11.
(Line Move)
X-42.3777 Y-132.7006 Z-11.
(Line Move)
X-43.4474 Y-131.8601 Z-11.
(Line Move)
X-44.6118 Y-131.1216 Z-11.
(Line Move)
X-45.8512 Y-130.4709 Z-11.
(Arc Move)
G3 X-51.5007 Y-127.8662 I-2680.9337 J-5807.4209
(Arc Move)
X-53.2789 Y-127.1609 I-8.125 J-17.8895
(Arc Move)
X-63.7027 Y-123.7415 I-1008.5316 J-3056.8405
(Line Move)
G1 X-63.7106 Y-123.7389 Z-11.
(Line Move)
X-63.7185 Y-123.7362 Z-11.
(Arc Move)
G3 X-68.7933 Y-122.3517 I-13.2728 J-38.6576
(Line Move)
G1 X-68.8065 Y-122.349 Z-11.
(Line Move)
X-68.8196 Y-122.346 Z-11.
(Arc Move)
G3 X-101.0338 Y-117.2365 I-52.7766 J-228.6405
(Line Move)
G1 X-101.0723 Y-117.2331 Z-11.
(Line Move)
X-101.1105 Y-117.227 Z-11.
(Arc Move)
G2 X-102.4884 Y-116.9096 I1.6728 J10.4103
(Line Move)
G1 X-103.5222 Y-116.5971 Z-11.
(Line Move)
X-103.6805 Y-116.1383 Z-11.
(Line Move)
X-103.0595 Y-115.2547 Z-11.
(Arc Move)
G2 X-102.4285 Y-114.4312 I10.325 J-7.2568
(Line Move)
G1 X-102.4056 Y-114.4037 Z-11.
(Line Move)
X-98.648 Y-110.4596 Z-11.
(Line Move)
X-98.6473 Y-110.4589 Z-11.
(Arc Move)
G3 X-86.6906 Y-96.3826 I-115.3019 J110.0569
(Line Move)
G1 X-86.6883 Y-96.3796 Z-11.
(Line Move)
X-86.686 Y-96.3766 Z-11.
(Arc Move)
G3 X-72.4877 Y-67.6892 I-66.0605 J50.5526
(Arc Move)
X-70.3932 Y-54.2721 I-60.2463 J16.2768
(Arc Move)
X-70.2804 Y-33.2543 I-1956.9067 J21.0178
(Arc Move)
X-70.3601 Y-15.5873 I-1957.0195 J0
(Line Move)
G1 X-70.3897 Y-14.7846 Z-11.
(Line Move)
X-70.2933 Y-14.2635 Z-11.
(Line Move)
X-70.068 Y-13.774 Z-11.
(Line Move)
X-69.4589 Y-12.9298 Z-11.
(Line Move)
X-67.1685 Y-12.9298 Z-11.
(Arc Move)
G2 X-61.9231 Y-12.9245 I5.2453 J-2591.3969
(Arc Move)
X-52.327 Y-12.9422 I0 J-2591.4022
(Line Move)
G1 X-51.5293 Y-12.8697 Z-11.
(Line Move)
X-50.9742 Y-12.765 Z-11.
(Line Move)
X-50.5588 Y-12.6076 Z-11.
(Line Move)
X-50.1002 Y-12.3266 Z-11.
(Line Move)
X-49.4855 Y-11.8414 Z-11.
(Arc Move)
G2 X-35.6242 Y.807 I502.4893 J-536.7589
(Line Move)
G1 X-34.9198 Y1.4335 Z-11.
(Line Move)
X-33.2436 Y-.0022 Z-11.
(Line Move)
X-33.238 Y-.0072 Z-11.
(Arc Move)
G3 X-31.6166 Y-1.3049 I14.5391 J16.5043
(Arc Move)
X-23.5227 Y-6.7919 I795.9538 J1165.382
(Line Move)
G1 X-23.5222 Y-6.7923 Z-11.
(Arc Move)
G2 X-11.4285 Y-15.202 I-279.7131 J-415.1495
(Arc Move)
X-2.1682 Y-21.646 I-474.0179 J-691.0538
(Line Move)
G1 X-1.409 Y-22.0852 Z-11.
(Line Move)
X-.6107 Y-22.691 Z-11.
(Line Move)
X-.1235 Y-23.2308 Z-11.
(Line Move)
X.3654 Y-24.0451 Z-11.
(Line Move)
X.5913 Y-24.6056 Z-11.
(Line Move)
X.7447 Y-25.2133 Z-11.
(Line Move)
X.8397 Y-25.887 Z-11.
(Line Move)
X.8687 Y-27.4476 Z-11.
(Line Move)
X.8408 Y-33.6898 Z-11.
(Line Move)
X.8862 Y-45.4207 Z-11.
(Line Move)
X.8426 Y-57.2632 Z-11.
(Line Move)
X.8828 Y-62.728 Z-11.
(Line Move)
X1.0138 Y-69.0793 Z-11.
(Line Move)
X1.016 Y-74.673 Z-11.
(Line Move)
X.8873 Y-86.4679 Z-11.
(Line Move)
X.8586 Y-128.3086 Z-11.
(Line Move)
X.79 Y-134.0343 Z-11.
(Line Move)
X.5234 Y-140.1884 Z-11.
(Line Move)
X.2953 Y-141.197 Z-11.
(Line Move)
X.0097 Y-142.0164 Z-11.
(Line Move)
X-.443 Y-142.7515 Z-11.
(Line Move)
X-1.0776 Y-143.377 Z-11.
(Line Move)
X-1.8991 Y-143.963 Z-11.
(Line Move)
X-1.954 Y-143.9933 Z-11.
(Arc Move)
G2 X-4.4295 Y-145.2474 I-19.2244 J34.8768
(Line Move)
G1 X-4.4329 Y-145.249 Z-11.
(Line Move)
X-34.1202 Y-158.758 Z-11.
(Line Move)
X-34.3166 Y-158.8479 Z-11.
(Arc Move)
G3 X-34.4292 Y-158.969 I.0899 J-.1964
(Line Leadout Move)
G1 X-34.8206 Y-160.0218
(Rapid Z up)
G0 Z3.
(Last Rapid Z Up)
Z25. M9
(End of Tape)
G53
Z-2 
M5
G4 P1 
m9
M30
