(Start of Tape)



(Made in : UPC)

(G Code optimized for RS-CNC32 with GRBL V0.9j controller)



( PART NUMBER=1 )

( PART NAME=  )

( PROGRAMMER=  )

( OPERATION NUMBER=  )

( DATE=  )



G90 G17 G21 G80

m8

(Init Tool Change)

(6MM CRB 2FL 19 LOC)

G53

G0 Z2 

G54

S12000 M3

M8

G4 P1 

(Rapid From Tool Change)

G0 G90 X1.8507 Y-100.1608

(Rapid Z Down)

Z3.

(Feed Z Down)

G1 Z-2. F411.48

(Line Leadin Move)

X1.0452 Y-100.9436 F1234.44

(Arc Move)

G3 X.9798 Y-101.0954 I.1505 J-.1549

(Arc Move)

G2 X.9767 Y-101.3114 I-3808.6698 J54.3264 F1645.92

(Line Move)

G1 X.9632 Y-102.2506 Z-2.

(Line Move)

X-.4414 Y-102.4269 Z-2.

(Line Move)

X-1.0949 Y-102.5661 Z-2.

(Line Move)

X-1.7712 Y-102.8092 Z-2.

(Line Move)

X-4.4481 Y-104.6732 Z-2.

(Line Move)

X-7.0229 Y-106.6269 Z-2.

(Line Move)

X-9.6389 Y-108.808 Z-2.

(Line Move)

X-10.8515 Y-109.9144 Z-2.

(Line Move)

X-12.0031 Y-111.0598 Z-2.

(Line Move)

X-13.0864 Y-112.2582 Z-2.

(Line Move)

X-14.1013 Y-113.5311 Z-2.

(Line Move)

X-15.0172 Y-114.8401 Z-2.

(Line Move)

X-15.8642 Y-116.2114 Z-2.

(Line Move)

X-17.4799 Y-119.1848 Z-2.

(Line Move)

X-18.173 Y-120.6363 Z-2.

(Line Move)

X-18.7397 Y-122.0765 Z-2.

(Line Move)

X-19.8226 Y-125.3249 Z-2.

(Line Move)

X-20.9629 Y-128.5282 Z-2.

(Arc Move)

G2 X-23.3754 Y-133.9203 I-34.7455 J12.3101

(Line Move)

G1 X-28.4016 Y-143.1754 Z-2.

(Line Move)

X-29.7681 Y-145.6671 Z-2.

(Line Move)

X-30.458 Y-146.5898 Z-2.

(Line Move)

X-30.8896 Y-146.9992 Z-2.

(Line Move)

X-31.3801 Y-147.3596 Z-2.

(Line Move)

X-31.9339 Y-147.6698 Z-2.

(Line Move)

X-32.5491 Y-147.9105 Z-2.

(Line Move)

X-33.2058 Y-148.0473 Z-2.

(Line Move)

X-33.8593 Y-148.0661 Z-2.

(Line Move)

X-34.4924 Y-147.985 Z-2.

(Line Move)

X-35.1032 Y-147.8169 Z-2.

(Line Move)

X-36.1214 Y-147.3649 Z-2.

(Line Move)

X-39.2338 Y-145.4392 Z-2.

(Line Move)

X-40.0361 Y-144.8777 Z-2.

(Line Move)

X-40.7957 Y-144.2174 Z-2.

(Line Move)

X-41.4704 Y-143.4959 Z-2.

(Line Move)

X-42.0749 Y-142.7091 Z-2.

(Line Move)

X-42.6009 Y-141.8968 Z-2.

(Line Move)

X-43.4792 Y-140.193 Z-2.

(Line Move)

X-44.0578 Y-138.7202 Z-2.

(Line Move)

X-44.5829 Y-137.1825 Z-2.

(Line Move)

X-44.8659 Y-136.1138 Z-2.

(Line Move)

X-45.0941 Y-135.0064 Z-2.

(Line Move)

X-45.2537 Y-133.9406 Z-2.

(Line Move)

X-47.285 Y-109.1582 Z-2.

(Line Move)

X-47.5297 Y-107.1296 Z-2.

(Line Move)

X-47.8355 Y-105.1122 Z-2.

(Line Move)

X-48.1978 Y-103.1472 Z-2.

(Line Move)

X-48.6218 Y-101.1884 Z-2.

(Line Move)

X-49.6512 Y-97.2072 Z-2.

(Line Move)

X-54.2778 Y-81.2445 Z-2.

(Line Move)

X-55.3607 Y-77.2579 Z-2.

(Line Move)

X-56.3127 Y-73.1848 Z-2.

(Line Move)

X-57.1043 Y-69.0801 Z-2.

(Line Move)

X-57.4093 Y-66.9669 Z-2.

(Line Move)

X-57.6052 Y-64.8871 Z-2.

(Line Move)

X-57.6893 Y-62.7687 Z-2.

(Line Move)

X-57.6412 Y-58.5391 Z-2.

(Line Move)

X-57.4969 Y-56.6928 Z-2.

(Line Move)

X-57.1484 Y-53.9182 Z-2.

(Line Move)

X-56.5557 Y-51.1539 Z-2.

(Line Move)

X-55.8549 Y-48.5368 Z-2.

(Line Move)

X-55.2511 Y-46.7739 Z-2.

(Line Move)

X-54.4724 Y-45.0087 Z-2.

(Line Move)

X-52.4166 Y-40.9507 Z-2.

(Line Move)

X-52.4152 Y-40.948 Z-2.

(Arc Move)

G3 X-45.9149 Y-27.9751 I-646.5092 J332.0583

(Line Move)

G1 X-45.9129 Y-27.9710 Z-2.

(Line Move)

X-45.9109 Y-27.9669 Z-2.

(Arc Move)

G2 X-41.6099 Y-20.8907 I44.587 J-22.2555

(Line Move)

G1 X-41.5827 Y-20.8533 Z-2.

(Line Move)

X-40.0018 Y-19.0325 Z-2.

(Line Move)

X-37.9601 Y-17.0352 Z-2.

(Line Move)

X-36.7496 Y-15.7743 Z-2.

(Line Move)

X-35.2869 Y-13.9439 Z-2.

(Line Move)

X-34.068 Y-12.7679 Z-2.

(Line Move)

X-19.9305 Y.2157 Z-2.

(Line Move)

X-18.9737 Y.918 Z-2.

(Line Move)

X-18.4052 Y1.1912 Z-2.

(Line Move)

X-17.835 Y1.3687 Z-2.

(Line Move)

X-17.2415 Y1.4762 Z-2.

(Line Move)

X-16.1008 Y1.5398 Z-2.

(Line Move)

X-1.5645 Y1.5287 Z-2.

(Line Move)

X-1.0679 Y1.5249 Z-2.

(Line Move)

X-.2418 Y1.3611 Z-2.

(Line Move)

X1.0721 Y.6461 Z-2.

(Line Move)

X1.0799 Y.0133 Z-2.

(Arc Move)

G2 X1.3672 Y-46.7691 I-3808.77 J-46.7823

(Arc Move)

X.9767 Y-101.3114 I-3809.0573 J0

(Line Move)

G1 X.9736 Y-101.5274 Z-2.

(Arc Move)

G3 Y-101.5305 I.216 J-.0031

(Arc Move)

X1.0347 Y-101.681 I.216 J0

(Line Leadout Move)

G1 X1.8174 Y-102.4865

(Rapid Z up)

G0 Z3.

(Rapid Move)

X1.8507 Y-100.1608

(Rapid Z Down)

Z1.

(Feed Z Down)

G1 Z-3.801 F411.48

(Line Leadin Move)

X1.0452 Y-100.9436 F1234.44

(Arc Move)

G3 X.9798 Y-101.0954 I.1505 J-.1549

(Arc Move)

G2 X.9767 Y-101.3114 I-3808.6698 J54.3264 F1645.92

(Line Move)

G1 X.9632 Y-102.2506 Z-3.801

(Line Move)

X-.4414 Y-102.4269 Z-3.801

(Line Move)

X-1.0949 Y-102.5661 Z-3.801

(Line Move)

X-1.7712 Y-102.8092 Z-3.801

(Line Move)

X-4.4481 Y-104.6732 Z-3.801

(Line Move)

X-7.0229 Y-106.6269 Z-3.801

(Line Move)

X-9.6389 Y-108.808 Z-3.801

(Line Move)

X-10.8515 Y-109.9144 Z-3.801

(Line Move)

X-12.0031 Y-111.0598 Z-3.801

(Line Move)

X-13.0864 Y-112.2582 Z-3.801

(Line Move)

X-14.1013 Y-113.5311 Z-3.801

(Line Move)

X-15.0172 Y-114.8401 Z-3.801

(Line Move)

X-15.8642 Y-116.2114 Z-3.801

(Line Move)

X-17.4799 Y-119.1848 Z-3.801

(Line Move)

X-18.173 Y-120.6363 Z-3.801

(Line Move)

X-18.7397 Y-122.0765 Z-3.801

(Line Move)

X-19.8226 Y-125.3249 Z-3.801

(Line Move)

X-20.9629 Y-128.5282 Z-3.801

(Arc Move)

G2 X-23.3754 Y-133.9203 I-34.7455 J12.3101

(Line Move)

G1 X-28.4016 Y-143.1754 Z-3.801

(Line Move)

X-29.7681 Y-145.6671 Z-3.801

(Line Move)

X-30.458 Y-146.5898 Z-3.801

(Line Move)

X-30.8896 Y-146.9992 Z-3.801

(Line Move)

X-31.3801 Y-147.3596 Z-3.801

(Line Move)

X-31.9339 Y-147.6698 Z-3.801

(Line Move)

X-32.5491 Y-147.9105 Z-3.801

(Line Move)

X-33.2058 Y-148.0473 Z-3.801

(Line Move)

X-33.8593 Y-148.0661 Z-3.801

(Line Move)

X-34.4924 Y-147.985 Z-3.801

(Line Move)

X-35.1032 Y-147.8169 Z-3.801

(Line Move)

X-36.1214 Y-147.3649 Z-3.801

(Line Move)

X-39.2338 Y-145.4392 Z-3.801

(Line Move)

X-40.0361 Y-144.8777 Z-3.801

(Line Move)

X-40.7957 Y-144.2174 Z-3.801

(Line Move)

X-41.4704 Y-143.4959 Z-3.801

(Line Move)

X-42.0749 Y-142.7091 Z-3.801

(Line Move)

X-42.6009 Y-141.8968 Z-3.801

(Line Move)

X-43.4792 Y-140.193 Z-3.801

(Line Move)

X-44.0578 Y-138.7202 Z-3.801

(Line Move)

X-44.5829 Y-137.1825 Z-3.801

(Line Move)

X-44.8659 Y-136.1138 Z-3.801

(Line Move)

X-45.0941 Y-135.0064 Z-3.801

(Line Move)

X-45.2537 Y-133.9406 Z-3.801

(Line Move)

X-47.285 Y-109.1582 Z-3.801

(Line Move)

X-47.5297 Y-107.1296 Z-3.801

(Line Move)

X-47.8355 Y-105.1122 Z-3.801

(Line Move)

X-48.1978 Y-103.1472 Z-3.801

(Line Move)

X-48.6218 Y-101.1884 Z-3.801

(Line Move)

X-49.6512 Y-97.2072 Z-3.801

(Line Move)

X-54.2778 Y-81.2445 Z-3.801

(Line Move)

X-55.3607 Y-77.2579 Z-3.801

(Line Move)

X-56.3127 Y-73.1848 Z-3.801

(Line Move)

X-57.1043 Y-69.0801 Z-3.801

(Line Move)

X-57.4093 Y-66.9669 Z-3.801

(Line Move)

X-57.6052 Y-64.8871 Z-3.801

(Line Move)

X-57.6893 Y-62.7687 Z-3.801

(Line Move)

X-57.6412 Y-58.5391 Z-3.801

(Line Move)

X-57.4969 Y-56.6928 Z-3.801

(Line Move)

X-57.1484 Y-53.9182 Z-3.801

(Line Move)

X-56.5557 Y-51.1539 Z-3.801

(Line Move)

X-55.8549 Y-48.5368 Z-3.801

(Line Move)

X-55.2511 Y-46.7739 Z-3.801

(Line Move)

X-54.4724 Y-45.0087 Z-3.801

(Line Move)

X-52.4166 Y-40.9507 Z-3.801

(Line Move)

X-52.4152 Y-40.948 Z-3.801

(Arc Move)

G3 X-45.9149 Y-27.9751 I-646.5092 J332.0583

(Line Move)

G1 X-45.9129 Y-27.9710 Z-3.801

(Line Move)

X-45.9109 Y-27.9669 Z-3.801

(Arc Move)

G2 X-41.6099 Y-20.8907 I44.587 J-22.2555

(Line Move)

G1 X-41.5827 Y-20.8533 Z-3.801

(Line Move)

X-40.0018 Y-19.0325 Z-3.801

(Line Move)

X-37.9601 Y-17.0352 Z-3.801

(Line Move)

X-36.7496 Y-15.7743 Z-3.801

(Line Move)

X-35.2869 Y-13.9439 Z-3.801

(Line Move)

X-34.068 Y-12.7679 Z-3.801

(Line Move)

X-19.9305 Y.2157 Z-3.801

(Line Move)

X-18.9737 Y.918 Z-3.801

(Line Move)

X-18.4052 Y1.1912 Z-3.801

(Line Move)

X-17.835 Y1.3687 Z-3.801

(Line Move)

X-17.2415 Y1.4762 Z-3.801

(Line Move)

X-16.1008 Y1.5398 Z-3.801

(Line Move)

X-1.5645 Y1.5287 Z-3.801

(Line Move)

X-1.0679 Y1.5249 Z-3.801

(Line Move)

X-.2418 Y1.3611 Z-3.801

(Line Move)

X1.0721 Y.6461 Z-3.801

(Line Move)

X1.0799 Y.0133 Z-3.801

(Arc Move)

G2 X1.3672 Y-46.7691 I-3808.77 J-46.7823

(Arc Move)

X.9767 Y-101.3114 I-3809.0573 J0

(Line Move)

G1 X.9736 Y-101.5274 Z-3.801

(Arc Move)

G3 Y-101.5305 I.216 J-.0031

(Arc Move)

X1.0347 Y-101.681 I.216 J0

(Line Leadout Move)

G1 X1.8174 Y-102.4865

(Rapid Z up)

G0 Z3.

(Rapid Move)

X1.8507 Y-100.1608

(Rapid Z Down)

Z-.801

(Feed Z Down)

G1 Z-5.602 F411.48

(Line Leadin Move)

X1.0452 Y-100.9436 F1234.44

(Arc Move)

G3 X.9798 Y-101.0954 I.1505 J-.1549

(Arc Move)

G2 X.9767 Y-101.3114 I-3808.6698 J54.3264 F1645.92

(Line Move)

G1 X.9632 Y-102.2506 Z-5.602

(Line Move)

X-.4414 Y-102.4269 Z-5.602

(Line Move)

X-1.0949 Y-102.5661 Z-5.602

(Line Move)

X-1.7712 Y-102.8092 Z-5.602

(Line Move)

X-4.4481 Y-104.6732 Z-5.602

(Line Move)

X-7.0229 Y-106.6269 Z-5.602

(Line Move)

X-9.6389 Y-108.808 Z-5.602

(Line Move)

X-10.8515 Y-109.9144 Z-5.602

(Line Move)

X-12.0031 Y-111.0598 Z-5.602

(Line Move)

X-13.0864 Y-112.2582 Z-5.602

(Line Move)

X-14.1013 Y-113.5311 Z-5.602

(Line Move)

X-15.0172 Y-114.8401 Z-5.602

(Line Move)

X-15.8642 Y-116.2114 Z-5.602

(Line Move)

X-17.4799 Y-119.1848 Z-5.602

(Line Move)

X-18.173 Y-120.6363 Z-5.602

(Line Move)

X-18.7397 Y-122.0765 Z-5.602

(Line Move)

X-19.8226 Y-125.3249 Z-5.602

(Line Move)

X-20.9629 Y-128.5282 Z-5.602

(Arc Move)

G2 X-23.3754 Y-133.9203 I-34.7455 J12.3101

(Line Move)

G1 X-28.4016 Y-143.1754 Z-5.602

(Line Move)

X-29.7681 Y-145.6671 Z-5.602

(Line Move)

X-30.458 Y-146.5898 Z-5.602

(Line Move)

X-30.8896 Y-146.9992 Z-5.602

(Line Move)

X-31.3801 Y-147.3596 Z-5.602

(Line Move)

X-31.9339 Y-147.6698 Z-5.602

(Line Move)

X-32.5491 Y-147.9105 Z-5.602

(Line Move)

X-33.2058 Y-148.0473 Z-5.602

(Line Move)

X-33.8593 Y-148.0661 Z-5.602

(Line Move)

X-34.4924 Y-147.985 Z-5.602

(Line Move)

X-35.1032 Y-147.8169 Z-5.602

(Line Move)

X-36.1214 Y-147.3649 Z-5.602

(Line Move)

X-39.2338 Y-145.4392 Z-5.602

(Line Move)

X-40.0361 Y-144.8777 Z-5.602

(Line Move)

X-40.7957 Y-144.2174 Z-5.602

(Line Move)

X-41.4704 Y-143.4959 Z-5.602

(Line Move)

X-42.0749 Y-142.7091 Z-5.602

(Line Move)

X-42.6009 Y-141.8968 Z-5.602

(Line Move)

X-43.4792 Y-140.193 Z-5.602

(Line Move)

X-44.0578 Y-138.7202 Z-5.602

(Line Move)

X-44.5829 Y-137.1825 Z-5.602

(Line Move)

X-44.8659 Y-136.1138 Z-5.602

(Line Move)

X-45.0941 Y-135.0064 Z-5.602

(Line Move)

X-45.2537 Y-133.9406 Z-5.602

(Line Move)

X-47.285 Y-109.1582 Z-5.602

(Line Move)

X-47.5297 Y-107.1296 Z-5.602

(Line Move)

X-47.8355 Y-105.1122 Z-5.602

(Line Move)

X-48.1978 Y-103.1472 Z-5.602

(Line Move)

X-48.6218 Y-101.1884 Z-5.602

(Line Move)

X-49.6512 Y-97.2072 Z-5.602

(Line Move)

X-54.2778 Y-81.2445 Z-5.602

(Line Move)

X-55.3607 Y-77.2579 Z-5.602

(Line Move)

X-56.3127 Y-73.1848 Z-5.602

(Line Move)

X-57.1043 Y-69.0801 Z-5.602

(Line Move)

X-57.4093 Y-66.9669 Z-5.602

(Line Move)

X-57.6052 Y-64.8871 Z-5.602

(Line Move)

X-57.6893 Y-62.7687 Z-5.602

(Line Move)

X-57.6412 Y-58.5391 Z-5.602

(Line Move)

X-57.4969 Y-56.6928 Z-5.602

(Line Move)

X-57.1484 Y-53.9182 Z-5.602

(Line Move)

X-56.5557 Y-51.1539 Z-5.602

(Line Move)

X-55.8549 Y-48.5368 Z-5.602

(Line Move)

X-55.2511 Y-46.7739 Z-5.602

(Line Move)

X-54.4724 Y-45.0087 Z-5.602

(Line Move)

X-52.4166 Y-40.9507 Z-5.602

(Line Move)

X-52.4152 Y-40.948 Z-5.602

(Arc Move)

G3 X-45.9149 Y-27.9751 I-646.5092 J332.0583

(Line Move)

G1 X-45.9129 Y-27.9710 Z-5.602

(Line Move)

X-45.9109 Y-27.9669 Z-5.602

(Arc Move)

G2 X-41.6099 Y-20.8907 I44.587 J-22.2555

(Line Move)

G1 X-41.5827 Y-20.8533 Z-5.602

(Line Move)

X-40.0018 Y-19.0325 Z-5.602

(Line Move)

X-37.9601 Y-17.0352 Z-5.602

(Line Move)

X-36.7496 Y-15.7743 Z-5.602

(Line Move)

X-35.2869 Y-13.9439 Z-5.602

(Line Move)

X-34.068 Y-12.7679 Z-5.602

(Line Move)

X-19.9305 Y.2157 Z-5.602

(Line Move)

X-18.9737 Y.918 Z-5.602

(Line Move)

X-18.4052 Y1.1912 Z-5.602

(Line Move)

X-17.835 Y1.3687 Z-5.602

(Line Move)

X-17.2415 Y1.4762 Z-5.602

(Line Move)

X-16.1008 Y1.5398 Z-5.602

(Line Move)

X-1.5645 Y1.5287 Z-5.602

(Line Move)

X-1.0679 Y1.5249 Z-5.602

(Line Move)

X-.2418 Y1.3611 Z-5.602

(Line Move)

X1.0721 Y.6461 Z-5.602

(Line Move)

X1.0799 Y.0133 Z-5.602

(Arc Move)

G2 X1.3672 Y-46.7691 I-3808.77 J-46.7823

(Arc Move)

X.9767 Y-101.3114 I-3809.0573 J0

(Line Move)

G1 X.9736 Y-101.5274 Z-5.602

(Arc Move)

G3 Y-101.5305 I.216 J-.0031

(Arc Move)

X1.0347 Y-101.681 I.216 J0

(Line Leadout Move)

G1 X1.8174 Y-102.4865

(Rapid Z up)

G0 Z3.

(Rapid Move)

X1.8507 Y-100.1608

(Rapid Z Down)

Z-2.602

(Feed Z Down)

G1 Z-7.403 F411.48

(Line Leadin Move)

X1.0452 Y-100.9436 F1234.44

(Arc Move)

G3 X.9798 Y-101.0954 I.1505 J-.1549

(Arc Move)

G2 X.9767 Y-101.3114 I-3808.6698 J54.3264 F1645.92

(Line Move)

G1 X.9632 Y-102.2506 Z-7.403

(Line Move)

X-.4414 Y-102.4269 Z-7.403

(Line Move)

X-1.0949 Y-102.5661 Z-7.403

(Line Move)

X-1.7712 Y-102.8092 Z-7.403

(Line Move)

X-4.4481 Y-104.6732 Z-7.403

(Line Move)

X-7.0229 Y-106.6269 Z-7.403

(Line Move)

X-9.6389 Y-108.808 Z-7.403

(Line Move)

X-10.8515 Y-109.9144 Z-7.403

(Line Move)

X-12.0031 Y-111.0598 Z-7.403

(Line Move)

X-13.0864 Y-112.2582 Z-7.403

(Line Move)

X-14.1013 Y-113.5311 Z-7.403

(Line Move)

X-15.0172 Y-114.8401 Z-7.403

(Line Move)

X-15.8642 Y-116.2114 Z-7.403

(Line Move)

X-17.4799 Y-119.1848 Z-7.403

(Line Move)

X-18.173 Y-120.6363 Z-7.403

(Line Move)

X-18.7397 Y-122.0765 Z-7.403

(Line Move)

X-19.8226 Y-125.3249 Z-7.403

(Line Move)

X-20.9629 Y-128.5282 Z-7.403

(Arc Move)

G2 X-23.3754 Y-133.9203 I-34.7455 J12.3101

(Line Move)

G1 X-28.4016 Y-143.1754 Z-7.403

(Line Move)

X-29.7681 Y-145.6671 Z-7.403

(Line Move)

X-30.458 Y-146.5898 Z-7.403

(Line Move)

X-30.8896 Y-146.9992 Z-7.403

(Line Move)

X-31.3801 Y-147.3596 Z-7.403

(Line Move)

X-31.9339 Y-147.6698 Z-7.403

(Line Move)

X-32.5491 Y-147.9105 Z-7.403

(Line Move)

X-33.2058 Y-148.0473 Z-7.403

(Line Move)

X-33.8593 Y-148.0661 Z-7.403

(Line Move)

X-34.4924 Y-147.985 Z-7.403

(Line Move)

X-35.1032 Y-147.8169 Z-7.403

(Line Move)

X-36.1214 Y-147.3649 Z-7.403

(Line Move)

X-39.2338 Y-145.4392 Z-7.403

(Line Move)

X-40.0361 Y-144.8777 Z-7.403

(Line Move)

X-40.7957 Y-144.2174 Z-7.403

(Line Move)

X-41.4704 Y-143.4959 Z-7.403

(Line Move)

X-42.0749 Y-142.7091 Z-7.403

(Line Move)

X-42.6009 Y-141.8968 Z-7.403

(Line Move)

X-43.4792 Y-140.193 Z-7.403

(Line Move)

X-44.0578 Y-138.7202 Z-7.403

(Line Move)

X-44.5829 Y-137.1825 Z-7.403

(Line Move)

X-44.8659 Y-136.1138 Z-7.403

(Line Move)

X-45.0941 Y-135.0064 Z-7.403

(Line Move)

X-45.2537 Y-133.9406 Z-7.403

(Line Move)

X-47.285 Y-109.1582 Z-7.403

(Line Move)

X-47.5297 Y-107.1296 Z-7.403

(Line Move)

X-47.8355 Y-105.1122 Z-7.403

(Line Move)

X-48.1978 Y-103.1472 Z-7.403

(Line Move)

X-48.6218 Y-101.1884 Z-7.403

(Line Move)

X-49.6512 Y-97.2072 Z-7.403

(Line Move)

X-54.2778 Y-81.2445 Z-7.403

(Line Move)

X-55.3607 Y-77.2579 Z-7.403

(Line Move)

X-56.3127 Y-73.1848 Z-7.403

(Line Move)

X-57.1043 Y-69.0801 Z-7.403

(Line Move)

X-57.4093 Y-66.9669 Z-7.403

(Line Move)

X-57.6052 Y-64.8871 Z-7.403

(Line Move)

X-57.6893 Y-62.7687 Z-7.403

(Line Move)

X-57.6412 Y-58.5391 Z-7.403

(Line Move)

X-57.4969 Y-56.6928 Z-7.403

(Line Move)

X-57.1484 Y-53.9182 Z-7.403

(Line Move)

X-56.5557 Y-51.1539 Z-7.403

(Line Move)

X-55.8549 Y-48.5368 Z-7.403

(Line Move)

X-55.2511 Y-46.7739 Z-7.403

(Line Move)

X-54.4724 Y-45.0087 Z-7.403

(Line Move)

X-52.4166 Y-40.9507 Z-7.403

(Line Move)

X-52.4152 Y-40.948 Z-7.403

(Arc Move)

G3 X-45.9149 Y-27.9751 I-646.5092 J332.0583

(Line Move)

G1 X-45.9129 Y-27.9710 Z-7.403

(Line Move)

X-45.9109 Y-27.9669 Z-7.403

(Arc Move)

G2 X-41.6099 Y-20.8907 I44.587 J-22.2555

(Line Move)

G1 X-41.5827 Y-20.8533 Z-7.403

(Line Move)

X-40.0018 Y-19.0325 Z-7.403

(Line Move)

X-37.9601 Y-17.0352 Z-7.403

(Line Move)

X-36.7496 Y-15.7743 Z-7.403

(Line Move)

X-35.2869 Y-13.9439 Z-7.403

(Line Move)

X-34.068 Y-12.7679 Z-7.403

(Line Move)

X-19.9305 Y.2157 Z-7.403

(Line Move)

X-18.9737 Y.918 Z-7.403

(Line Move)

X-18.4052 Y1.1912 Z-7.403

(Line Move)

X-17.835 Y1.3687 Z-7.403

(Line Move)

X-17.2415 Y1.4762 Z-7.403

(Line Move)

X-16.1008 Y1.5398 Z-7.403

(Line Move)

X-1.5645 Y1.5287 Z-7.403

(Line Move)

X-1.0679 Y1.5249 Z-7.403

(Line Move)

X-.2418 Y1.3611 Z-7.403

(Line Move)

X1.0721 Y.6461 Z-7.403

(Line Move)

X1.0799 Y.0133 Z-7.403

(Arc Move)

G2 X1.3672 Y-46.7691 I-3808.77 J-46.7823

(Arc Move)

X.9767 Y-101.3114 I-3809.0573 J0

(Line Move)

G1 X.9736 Y-101.5274 Z-7.403

(Arc Move)

G3 Y-101.5305 I.216 J-.0031

(Arc Move)

X1.0347 Y-101.681 I.216 J0

(Line Leadout Move)

G1 X1.8174 Y-102.4865

(Rapid Z up)

G0 Z3.

(Rapid Move)

X1.8507 Y-100.1608

(Rapid Z Down)

Z-4.403

(Feed Z Down)

G1 Z-9.204 F411.48

(Line Leadin Move)

X1.0452 Y-100.9436 F1234.44

(Arc Move)

G3 X.9798 Y-101.0954 I.1505 J-.1549

(Arc Move)

G2 X.9767 Y-101.3114 I-3808.6698 J54.3264 F1645.92

(Line Move)

G1 X.9632 Y-102.2506 Z-9.204

(Line Move)

X-.4414 Y-102.4269 Z-9.204

(Line Move)

X-1.0949 Y-102.5661 Z-9.204

(Line Move)

X-1.7712 Y-102.8092 Z-9.204

(Line Move)

X-4.4481 Y-104.6732 Z-9.204

(Line Move)

X-7.0229 Y-106.6269 Z-9.204

(Line Move)

X-9.6389 Y-108.808 Z-9.204

(Line Move)

X-10.8515 Y-109.9144 Z-9.204

(Line Move)

X-12.0031 Y-111.0598 Z-9.204

(Line Move)

X-13.0864 Y-112.2582 Z-9.204

(Line Move)

X-14.1013 Y-113.5311 Z-9.204

(Line Move)

X-15.0172 Y-114.8401 Z-9.204

(Line Move)

X-15.8642 Y-116.2114 Z-9.204

(Line Move)

X-17.4799 Y-119.1848 Z-9.204

(Line Move)

X-18.173 Y-120.6363 Z-9.204

(Line Move)

X-18.7397 Y-122.0765 Z-9.204

(Line Move)

X-19.8226 Y-125.3249 Z-9.204

(Line Move)

X-20.9629 Y-128.5282 Z-9.204

(Arc Move)

G2 X-23.3754 Y-133.9203 I-34.7455 J12.3101

(Line Move)

G1 X-28.4016 Y-143.1754 Z-9.204

(Line Move)

X-29.7681 Y-145.6671 Z-9.204

(Line Move)

X-30.458 Y-146.5898 Z-9.204

(Line Move)

X-30.8896 Y-146.9992 Z-9.204

(Line Move)

X-31.3801 Y-147.3596 Z-9.204

(Line Move)

X-31.9339 Y-147.6698 Z-9.204

(Line Move)

X-32.5491 Y-147.9105 Z-9.204

(Line Move)

X-33.2058 Y-148.0473 Z-9.204

(Line Move)

X-33.8593 Y-148.0661 Z-9.204

(Line Move)

X-34.4924 Y-147.985 Z-9.204

(Line Move)

X-35.1032 Y-147.8169 Z-9.204

(Line Move)

X-36.1214 Y-147.3649 Z-9.204

(Line Move)

X-39.2338 Y-145.4392 Z-9.204

(Line Move)

X-40.0361 Y-144.8777 Z-9.204

(Line Move)

X-40.7957 Y-144.2174 Z-9.204

(Line Move)

X-41.4704 Y-143.4959 Z-9.204

(Line Move)

X-42.0749 Y-142.7091 Z-9.204

(Line Move)

X-42.6009 Y-141.8968 Z-9.204

(Line Move)

X-43.4792 Y-140.193 Z-9.204

(Line Move)

X-44.0578 Y-138.7202 Z-9.204

(Line Move)

X-44.5829 Y-137.1825 Z-9.204

(Line Move)

X-44.8659 Y-136.1138 Z-9.204

(Line Move)

X-45.0941 Y-135.0064 Z-9.204

(Line Move)

X-45.2537 Y-133.9406 Z-9.204

(Line Move)

X-47.285 Y-109.1582 Z-9.204

(Line Move)

X-47.5297 Y-107.1296 Z-9.204

(Line Move)

X-47.8355 Y-105.1122 Z-9.204

(Line Move)

X-48.1978 Y-103.1472 Z-9.204

(Line Move)

X-48.6218 Y-101.1884 Z-9.204

(Line Move)

X-49.6512 Y-97.2072 Z-9.204

(Line Move)

X-54.2778 Y-81.2445 Z-9.204

(Line Move)

X-55.3607 Y-77.2579 Z-9.204

(Line Move)

X-56.3127 Y-73.1848 Z-9.204

(Line Move)

X-57.1043 Y-69.0801 Z-9.204

(Line Move)

X-57.4093 Y-66.9669 Z-9.204

(Line Move)

X-57.6052 Y-64.8871 Z-9.204

(Line Move)

X-57.6893 Y-62.7687 Z-9.204

(Line Move)

X-57.6412 Y-58.5391 Z-9.204

(Line Move)

X-57.4969 Y-56.6928 Z-9.204

(Line Move)

X-57.1484 Y-53.9182 Z-9.204

(Line Move)

X-56.5557 Y-51.1539 Z-9.204

(Line Move)

X-55.8549 Y-48.5368 Z-9.204

(Line Move)

X-55.2511 Y-46.7739 Z-9.204

(Line Move)

X-54.4724 Y-45.0087 Z-9.204

(Line Move)

X-52.4166 Y-40.9507 Z-9.204

(Line Move)

X-52.4152 Y-40.948 Z-9.204

(Arc Move)

G3 X-45.9149 Y-27.9751 I-646.5092 J332.0583

(Line Move)

G1 X-45.9129 Y-27.9710 Z-9.204

(Line Move)

X-45.9109 Y-27.9669 Z-9.204

(Arc Move)

G2 X-41.6099 Y-20.8907 I44.587 J-22.2555

(Line Move)

G1 X-41.5827 Y-20.8533 Z-9.204

(Line Move)

X-40.0018 Y-19.0325 Z-9.204

(Line Move)

X-37.9601 Y-17.0352 Z-9.204

(Line Move)

X-36.7496 Y-15.7743 Z-9.204

(Line Move)

X-35.2869 Y-13.9439 Z-9.204

(Line Move)

X-34.068 Y-12.7679 Z-9.204

(Line Move)

X-19.9305 Y.2157 Z-9.204

(Line Move)

X-18.9737 Y.918 Z-9.204

(Line Move)

X-18.4052 Y1.1912 Z-9.204

(Line Move)

X-17.835 Y1.3687 Z-9.204

(Line Move)

X-17.2415 Y1.4762 Z-9.204

(Line Move)

X-16.1008 Y1.5398 Z-9.204

(Line Move)

X-1.5645 Y1.5287 Z-9.204

(Line Move)

X-1.0679 Y1.5249 Z-9.204

(Line Move)

X-.2418 Y1.3611 Z-9.204

(Line Move)

X1.0721 Y.6461 Z-9.204

(Line Move)

X1.0799 Y.0133 Z-9.204

(Arc Move)

G2 X1.3672 Y-46.7691 I-3808.77 J-46.7823

(Arc Move)

X.9767 Y-101.3114 I-3809.0573 J0

(Line Move)

G1 X.9736 Y-101.5274 Z-9.204

(Arc Move)

G3 Y-101.5305 I.216 J-.0031

(Arc Move)

X1.0347 Y-101.681 I.216 J0

(Line Leadout Move)

G1 X1.8174 Y-102.4865

(Rapid Z up)

G0 Z3.

(Rapid Move)

X1.8507 Y-100.1608

(Rapid Z Down)

Z-6.204

(Feed Z Down)

G1 Z-11.005 F411.48

(Line Leadin Move)

X1.0452 Y-100.9436 F1234.44

(Arc Move)

G3 X.9798 Y-101.0954 I.1505 J-.1549

(Arc Move)

G2 X.9767 Y-101.3114 I-3808.6698 J54.3264 F1645.92

(Line Move)

G1 X.9632 Y-102.2506 Z-11.005

(Line Move)

X-.4414 Y-102.4269 Z-11.005

(Line Move)

X-1.0949 Y-102.5661 Z-11.005

(Line Move)

X-1.7712 Y-102.8092 Z-11.005

(Line Move)

X-4.4481 Y-104.6732 Z-11.005

(Line Move)

X-7.0229 Y-106.6269 Z-11.005

(Line Move)

X-9.6389 Y-108.808 Z-11.005

(Line Move)

X-10.8515 Y-109.9144 Z-11.005

(Line Move)

X-12.0031 Y-111.0598 Z-11.005

(Line Move)

X-13.0864 Y-112.2582 Z-11.005

(Line Move)

X-14.1013 Y-113.5311 Z-11.005

(Line Move)

X-15.0172 Y-114.8401 Z-11.005

(Line Move)

X-15.8642 Y-116.2114 Z-11.005

(Line Move)

X-17.4799 Y-119.1848 Z-11.005

(Line Move)

X-18.173 Y-120.6363 Z-11.005

(Line Move)

X-18.7397 Y-122.0765 Z-11.005

(Line Move)

X-19.8226 Y-125.3249 Z-11.005

(Line Move)

X-20.9629 Y-128.5282 Z-11.005

(Arc Move)

G2 X-23.3754 Y-133.9203 I-34.7455 J12.3101

(Line Move)

G1 X-28.4016 Y-143.1754 Z-11.005

(Line Move)

X-29.7681 Y-145.6671 Z-11.005

(Line Move)

X-30.458 Y-146.5898 Z-11.005

(Line Move)

X-30.8896 Y-146.9992 Z-11.005

(Line Move)

X-31.3801 Y-147.3596 Z-11.005

(Line Move)

X-31.9339 Y-147.6698 Z-11.005

(Line Move)

X-32.5491 Y-147.9105 Z-11.005

(Line Move)

X-33.2058 Y-148.0473 Z-11.005

(Line Move)

X-33.8593 Y-148.0661 Z-11.005

(Line Move)

X-34.4924 Y-147.985 Z-11.005

(Line Move)

X-35.1032 Y-147.8169 Z-11.005

(Line Move)

X-36.1214 Y-147.3649 Z-11.005

(Line Move)

X-39.2338 Y-145.4392 Z-11.005

(Line Move)

X-40.0361 Y-144.8777 Z-11.005

(Line Move)

X-40.7957 Y-144.2174 Z-11.005

(Line Move)

X-41.4704 Y-143.4959 Z-11.005

(Line Move)

X-42.0749 Y-142.7091 Z-11.005

(Line Move)

X-42.6009 Y-141.8968 Z-11.005

(Line Move)

X-43.4792 Y-140.193 Z-11.005

(Line Move)

X-44.0578 Y-138.7202 Z-11.005

(Line Move)

X-44.5829 Y-137.1825 Z-11.005

(Line Move)

X-44.8659 Y-136.1138 Z-11.005

(Line Move)

X-45.0941 Y-135.0064 Z-11.005

(Line Move)

X-45.2537 Y-133.9406 Z-11.005

(Line Move)

X-47.285 Y-109.1582 Z-11.005

(Line Move)

X-47.5297 Y-107.1296 Z-11.005

(Line Move)

X-47.8355 Y-105.1122 Z-11.005

(Line Move)

X-48.1978 Y-103.1472 Z-11.005

(Line Move)

X-48.6218 Y-101.1884 Z-11.005

(Line Move)

X-49.6512 Y-97.2072 Z-11.005

(Line Move)

X-54.2778 Y-81.2445 Z-11.005

(Line Move)

X-55.3607 Y-77.2579 Z-11.005

(Line Move)

X-56.3127 Y-73.1848 Z-11.005

(Line Move)

X-57.1043 Y-69.0801 Z-11.005

(Line Move)

X-57.4093 Y-66.9669 Z-11.005

(Line Move)

X-57.6052 Y-64.8871 Z-11.005

(Line Move)

X-57.6893 Y-62.7687 Z-11.005

(Line Move)

X-57.6412 Y-58.5391 Z-11.005

(Line Move)

X-57.4969 Y-56.6928 Z-11.005

(Line Move)

X-57.1484 Y-53.9182 Z-11.005

(Line Move)

X-56.5557 Y-51.1539 Z-11.005

(Line Move)

X-55.8549 Y-48.5368 Z-11.005

(Line Move)

X-55.2511 Y-46.7739 Z-11.005

(Line Move)

X-54.4724 Y-45.0087 Z-11.005

(Line Move)

X-52.4166 Y-40.9507 Z-11.005

(Line Move)

X-52.4152 Y-40.948 Z-11.005

(Arc Move)

G3 X-45.9149 Y-27.9751 I-646.5092 J332.0583

(Line Move)

G1 X-45.9129 Y-27.9710 Z-11.005

(Line Move)

X-45.9109 Y-27.9669 Z-11.005

(Arc Move)

G2 X-41.6099 Y-20.8907 I44.587 J-22.2555

(Line Move)

G1 X-41.5827 Y-20.8533 Z-11.005

(Line Move)

X-40.0018 Y-19.0325 Z-11.005

(Line Move)

X-37.9601 Y-17.0352 Z-11.005

(Line Move)

X-36.7496 Y-15.7743 Z-11.005

(Line Move)

X-35.2869 Y-13.9439 Z-11.005

(Line Move)

X-34.068 Y-12.7679 Z-11.005

(Line Move)

X-19.9305 Y.2157 Z-11.005

(Line Move)

X-18.9737 Y.918 Z-11.005

(Line Move)

X-18.4052 Y1.1912 Z-11.005

(Line Move)

X-17.835 Y1.3687 Z-11.005

(Line Move)

X-17.2415 Y1.4762 Z-11.005

(Line Move)

X-16.1008 Y1.5398 Z-11.005

(Line Move)

X-1.5645 Y1.5287 Z-11.005

(Line Move)

X-1.0679 Y1.5249 Z-11.005

(Line Move)

X-.2418 Y1.3611 Z-11.005

(Line Move)

X1.0721 Y.6461 Z-11.005

(Line Move)

X1.0799 Y.0133 Z-11.005

(Arc Move)

G2 X1.3672 Y-46.7691 I-3808.77 J-46.7823

(Arc Move)

X.9767 Y-101.3114 I-3809.0573 J0

(Line Move)

G1 X.9736 Y-101.5274 Z-11.005

(Arc Move)

G3 Y-101.5305 I.216 J-.0031

(Arc Move)

X1.0347 Y-101.681 I.216 J0

(Line Leadout Move)

G1 X1.8174 Y-102.4865

(Rapid Z up)

G0 Z3.

(Rapid Z up)

Z25.

(Rapid Move)

X-25.8104 Y-64.1017

(Rapid Z Down)

Z2.8

(Feed Z Down)

G1 Z-.78 F411.48

(Line Move)

X-25.4884 Y-64.1017 Z-.78 F822.96

(Arc Move)

G3 X-25.8104 Y-63.7797 I-.322 J0 F1645.92

(Arc Move)

X-26.1324 Y-64.1017 I0 J-.322

(Arc Move)

X-25.8104 Y-64.4237 I.322 J0

(Arc Move)

X-25.4884 Y-64.1017 I0 J.322

(Line Move)

G1 X-24.6244 Y-64.1017 Z-.78

(Arc Move)

G3 X-25.8104 Y-62.9157 I-1.186 J0

(Arc Move)

X-26.9964 Y-64.1017 I0 J-1.186

(Arc Move)

X-25.8104 Y-65.2877 I1.186 J0

(Arc Move)

X-24.6244 Y-64.1017 I0 J1.186

(Line Move)

G1 X-23.7604 Y-64.1017 Z-.78

(Arc Move)

G3 X-25.8104 Y-62.0517 I-2.05 J0

(Arc Move)

X-27.8604 Y-64.1017 I0 J-2.05

(Arc Move)

X-25.8104 Y-66.1517 I2.05 J0

(Arc Move)

X-23.7604 Y-64.1017 I0 J2.05

(Line Move)

G1 X-22.8964 Y-64.1017 Z-.78

(Arc Move)

G3 X-25.8104 Y-61.1877 I-2.914 J0

(Arc Move)

X-28.7244 Y-64.1017 I0 J-2.914

(Arc Move)

X-25.8104 Y-67.0157 I2.914 J0

(Arc Move)

X-22.8964 Y-64.1017 I0 J2.914

(Line Move)

G1 X-22.0324 Y-64.1017 Z-.78

(Arc Move)

G3 X-25.8104 Y-60.3237 I-3.778 J0

(Arc Move)

X-29.5884 Y-64.1017 I0 J-3.778

(Arc Move)

X-25.8104 Y-67.8797 I3.778 J0

(Arc Move)

X-22.0324 Y-64.1017 I0 J3.778

(Line Move)

G1 X-21.1684 Y-64.1017 Z-.78

(Arc Move)

G3 X-25.8104 Y-59.4597 I-4.642 J0

(Arc Move)

X-30.4524 Y-64.1017 I0 J-4.642

(Arc Move)

X-25.8104 Y-68.7437 I4.642 J0

(Arc Move)

X-21.1684 Y-64.1017 I0 J4.642

(Line Move)

G1 X-20.3044 Y-64.1017 Z-.78

(Arc Move)

G3 X-25.8104 Y-58.5957 I-5.506 J0

(Arc Move)

X-31.3164 Y-64.1017 I0 J-5.506

(Arc Move)

X-25.8104 Y-69.6077 I5.506 J0

(Arc Move)

X-20.3044 Y-64.1017 I0 J5.506

(Line Move)

G1 X-19.4404 Y-64.1017 Z-.78

(Arc Move)

G3 X-25.8104 Y-57.7317 I-6.37 J0

(Arc Move)

X-32.1804 Y-64.1017 I0 J-6.37

(Arc Move)

X-25.8104 Y-70.4717 I6.37 J0

(Arc Move)

X-19.4404 Y-64.1017 I0 J6.37

(Arc Move)

X-25.8104 Y-57.7317 I-6.37 J0

(Arc Move)

X-32.1804 Y-64.1017 I0 J-6.37

(Arc Move)

X-25.8104 Y-70.4717 I6.37 J0

(Arc Move)

X-19.4404 Y-64.1017 I0 J6.37

(Line Move)

G1 X-25.8104 Y-64.1017 Z-.78

(Rapid Z up)

G0 Z2.8

(Rapid Z Down)

Z1.72

(Feed Z Down)

G1 Z-1.45 F411.48

(Line Move)

X-25.4884 Y-64.1017 Z-1.45 F822.96

(Arc Move)

G3 X-25.8104 Y-63.7797 I-.322 J0 F1645.92

(Arc Move)

X-26.1324 Y-64.1017 I0 J-.322

(Arc Move)

X-25.8104 Y-64.4237 I.322 J0

(Arc Move)

X-25.4884 Y-64.1017 I0 J.322

(Line Move)

G1 X-24.6244 Y-64.1017 Z-1.45

(Arc Move)

G3 X-25.8104 Y-62.9157 I-1.186 J0

(Arc Move)

X-26.9964 Y-64.1017 I0 J-1.186

(Arc Move)

X-25.8104 Y-65.2877 I1.186 J0

(Arc Move)

X-24.6244 Y-64.1017 I0 J1.186

(Line Move)

G1 X-23.7604 Y-64.1017 Z-1.45

(Arc Move)

G3 X-25.8104 Y-62.0517 I-2.05 J0

(Arc Move)

X-27.8604 Y-64.1017 I0 J-2.05

(Arc Move)

X-25.8104 Y-66.1517 I2.05 J0

(Arc Move)

X-23.7604 Y-64.1017 I0 J2.05

(Line Move)

G1 X-22.8964 Y-64.1017 Z-1.45

(Arc Move)

G3 X-25.8104 Y-61.1877 I-2.914 J0

(Arc Move)

X-28.7244 Y-64.1017 I0 J-2.914

(Arc Move)

X-25.8104 Y-67.0157 I2.914 J0

(Arc Move)

X-22.8964 Y-64.1017 I0 J2.914

(Line Move)

G1 X-22.0324 Y-64.1017 Z-1.45

(Arc Move)

G3 X-25.8104 Y-60.3237 I-3.778 J0

(Arc Move)

X-29.5884 Y-64.1017 I0 J-3.778

(Arc Move)

X-25.8104 Y-67.8797 I3.778 J0

(Arc Move)

X-22.0324 Y-64.1017 I0 J3.778

(Line Move)

G1 X-21.1684 Y-64.1017 Z-1.45

(Arc Move)

G3 X-25.8104 Y-59.4597 I-4.642 J0

(Arc Move)

X-30.4524 Y-64.1017 I0 J-4.642

(Arc Move)

X-25.8104 Y-68.7437 I4.642 J0

(Arc Move)

X-21.1684 Y-64.1017 I0 J4.642

(Line Move)

G1 X-20.3044 Y-64.1017 Z-1.45

(Arc Move)

G3 X-25.8104 Y-58.5957 I-5.506 J0

(Arc Move)

X-31.3164 Y-64.1017 I0 J-5.506

(Arc Move)

X-25.8104 Y-69.6077 I5.506 J0

(Arc Move)

X-20.3044 Y-64.1017 I0 J5.506

(Line Move)

G1 X-19.4404 Y-64.1017 Z-1.45

(Arc Move)

G3 X-25.8104 Y-57.7317 I-6.37 J0

(Arc Move)

X-32.1804 Y-64.1017 I0 J-6.37

(Arc Move)

X-25.8104 Y-70.4717 I6.37 J0

(Arc Move)

X-19.4404 Y-64.1017 I0 J6.37

(Arc Move)

X-25.8104 Y-57.7317 I-6.37 J0

(Arc Move)

X-32.1804 Y-64.1017 I0 J-6.37

(Arc Move)

X-25.8104 Y-70.4717 I6.37 J0

(Arc Move)

X-19.4404 Y-64.1017 I0 J6.37

(Line Move)

G1 X-25.8104 Y-64.1017 Z-1.45

(Rapid Z up)

G0 Z2.8

(Rapid Z Down)

Z1.05

(Feed Z Down)

G1 Z-1.7 F411.48

(Line Move)

X-25.4884 Y-64.1017 Z-1.7 F822.96

(Arc Move)

G3 X-25.8104 Y-63.7797 I-.322 J0 F1645.92

(Arc Move)

X-26.1324 Y-64.1017 I0 J-.322

(Arc Move)

X-25.8104 Y-64.4237 I.322 J0

(Arc Move)

X-25.4884 Y-64.1017 I0 J.322

(Line Move)

G1 X-24.6244 Y-64.1017 Z-1.7

(Arc Move)

G3 X-25.8104 Y-62.9157 I-1.186 J0

(Arc Move)

X-26.9964 Y-64.1017 I0 J-1.186

(Arc Move)

X-25.8104 Y-65.2877 I1.186 J0

(Arc Move)

X-24.6244 Y-64.1017 I0 J1.186

(Line Move)

G1 X-23.7604 Y-64.1017 Z-1.7

(Arc Move)

G3 X-25.8104 Y-62.0517 I-2.05 J0

(Arc Move)

X-27.8604 Y-64.1017 I0 J-2.05

(Arc Move)

X-25.8104 Y-66.1517 I2.05 J0

(Arc Move)

X-23.7604 Y-64.1017 I0 J2.05

(Line Move)

G1 X-22.8964 Y-64.1017 Z-1.7

(Arc Move)

G3 X-25.8104 Y-61.1877 I-2.914 J0

(Arc Move)

X-28.7244 Y-64.1017 I0 J-2.914

(Arc Move)

X-25.8104 Y-67.0157 I2.914 J0

(Arc Move)

X-22.8964 Y-64.1017 I0 J2.914

(Line Move)

G1 X-22.0324 Y-64.1017 Z-1.7

(Arc Move)

G3 X-25.8104 Y-60.3237 I-3.778 J0

(Arc Move)

X-29.5884 Y-64.1017 I0 J-3.778

(Arc Move)

X-25.8104 Y-67.8797 I3.778 J0

(Arc Move)

X-22.0324 Y-64.1017 I0 J3.778

(Line Move)

G1 X-21.1684 Y-64.1017 Z-1.7

(Arc Move)

G3 X-25.8104 Y-59.4597 I-4.642 J0

(Arc Move)

X-30.4524 Y-64.1017 I0 J-4.642

(Arc Move)

X-25.8104 Y-68.7437 I4.642 J0

(Arc Move)

X-21.1684 Y-64.1017 I0 J4.642

(Line Move)

G1 X-20.3044 Y-64.1017 Z-1.7

(Arc Move)

G3 X-25.8104 Y-58.5957 I-5.506 J0

(Arc Move)

X-31.3164 Y-64.1017 I0 J-5.506

(Arc Move)

X-25.8104 Y-69.6077 I5.506 J0

(Arc Move)

X-20.3044 Y-64.1017 I0 J5.506

(Line Move)

G1 X-19.4404 Y-64.1017 Z-1.7

(Arc Move)

G3 X-25.8104 Y-57.7317 I-6.37 J0

(Arc Move)

X-32.1804 Y-64.1017 I0 J-6.37

(Arc Move)

X-25.8104 Y-70.4717 I6.37 J0

(Arc Move)

X-19.4404 Y-64.1017 I0 J6.37

(Arc Move)

X-25.8104 Y-57.7317 I-6.37 J0

(Arc Move)

X-32.1804 Y-64.1017 I0 J-6.37

(Arc Move)

X-25.8104 Y-70.4717 I6.37 J0

(Arc Move)

X-19.4404 Y-64.1017 I0 J6.37

(Line Move)

G1 X-25.8104 Y-64.1017 Z-1.7

(Rapid Z up)

G0 Z2.8

(Rapid Z up)

Z25.

(Rapid Z Down)

Z3.3

(Feed Z Down)

G1 Z-.78 F411.48

(Line Leadin Move)

X-31.539 Y-62.9673 F1234.44

(Line Leadin Move)

X-32.3587 Y-63.7352

(Arc Move)

G3 X-32.4269 Y-63.8858 I.1477 J-.1576

(Arc Move)

X-32.4304 Y-64.1017 I6.6165 J-.216 F1645.92

(Arc Move)

X-25.8104 Y-70.7217 I6.62 J0

(Arc Move)

X-19.1904 Y-64.1017 I0 J6.62

(Arc Move)

X-25.8104 Y-57.4817 I-6.62 J0

(Arc Move)

X-32.4304 Y-64.1017 I0 J-6.62

(Arc Move)

X-32.4269 Y-64.3177 I6.62 J0

(Arc Move)

X-32.3587 Y-64.4683 I.2159 J.007

(Line Leadout Move)

G1 X-31.5390 Y-65.2362

(Rapid Z up)

G0 Z3.3

(Rapid Move)

X-25.8104 Y-64.1017

(Rapid Z Down)

Z2.22

(Feed Z Down)

G1 Z-1.7 F411.48

(Line Leadin Move)

X-31.539 Y-62.9673 F1234.44

(Line Leadin Move)

X-32.3587 Y-63.7352

(Arc Move)

G3 X-32.4269 Y-63.8858 I.1477 J-.1576

(Arc Move)

X-32.4304 Y-64.1017 I6.6165 J-.216 F1645.92

(Arc Move)

X-25.8104 Y-70.7217 I6.62 J0

(Arc Move)

X-19.1904 Y-64.1017 I0 J6.62

(Arc Move)

X-25.8104 Y-57.4817 I-6.62 J0

(Arc Move)

X-32.4304 Y-64.1017 I0 J-6.62

(Arc Move)

X-32.4269 Y-64.3177 I6.62 J0

(Arc Move)

X-32.3587 Y-64.4683 I.2159 J.007

(Line Leadout Move)

G1 X-31.5390 Y-65.2362

(Rapid Z up)

G0 Z3.3

(Last Rapid Z Up)

Z25. M9

(End of Tape)

G53

Z-2 

M5

G4 P1 

m8

M30

(Start of Tape)



(Made in : UPC)

(G Code optimized for RS-CNC32 with GRBL V0.9j controller)



( PART NUMBER=1 )

( PART NAME=  )

( PROGRAMMER=  )

( OPERATION NUMBER=  )

( DATE=  )



G90 G17 G21 G80

m8

(Init Tool Change)

(6MM CRB 2FL 19 LOC)

G53

G0 Z2 

G54

S12000 M3

M8

G4 P1 

(Rapid From Tool Change)

G0 G90 X66.3907 Y-100.1608

(Rapid Z Down)

Z3.

(Feed Z Down)

G1 Z-2. F411.48

(Line Leadin Move)

X1.0452 Y-100.9436 F1234.44

(Arc Move)

G3 X.9798 Y-101.0954 I.1505 J-.1549

(Arc Move)

G2 X.9767 Y-101.3114 I-3808.6698 J54.3264 F1645.92

(Line Move)

G1 X.9632 Y-102.2506 Z-2.

(Line Move)

X-.4414 Y-102.4269 Z-2.

(Line Move)

X-1.0949 Y-102.5661 Z-2.

(Line Move)

X-1.7712 Y-102.8092 Z-2.

(Line Move)

X-4.4481 Y-104.6732 Z-2.

(Line Move)

X-7.0229 Y-106.6269 Z-2.

(Line Move)

X-9.6389 Y-108.808 Z-2.

(Line Move)

X-10.8515 Y-109.9144 Z-2.

(Line Move)

X-12.0031 Y-111.0598 Z-2.

(Line Move)

X-13.0864 Y-112.2582 Z-2.

(Line Move)

X-14.1013 Y-113.5311 Z-2.

(Line Move)

X-15.0172 Y-114.8401 Z-2.

(Line Move)

X-15.8642 Y-116.2114 Z-2.

(Line Move)

X-17.4799 Y-119.1848 Z-2.

(Line Move)

X-18.173 Y-120.6363 Z-2.

(Line Move)

X-18.7397 Y-122.0765 Z-2.

(Line Move)

X-19.8226 Y-125.3249 Z-2.

(Line Move)

X-20.9629 Y-128.5282 Z-2.

(Arc Move)

G2 X-23.3754 Y-133.9203 I-34.7455 J12.3101

(Line Move)

G1 X36.1384 Y-143.1754 Z-2.

(Line Move)

X-29.7681 Y-145.6671 Z-2.

(Line Move)

X-30.458 Y-146.5898 Z-2.

(Line Move)

X-30.8896 Y-146.9992 Z-2.

(Line Move)

X-31.3801 Y-147.3596 Z-2.

(Line Move)

X-31.9339 Y-147.6698 Z-2.

(Line Move)

X-32.5491 Y-147.9105 Z-2.

(Line Move)

X-33.2058 Y-148.0473 Z-2.

(Line Move)

X-33.8593 Y-148.0661 Z-2.

(Line Move)

X-34.4924 Y-147.985 Z-2.

(Line Move)

X-35.1032 Y-147.8169 Z-2.

(Line Move)

X-36.1214 Y-147.3649 Z-2.

(Line Move)

X-39.2338 Y-145.4392 Z-2.

(Line Move)

X-40.0361 Y-144.8777 Z-2.

(Line Move)

X-40.7957 Y-144.2174 Z-2.

(Line Move)

X-41.4704 Y-143.4959 Z-2.

(Line Move)

X-42.0749 Y-142.7091 Z-2.

(Line Move)

X-42.6009 Y-141.8968 Z-2.

(Line Move)

X-43.4792 Y-140.193 Z-2.

(Line Move)

X-44.0578 Y-138.7202 Z-2.

(Line Move)

X-44.5829 Y-137.1825 Z-2.

(Line Move)

X-44.8659 Y-136.1138 Z-2.

(Line Move)

X-45.0941 Y-135.0064 Z-2.

(Line Move)

X-45.2537 Y-133.9406 Z-2.

(Line Move)

X-47.285 Y-109.1582 Z-2.

(Line Move)

X-47.5297 Y-107.1296 Z-2.

(Line Move)

X-47.8355 Y-105.1122 Z-2.

(Line Move)

X-48.1978 Y-103.1472 Z-2.

(Line Move)

X-48.6218 Y-101.1884 Z-2.

(Line Move)

X-49.6512 Y-97.2072 Z-2.

(Line Move)

X-54.2778 Y-81.2445 Z-2.

(Line Move)

X-55.3607 Y-77.2579 Z-2.

(Line Move)

X-56.3127 Y-73.1848 Z-2.

(Line Move)

X-57.1043 Y-69.0801 Z-2.

(Line Move)

X-57.4093 Y-66.9669 Z-2.

(Line Move)

X-57.6052 Y-64.8871 Z-2.

(Line Move)

X-57.6893 Y-62.7687 Z-2.

(Line Move)

X-57.6412 Y-58.5391 Z-2.

(Line Move)

X-57.4969 Y-56.6928 Z-2.

(Line Move)

X-57.1484 Y-53.9182 Z-2.

(Line Move)

X-56.5557 Y-51.1539 Z-2.

(Line Move)

X-55.8549 Y-48.5368 Z-2.

(Line Move)

X-55.2511 Y-46.7739 Z-2.

(Line Move)

X-54.4724 Y-45.0087 Z-2.

(Line Move)

X-52.4166 Y-40.9507 Z-2.

(Line Move)

X-52.4152 Y-40.948 Z-2.

(Arc Move)

G3 X-45.9149 Y-27.9751 I-646.5092 J332.0583

(Line Move)

G1 X18.6271 Y-27.9710 Z-2.

(Line Move)

X-45.9109 Y-27.9669 Z-2.

(Arc Move)

G2 X-41.6099 Y-20.8907 I44.587 J-22.2555

(Line Move)

G1 X22.9573 Y-20.8533 Z-2.

(Line Move)

X-40.0018 Y-19.0325 Z-2.

(Line Move)

X-37.9601 Y-17.0352 Z-2.

(Line Move)

X-36.7496 Y-15.7743 Z-2.

(Line Move)

X-35.2869 Y-13.9439 Z-2.

(Line Move)

X-34.068 Y-12.7679 Z-2.

(Line Move)

X-19.9305 Y.2157 Z-2.

(Line Move)

X-18.9737 Y.918 Z-2.

(Line Move)

X-18.4052 Y1.1912 Z-2.

(Line Move)

X-17.835 Y1.3687 Z-2.

(Line Move)

X-17.2415 Y1.4762 Z-2.

(Line Move)

X-16.1008 Y1.5398 Z-2.

(Line Move)

X-1.5645 Y1.5287 Z-2.

(Line Move)

X-1.0679 Y1.5249 Z-2.

(Line Move)

X-.2418 Y1.3611 Z-2.

(Line Move)

X1.0721 Y.6461 Z-2.

(Line Move)

X1.0799 Y.0133 Z-2.

(Arc Move)

G2 X1.3672 Y-46.7691 I-3808.77 J-46.7823

(Arc Move)

X.9767 Y-101.3114 I-3809.0573 J0

(Line Move)

G1 X.9736 Y-101.5274 Z-2.

(Arc Move)

G3 Y-101.5305 I.216 J-.0031

(Arc Move)

X1.0347 Y-101.681 I.216 J0

(Line Leadout Move)

G1 X66.3574 Y-102.4865

(Rapid Z up)

G0 Z3.

(Rapid Move)

X1.8507 Y-100.1608

(Rapid Z Down)

Z1.

(Feed Z Down)

G1 Z-3.801 F411.48

(Line Leadin Move)

X1.0452 Y-100.9436 F1234.44

(Arc Move)

G3 X.9798 Y-101.0954 I.1505 J-.1549

(Arc Move)

G2 X.9767 Y-101.3114 I-3808.6698 J54.3264 F1645.92

(Line Move)

G1 X.9632 Y-102.2506 Z-3.801

(Line Move)

X-.4414 Y-102.4269 Z-3.801

(Line Move)

X-1.0949 Y-102.5661 Z-3.801

(Line Move)

X-1.7712 Y-102.8092 Z-3.801

(Line Move)

X-4.4481 Y-104.6732 Z-3.801

(Line Move)

X-7.0229 Y-106.6269 Z-3.801

(Line Move)

X-9.6389 Y-108.808 Z-3.801

(Line Move)

X-10.8515 Y-109.9144 Z-3.801

(Line Move)

X-12.0031 Y-111.0598 Z-3.801

(Line Move)

X-13.0864 Y-112.2582 Z-3.801

(Line Move)

X-14.1013 Y-113.5311 Z-3.801

(Line Move)

X-15.0172 Y-114.8401 Z-3.801

(Line Move)

X-15.8642 Y-116.2114 Z-3.801

(Line Move)

X-17.4799 Y-119.1848 Z-3.801

(Line Move)

X-18.173 Y-120.6363 Z-3.801

(Line Move)

X-18.7397 Y-122.0765 Z-3.801

(Line Move)

X-19.8226 Y-125.3249 Z-3.801

(Line Move)

X-20.9629 Y-128.5282 Z-3.801

(Arc Move)

G2 X-23.3754 Y-133.9203 I-34.7455 J12.3101

(Line Move)

G1 X36.1384 Y-143.1754 Z-3.801

(Line Move)

X-29.7681 Y-145.6671 Z-3.801

(Line Move)

X-30.458 Y-146.5898 Z-3.801

(Line Move)

X-30.8896 Y-146.9992 Z-3.801

(Line Move)

X-31.3801 Y-147.3596 Z-3.801

(Line Move)

X-31.9339 Y-147.6698 Z-3.801

(Line Move)

X-32.5491 Y-147.9105 Z-3.801

(Line Move)

X-33.2058 Y-148.0473 Z-3.801

(Line Move)

X-33.8593 Y-148.0661 Z-3.801

(Line Move)

X-34.4924 Y-147.985 Z-3.801

(Line Move)

X-35.1032 Y-147.8169 Z-3.801

(Line Move)

X-36.1214 Y-147.3649 Z-3.801

(Line Move)

X-39.2338 Y-145.4392 Z-3.801

(Line Move)

X-40.0361 Y-144.8777 Z-3.801

(Line Move)

X-40.7957 Y-144.2174 Z-3.801

(Line Move)

X-41.4704 Y-143.4959 Z-3.801

(Line Move)

X-42.0749 Y-142.7091 Z-3.801

(Line Move)

X-42.6009 Y-141.8968 Z-3.801

(Line Move)

X-43.4792 Y-140.193 Z-3.801

(Line Move)

X-44.0578 Y-138.7202 Z-3.801

(Line Move)

X-44.5829 Y-137.1825 Z-3.801

(Line Move)

X-44.8659 Y-136.1138 Z-3.801

(Line Move)

X-45.0941 Y-135.0064 Z-3.801

(Line Move)

X-45.2537 Y-133.9406 Z-3.801

(Line Move)

X-47.285 Y-109.1582 Z-3.801

(Line Move)

X-47.5297 Y-107.1296 Z-3.801

(Line Move)

X-47.8355 Y-105.1122 Z-3.801

(Line Move)

X-48.1978 Y-103.1472 Z-3.801

(Line Move)

X-48.6218 Y-101.1884 Z-3.801

(Line Move)

X-49.6512 Y-97.2072 Z-3.801

(Line Move)

X-54.2778 Y-81.2445 Z-3.801

(Line Move)

X-55.3607 Y-77.2579 Z-3.801

(Line Move)

X-56.3127 Y-73.1848 Z-3.801

(Line Move)

X-57.1043 Y-69.0801 Z-3.801

(Line Move)

X-57.4093 Y-66.9669 Z-3.801

(Line Move)

X-57.6052 Y-64.8871 Z-3.801

(Line Move)

X-57.6893 Y-62.7687 Z-3.801

(Line Move)

X-57.6412 Y-58.5391 Z-3.801

(Line Move)

X-57.4969 Y-56.6928 Z-3.801

(Line Move)

X-57.1484 Y-53.9182 Z-3.801

(Line Move)

X-56.5557 Y-51.1539 Z-3.801

(Line Move)

X-55.8549 Y-48.5368 Z-3.801

(Line Move)

X-55.2511 Y-46.7739 Z-3.801

(Line Move)

X-54.4724 Y-45.0087 Z-3.801

(Line Move)

X-52.4166 Y-40.9507 Z-3.801

(Line Move)

X-52.4152 Y-40.948 Z-3.801

(Arc Move)

G3 X-45.9149 Y-27.9751 I-646.5092 J332.0583

(Line Move)

G1 X18.6271 Y-27.9710 Z-3.801

(Line Move)

X-45.9109 Y-27.9669 Z-3.801

(Arc Move)

G2 X-41.6099 Y-20.8907 I44.587 J-22.2555

(Line Move)

G1 X22.9573 Y-20.8533 Z-3.801

(Line Move)

X-40.0018 Y-19.0325 Z-3.801

(Line Move)

X-37.9601 Y-17.0352 Z-3.801

(Line Move)

X-36.7496 Y-15.7743 Z-3.801

(Line Move)

X-35.2869 Y-13.9439 Z-3.801

(Line Move)

X-34.068 Y-12.7679 Z-3.801

(Line Move)

X-19.9305 Y.2157 Z-3.801

(Line Move)

X-18.9737 Y.918 Z-3.801

(Line Move)

X-18.4052 Y1.1912 Z-3.801

(Line Move)

X-17.835 Y1.3687 Z-3.801

(Line Move)

X-17.2415 Y1.4762 Z-3.801

(Line Move)

X-16.1008 Y1.5398 Z-3.801

(Line Move)

X-1.5645 Y1.5287 Z-3.801

(Line Move)

X-1.0679 Y1.5249 Z-3.801

(Line Move)

X-.2418 Y1.3611 Z-3.801

(Line Move)

X1.0721 Y.6461 Z-3.801

(Line Move)

X1.0799 Y.0133 Z-3.801

(Arc Move)

G2 X1.3672 Y-46.7691 I-3808.77 J-46.7823

(Arc Move)

X.9767 Y-101.3114 I-3809.0573 J0

(Line Move)

G1 X.9736 Y-101.5274 Z-3.801

(Arc Move)

G3 Y-101.5305 I.216 J-.0031

(Arc Move)

X1.0347 Y-101.681 I.216 J0

(Line Leadout Move)

G1 X66.3574 Y-102.4865

(Rapid Z up)

G0 Z3.

(Rapid Move)

X1.8507 Y-100.1608

(Rapid Z Down)

Z-.801

(Feed Z Down)

G1 Z-5.602 F411.48

(Line Leadin Move)

X1.0452 Y-100.9436 F1234.44

(Arc Move)

G3 X.9798 Y-101.0954 I.1505 J-.1549

(Arc Move)

G2 X.9767 Y-101.3114 I-3808.6698 J54.3264 F1645.92

(Line Move)

G1 X.9632 Y-102.2506 Z-5.602

(Line Move)

X-.4414 Y-102.4269 Z-5.602

(Line Move)

X-1.0949 Y-102.5661 Z-5.602

(Line Move)

X-1.7712 Y-102.8092 Z-5.602

(Line Move)

X-4.4481 Y-104.6732 Z-5.602

(Line Move)

X-7.0229 Y-106.6269 Z-5.602

(Line Move)

X-9.6389 Y-108.808 Z-5.602

(Line Move)

X-10.8515 Y-109.9144 Z-5.602

(Line Move)

X-12.0031 Y-111.0598 Z-5.602

(Line Move)

X-13.0864 Y-112.2582 Z-5.602

(Line Move)

X-14.1013 Y-113.5311 Z-5.602

(Line Move)

X-15.0172 Y-114.8401 Z-5.602

(Line Move)

X-15.8642 Y-116.2114 Z-5.602

(Line Move)

X-17.4799 Y-119.1848 Z-5.602

(Line Move)

X-18.173 Y-120.6363 Z-5.602

(Line Move)

X-18.7397 Y-122.0765 Z-5.602

(Line Move)

X-19.8226 Y-125.3249 Z-5.602

(Line Move)

X-20.9629 Y-128.5282 Z-5.602

(Arc Move)

G2 X-23.3754 Y-133.9203 I-34.7455 J12.3101

(Line Move)

G1 X36.1384 Y-143.1754 Z-5.602

(Line Move)

X-29.7681 Y-145.6671 Z-5.602

(Line Move)

X-30.458 Y-146.5898 Z-5.602

(Line Move)

X-30.8896 Y-146.9992 Z-5.602

(Line Move)

X-31.3801 Y-147.3596 Z-5.602

(Line Move)

X-31.9339 Y-147.6698 Z-5.602

(Line Move)

X-32.5491 Y-147.9105 Z-5.602

(Line Move)

X-33.2058 Y-148.0473 Z-5.602

(Line Move)

X-33.8593 Y-148.0661 Z-5.602

(Line Move)

X-34.4924 Y-147.985 Z-5.602

(Line Move)

X-35.1032 Y-147.8169 Z-5.602

(Line Move)

X-36.1214 Y-147.3649 Z-5.602

(Line Move)

X-39.2338 Y-145.4392 Z-5.602

(Line Move)

X-40.0361 Y-144.8777 Z-5.602

(Line Move)

X-40.7957 Y-144.2174 Z-5.602

(Line Move)

X-41.4704 Y-143.4959 Z-5.602

(Line Move)

X-42.0749 Y-142.7091 Z-5.602

(Line Move)

X-42.6009 Y-141.8968 Z-5.602

(Line Move)

X-43.4792 Y-140.193 Z-5.602

(Line Move)

X-44.0578 Y-138.7202 Z-5.602

(Line Move)

X-44.5829 Y-137.1825 Z-5.602

(Line Move)

X-44.8659 Y-136.1138 Z-5.602

(Line Move)

X-45.0941 Y-135.0064 Z-5.602

(Line Move)

X-45.2537 Y-133.9406 Z-5.602

(Line Move)

X-47.285 Y-109.1582 Z-5.602

(Line Move)

X-47.5297 Y-107.1296 Z-5.602

(Line Move)

X-47.8355 Y-105.1122 Z-5.602

(Line Move)

X-48.1978 Y-103.1472 Z-5.602

(Line Move)

X-48.6218 Y-101.1884 Z-5.602

(Line Move)

X-49.6512 Y-97.2072 Z-5.602

(Line Move)

X-54.2778 Y-81.2445 Z-5.602

(Line Move)

X-55.3607 Y-77.2579 Z-5.602

(Line Move)

X-56.3127 Y-73.1848 Z-5.602

(Line Move)

X-57.1043 Y-69.0801 Z-5.602

(Line Move)

X-57.4093 Y-66.9669 Z-5.602

(Line Move)

X-57.6052 Y-64.8871 Z-5.602

(Line Move)

X-57.6893 Y-62.7687 Z-5.602

(Line Move)

X-57.6412 Y-58.5391 Z-5.602

(Line Move)

X-57.4969 Y-56.6928 Z-5.602

(Line Move)

X-57.1484 Y-53.9182 Z-5.602

(Line Move)

X-56.5557 Y-51.1539 Z-5.602

(Line Move)

X-55.8549 Y-48.5368 Z-5.602

(Line Move)

X-55.2511 Y-46.7739 Z-5.602

(Line Move)

X-54.4724 Y-45.0087 Z-5.602

(Line Move)

X-52.4166 Y-40.9507 Z-5.602

(Line Move)

X-52.4152 Y-40.948 Z-5.602

(Arc Move)

G3 X-45.9149 Y-27.9751 I-646.5092 J332.0583

(Line Move)

G1 X18.6271 Y-27.9710 Z-5.602

(Line Move)

X-45.9109 Y-27.9669 Z-5.602

(Arc Move)

G2 X-41.6099 Y-20.8907 I44.587 J-22.2555

(Line Move)

G1 X22.9573 Y-20.8533 Z-5.602

(Line Move)

X-40.0018 Y-19.0325 Z-5.602

(Line Move)

X-37.9601 Y-17.0352 Z-5.602

(Line Move)

X-36.7496 Y-15.7743 Z-5.602

(Line Move)

X-35.2869 Y-13.9439 Z-5.602

(Line Move)

X-34.068 Y-12.7679 Z-5.602

(Line Move)

X-19.9305 Y.2157 Z-5.602

(Line Move)

X-18.9737 Y.918 Z-5.602

(Line Move)

X-18.4052 Y1.1912 Z-5.602

(Line Move)

X-17.835 Y1.3687 Z-5.602

(Line Move)

X-17.2415 Y1.4762 Z-5.602

(Line Move)

X-16.1008 Y1.5398 Z-5.602

(Line Move)

X-1.5645 Y1.5287 Z-5.602

(Line Move)

X-1.0679 Y1.5249 Z-5.602

(Line Move)

X-.2418 Y1.3611 Z-5.602

(Line Move)

X1.0721 Y.6461 Z-5.602

(Line Move)

X1.0799 Y.0133 Z-5.602

(Arc Move)

G2 X1.3672 Y-46.7691 I-3808.77 J-46.7823

(Arc Move)

X.9767 Y-101.3114 I-3809.0573 J0

(Line Move)

G1 X.9736 Y-101.5274 Z-5.602

(Arc Move)

G3 Y-101.5305 I.216 J-.0031

(Arc Move)

X1.0347 Y-101.681 I.216 J0

(Line Leadout Move)

G1 X66.3574 Y-102.4865

(Rapid Z up)

G0 Z3.

(Rapid Move)

X1.8507 Y-100.1608

(Rapid Z Down)

Z-2.602

(Feed Z Down)

G1 Z-7.403 F411.48

(Line Leadin Move)

X1.0452 Y-100.9436 F1234.44

(Arc Move)

G3 X.9798 Y-101.0954 I.1505 J-.1549

(Arc Move)

G2 X.9767 Y-101.3114 I-3808.6698 J54.3264 F1645.92

(Line Move)

G1 X.9632 Y-102.2506 Z-7.403

(Line Move)

X-.4414 Y-102.4269 Z-7.403

(Line Move)

X-1.0949 Y-102.5661 Z-7.403

(Line Move)

X-1.7712 Y-102.8092 Z-7.403

(Line Move)

X-4.4481 Y-104.6732 Z-7.403

(Line Move)

X-7.0229 Y-106.6269 Z-7.403

(Line Move)

X-9.6389 Y-108.808 Z-7.403

(Line Move)

X-10.8515 Y-109.9144 Z-7.403

(Line Move)

X-12.0031 Y-111.0598 Z-7.403

(Line Move)

X-13.0864 Y-112.2582 Z-7.403

(Line Move)

X-14.1013 Y-113.5311 Z-7.403

(Line Move)

X-15.0172 Y-114.8401 Z-7.403

(Line Move)

X-15.8642 Y-116.2114 Z-7.403

(Line Move)

X-17.4799 Y-119.1848 Z-7.403

(Line Move)

X-18.173 Y-120.6363 Z-7.403

(Line Move)

X-18.7397 Y-122.0765 Z-7.403

(Line Move)

X-19.8226 Y-125.3249 Z-7.403

(Line Move)

X-20.9629 Y-128.5282 Z-7.403

(Arc Move)

G2 X-23.3754 Y-133.9203 I-34.7455 J12.3101

(Line Move)

G1 X36.1384 Y-143.1754 Z-7.403

(Line Move)

X-29.7681 Y-145.6671 Z-7.403

(Line Move)

X-30.458 Y-146.5898 Z-7.403

(Line Move)

X-30.8896 Y-146.9992 Z-7.403

(Line Move)

X-31.3801 Y-147.3596 Z-7.403

(Line Move)

X-31.9339 Y-147.6698 Z-7.403

(Line Move)

X-32.5491 Y-147.9105 Z-7.403

(Line Move)

X-33.2058 Y-148.0473 Z-7.403

(Line Move)

X-33.8593 Y-148.0661 Z-7.403

(Line Move)

X-34.4924 Y-147.985 Z-7.403

(Line Move)

X-35.1032 Y-147.8169 Z-7.403

(Line Move)

X-36.1214 Y-147.3649 Z-7.403

(Line Move)

X-39.2338 Y-145.4392 Z-7.403

(Line Move)

X-40.0361 Y-144.8777 Z-7.403

(Line Move)

X-40.7957 Y-144.2174 Z-7.403

(Line Move)

X-41.4704 Y-143.4959 Z-7.403

(Line Move)

X-42.0749 Y-142.7091 Z-7.403

(Line Move)

X-42.6009 Y-141.8968 Z-7.403

(Line Move)

X-43.4792 Y-140.193 Z-7.403

(Line Move)

X-44.0578 Y-138.7202 Z-7.403

(Line Move)

X-44.5829 Y-137.1825 Z-7.403

(Line Move)

X-44.8659 Y-136.1138 Z-7.403

(Line Move)

X-45.0941 Y-135.0064 Z-7.403

(Line Move)

X-45.2537 Y-133.9406 Z-7.403

(Line Move)

X-47.285 Y-109.1582 Z-7.403

(Line Move)

X-47.5297 Y-107.1296 Z-7.403

(Line Move)

X-47.8355 Y-105.1122 Z-7.403

(Line Move)

X-48.1978 Y-103.1472 Z-7.403

(Line Move)

X-48.6218 Y-101.1884 Z-7.403

(Line Move)

X-49.6512 Y-97.2072 Z-7.403

(Line Move)

X-54.2778 Y-81.2445 Z-7.403

(Line Move)

X-55.3607 Y-77.2579 Z-7.403

(Line Move)

X-56.3127 Y-73.1848 Z-7.403

(Line Move)

X-57.1043 Y-69.0801 Z-7.403

(Line Move)

X-57.4093 Y-66.9669 Z-7.403

(Line Move)

X-57.6052 Y-64.8871 Z-7.403

(Line Move)

X-57.6893 Y-62.7687 Z-7.403

(Line Move)

X-57.6412 Y-58.5391 Z-7.403

(Line Move)

X-57.4969 Y-56.6928 Z-7.403

(Line Move)

X-57.1484 Y-53.9182 Z-7.403

(Line Move)

X-56.5557 Y-51.1539 Z-7.403

(Line Move)

X-55.8549 Y-48.5368 Z-7.403

(Line Move)

X-55.2511 Y-46.7739 Z-7.403

(Line Move)

X-54.4724 Y-45.0087 Z-7.403

(Line Move)

X-52.4166 Y-40.9507 Z-7.403

(Line Move)

X-52.4152 Y-40.948 Z-7.403

(Arc Move)

G3 X-45.9149 Y-27.9751 I-646.5092 J332.0583

(Line Move)

G1 X18.6271 Y-27.9710 Z-7.403

(Line Move)

X-45.9109 Y-27.9669 Z-7.403

(Arc Move)

G2 X-41.6099 Y-20.8907 I44.587 J-22.2555

(Line Move)

G1 X22.9573 Y-20.8533 Z-7.403

(Line Move)

X-40.0018 Y-19.0325 Z-7.403

(Line Move)

X-37.9601 Y-17.0352 Z-7.403

(Line Move)

X-36.7496 Y-15.7743 Z-7.403

(Line Move)

X-35.2869 Y-13.9439 Z-7.403

(Line Move)

X-34.068 Y-12.7679 Z-7.403

(Line Move)

X-19.9305 Y.2157 Z-7.403

(Line Move)

X-18.9737 Y.918 Z-7.403

(Line Move)

X-18.4052 Y1.1912 Z-7.403

(Line Move)

X-17.835 Y1.3687 Z-7.403

(Line Move)

X-17.2415 Y1.4762 Z-7.403

(Line Move)

X-16.1008 Y1.5398 Z-7.403

(Line Move)

X-1.5645 Y1.5287 Z-7.403

(Line Move)

X-1.0679 Y1.5249 Z-7.403

(Line Move)

X-.2418 Y1.3611 Z-7.403

(Line Move)

X1.0721 Y.6461 Z-7.403

(Line Move)

X1.0799 Y.0133 Z-7.403

(Arc Move)

G2 X1.3672 Y-46.7691 I-3808.77 J-46.7823

(Arc Move)

X.9767 Y-101.3114 I-3809.0573 J0

(Line Move)

G1 X.9736 Y-101.5274 Z-7.403

(Arc Move)

G3 Y-101.5305 I.216 J-.0031

(Arc Move)

X1.0347 Y-101.681 I.216 J0

(Line Leadout Move)

G1 X66.3574 Y-102.4865

(Rapid Z up)

G0 Z3.

(Rapid Move)

X1.8507 Y-100.1608

(Rapid Z Down)

Z-4.403

(Feed Z Down)

G1 Z-9.204 F411.48

(Line Leadin Move)

X1.0452 Y-100.9436 F1234.44

(Arc Move)

G3 X.9798 Y-101.0954 I.1505 J-.1549

(Arc Move)

G2 X.9767 Y-101.3114 I-3808.6698 J54.3264 F1645.92

(Line Move)

G1 X.9632 Y-102.2506 Z-9.204

(Line Move)

X-.4414 Y-102.4269 Z-9.204

(Line Move)

X-1.0949 Y-102.5661 Z-9.204

(Line Move)

X-1.7712 Y-102.8092 Z-9.204

(Line Move)

X-4.4481 Y-104.6732 Z-9.204

(Line Move)

X-7.0229 Y-106.6269 Z-9.204

(Line Move)

X-9.6389 Y-108.808 Z-9.204

(Line Move)

X-10.8515 Y-109.9144 Z-9.204

(Line Move)

X-12.0031 Y-111.0598 Z-9.204

(Line Move)

X-13.0864 Y-112.2582 Z-9.204

(Line Move)

X-14.1013 Y-113.5311 Z-9.204

(Line Move)

X-15.0172 Y-114.8401 Z-9.204

(Line Move)

X-15.8642 Y-116.2114 Z-9.204

(Line Move)

X-17.4799 Y-119.1848 Z-9.204

(Line Move)

X-18.173 Y-120.6363 Z-9.204

(Line Move)

X-18.7397 Y-122.0765 Z-9.204

(Line Move)

X-19.8226 Y-125.3249 Z-9.204

(Line Move)

X-20.9629 Y-128.5282 Z-9.204

(Arc Move)

G2 X-23.3754 Y-133.9203 I-34.7455 J12.3101

(Line Move)

G1 X36.1384 Y-143.1754 Z-9.204

(Line Move)

X-29.7681 Y-145.6671 Z-9.204

(Line Move)

X-30.458 Y-146.5898 Z-9.204

(Line Move)

X-30.8896 Y-146.9992 Z-9.204

(Line Move)

X-31.3801 Y-147.3596 Z-9.204

(Line Move)

X-31.9339 Y-147.6698 Z-9.204

(Line Move)

X-32.5491 Y-147.9105 Z-9.204

(Line Move)

X-33.2058 Y-148.0473 Z-9.204

(Line Move)

X-33.8593 Y-148.0661 Z-9.204

(Line Move)

X-34.4924 Y-147.985 Z-9.204

(Line Move)

X-35.1032 Y-147.8169 Z-9.204

(Line Move)

X-36.1214 Y-147.3649 Z-9.204

(Line Move)

X-39.2338 Y-145.4392 Z-9.204

(Line Move)

X-40.0361 Y-144.8777 Z-9.204

(Line Move)

X-40.7957 Y-144.2174 Z-9.204

(Line Move)

X-41.4704 Y-143.4959 Z-9.204

(Line Move)

X-42.0749 Y-142.7091 Z-9.204

(Line Move)

X-42.6009 Y-141.8968 Z-9.204

(Line Move)

X-43.4792 Y-140.193 Z-9.204

(Line Move)

X-44.0578 Y-138.7202 Z-9.204

(Line Move)

X-44.5829 Y-137.1825 Z-9.204

(Line Move)

X-44.8659 Y-136.1138 Z-9.204

(Line Move)

X-45.0941 Y-135.0064 Z-9.204

(Line Move)

X-45.2537 Y-133.9406 Z-9.204

(Line Move)

X-47.285 Y-109.1582 Z-9.204

(Line Move)

X-47.5297 Y-107.1296 Z-9.204

(Line Move)

X-47.8355 Y-105.1122 Z-9.204

(Line Move)

X-48.1978 Y-103.1472 Z-9.204

(Line Move)

X-48.6218 Y-101.1884 Z-9.204

(Line Move)

X-49.6512 Y-97.2072 Z-9.204

(Line Move)

X-54.2778 Y-81.2445 Z-9.204

(Line Move)

X-55.3607 Y-77.2579 Z-9.204

(Line Move)

X-56.3127 Y-73.1848 Z-9.204

(Line Move)

X-57.1043 Y-69.0801 Z-9.204

(Line Move)

X-57.4093 Y-66.9669 Z-9.204

(Line Move)

X-57.6052 Y-64.8871 Z-9.204

(Line Move)

X-57.6893 Y-62.7687 Z-9.204

(Line Move)

X-57.6412 Y-58.5391 Z-9.204

(Line Move)

X-57.4969 Y-56.6928 Z-9.204

(Line Move)

X-57.1484 Y-53.9182 Z-9.204

(Line Move)

X-56.5557 Y-51.1539 Z-9.204

(Line Move)

X-55.8549 Y-48.5368 Z-9.204

(Line Move)

X-55.2511 Y-46.7739 Z-9.204

(Line Move)

X-54.4724 Y-45.0087 Z-9.204

(Line Move)

X-52.4166 Y-40.9507 Z-9.204

(Line Move)

X-52.4152 Y-40.948 Z-9.204

(Arc Move)

G3 X-45.9149 Y-27.9751 I-646.5092 J332.0583

(Line Move)

G1 X18.6271 Y-27.9710 Z-9.204

(Line Move)

X-45.9109 Y-27.9669 Z-9.204

(Arc Move)

G2 X-41.6099 Y-20.8907 I44.587 J-22.2555

(Line Move)

G1 X22.9573 Y-20.8533 Z-9.204

(Line Move)

X-40.0018 Y-19.0325 Z-9.204

(Line Move)

X-37.9601 Y-17.0352 Z-9.204

(Line Move)

X-36.7496 Y-15.7743 Z-9.204

(Line Move)

X-35.2869 Y-13.9439 Z-9.204

(Line Move)

X-34.068 Y-12.7679 Z-9.204

(Line Move)

X-19.9305 Y.2157 Z-9.204

(Line Move)

X-18.9737 Y.918 Z-9.204

(Line Move)

X-18.4052 Y1.1912 Z-9.204

(Line Move)

X-17.835 Y1.3687 Z-9.204

(Line Move)

X-17.2415 Y1.4762 Z-9.204

(Line Move)

X-16.1008 Y1.5398 Z-9.204

(Line Move)

X-1.5645 Y1.5287 Z-9.204

(Line Move)

X-1.0679 Y1.5249 Z-9.204

(Line Move)

X-.2418 Y1.3611 Z-9.204

(Line Move)

X1.0721 Y.6461 Z-9.204

(Line Move)

X1.0799 Y.0133 Z-9.204

(Arc Move)

G2 X1.3672 Y-46.7691 I-3808.77 J-46.7823

(Arc Move)

X.9767 Y-101.3114 I-3809.0573 J0

(Line Move)

G1 X.9736 Y-101.5274 Z-9.204

(Arc Move)

G3 Y-101.5305 I.216 J-.0031

(Arc Move)

X1.0347 Y-101.681 I.216 J0

(Line Leadout Move)

G1 X66.3574 Y-102.4865

(Rapid Z up)

G0 Z3.

(Rapid Move)

X1.8507 Y-100.1608

(Rapid Z Down)

Z-6.204

(Feed Z Down)

G1 Z-11.005 F411.48

(Line Leadin Move)

X1.0452 Y-100.9436 F1234.44

(Arc Move)

G3 X.9798 Y-101.0954 I.1505 J-.1549

(Arc Move)

G2 X.9767 Y-101.3114 I-3808.6698 J54.3264 F1645.92

(Line Move)

G1 X.9632 Y-102.2506 Z-11.005

(Line Move)

X-.4414 Y-102.4269 Z-11.005

(Line Move)

X-1.0949 Y-102.5661 Z-11.005

(Line Move)

X-1.7712 Y-102.8092 Z-11.005

(Line Move)

X-4.4481 Y-104.6732 Z-11.005

(Line Move)

X-7.0229 Y-106.6269 Z-11.005

(Line Move)

X-9.6389 Y-108.808 Z-11.005

(Line Move)

X-10.8515 Y-109.9144 Z-11.005

(Line Move)

X-12.0031 Y-111.0598 Z-11.005

(Line Move)

X-13.0864 Y-112.2582 Z-11.005

(Line Move)

X-14.1013 Y-113.5311 Z-11.005

(Line Move)

X-15.0172 Y-114.8401 Z-11.005

(Line Move)

X-15.8642 Y-116.2114 Z-11.005

(Line Move)

X-17.4799 Y-119.1848 Z-11.005

(Line Move)

X-18.173 Y-120.6363 Z-11.005

(Line Move)

X-18.7397 Y-122.0765 Z-11.005

(Line Move)

X-19.8226 Y-125.3249 Z-11.005

(Line Move)

X-20.9629 Y-128.5282 Z-11.005

(Arc Move)

G2 X-23.3754 Y-133.9203 I-34.7455 J12.3101

(Line Move)

G1 X36.1384 Y-143.1754 Z-11.005

(Line Move)

X-29.7681 Y-145.6671 Z-11.005

(Line Move)

X-30.458 Y-146.5898 Z-11.005

(Line Move)

X-30.8896 Y-146.9992 Z-11.005

(Line Move)

X-31.3801 Y-147.3596 Z-11.005

(Line Move)

X-31.9339 Y-147.6698 Z-11.005

(Line Move)

X-32.5491 Y-147.9105 Z-11.005

(Line Move)

X-33.2058 Y-148.0473 Z-11.005

(Line Move)

X-33.8593 Y-148.0661 Z-11.005

(Line Move)

X-34.4924 Y-147.985 Z-11.005

(Line Move)

X-35.1032 Y-147.8169 Z-11.005

(Line Move)

X-36.1214 Y-147.3649 Z-11.005

(Line Move)

X-39.2338 Y-145.4392 Z-11.005

(Line Move)

X-40.0361 Y-144.8777 Z-11.005

(Line Move)

X-40.7957 Y-144.2174 Z-11.005

(Line Move)

X-41.4704 Y-143.4959 Z-11.005

(Line Move)

X-42.0749 Y-142.7091 Z-11.005

(Line Move)

X-42.6009 Y-141.8968 Z-11.005

(Line Move)

X-43.4792 Y-140.193 Z-11.005

(Line Move)

X-44.0578 Y-138.7202 Z-11.005

(Line Move)

X-44.5829 Y-137.1825 Z-11.005

(Line Move)

X-44.8659 Y-136.1138 Z-11.005

(Line Move)

X-45.0941 Y-135.0064 Z-11.005

(Line Move)

X-45.2537 Y-133.9406 Z-11.005

(Line Move)

X-47.285 Y-109.1582 Z-11.005

(Line Move)

X-47.5297 Y-107.1296 Z-11.005

(Line Move)

X-47.8355 Y-105.1122 Z-11.005

(Line Move)

X-48.1978 Y-103.1472 Z-11.005

(Line Move)

X-48.6218 Y-101.1884 Z-11.005

(Line Move)

X-49.6512 Y-97.2072 Z-11.005

(Line Move)

X-54.2778 Y-81.2445 Z-11.005

(Line Move)

X-55.3607 Y-77.2579 Z-11.005

(Line Move)

X-56.3127 Y-73.1848 Z-11.005

(Line Move)

X-57.1043 Y-69.0801 Z-11.005

(Line Move)

X-57.4093 Y-66.9669 Z-11.005

(Line Move)

X-57.6052 Y-64.8871 Z-11.005

(Line Move)

X-57.6893 Y-62.7687 Z-11.005

(Line Move)

X-57.6412 Y-58.5391 Z-11.005

(Line Move)

X-57.4969 Y-56.6928 Z-11.005

(Line Move)

X-57.1484 Y-53.9182 Z-11.005

(Line Move)

X-56.5557 Y-51.1539 Z-11.005

(Line Move)

X-55.8549 Y-48.5368 Z-11.005

(Line Move)

X-55.2511 Y-46.7739 Z-11.005

(Line Move)

X-54.4724 Y-45.0087 Z-11.005

(Line Move)

X-52.4166 Y-40.9507 Z-11.005

(Line Move)

X-52.4152 Y-40.948 Z-11.005

(Arc Move)

G3 X-45.9149 Y-27.9751 I-646.5092 J332.0583

(Line Move)

G1 X18.6271 Y-27.9710 Z-11.005

(Line Move)

X-45.9109 Y-27.9669 Z-11.005

(Arc Move)

G2 X-41.6099 Y-20.8907 I44.587 J-22.2555

(Line Move)

G1 X22.9573 Y-20.8533 Z-11.005

(Line Move)

X-40.0018 Y-19.0325 Z-11.005

(Line Move)

X-37.9601 Y-17.0352 Z-11.005

(Line Move)

X-36.7496 Y-15.7743 Z-11.005

(Line Move)

X-35.2869 Y-13.9439 Z-11.005

(Line Move)

X-34.068 Y-12.7679 Z-11.005

(Line Move)

X-19.9305 Y.2157 Z-11.005

(Line Move)

X-18.9737 Y.918 Z-11.005

(Line Move)

X-18.4052 Y1.1912 Z-11.005

(Line Move)

X-17.835 Y1.3687 Z-11.005

(Line Move)

X-17.2415 Y1.4762 Z-11.005

(Line Move)

X-16.1008 Y1.5398 Z-11.005

(Line Move)

X-1.5645 Y1.5287 Z-11.005

(Line Move)

X-1.0679 Y1.5249 Z-11.005

(Line Move)

X-.2418 Y1.3611 Z-11.005

(Line Move)

X1.0721 Y.6461 Z-11.005

(Line Move)

X1.0799 Y.0133 Z-11.005

(Arc Move)

G2 X1.3672 Y-46.7691 I-3808.77 J-46.7823

(Arc Move)

X.9767 Y-101.3114 I-3809.0573 J0

(Line Move)

G1 X.9736 Y-101.5274 Z-11.005

(Arc Move)

G3 Y-101.5305 I.216 J-.0031

(Arc Move)

X1.0347 Y-101.681 I.216 J0

(Line Leadout Move)

G1 X66.3574 Y-102.4865

(Rapid Z up)

G0 Z3.

(Rapid Z up)

Z25.

(Rapid Move)

X-25.8104 Y-64.1017

(Rapid Z Down)

Z2.8

(Feed Z Down)

G1 Z-.78 F411.48

(Line Move)

X-25.4884 Y-64.1017 Z-.78 F822.96

(Arc Move)

G3 X-25.8104 Y-63.7797 I-.322 J0 F1645.92

(Arc Move)

X-26.1324 Y-64.1017 I0 J-.322

(Arc Move)

X-25.8104 Y-64.4237 I.322 J0

(Arc Move)

X-25.4884 Y-64.1017 I0 J.322

(Line Move)

G1 X39.9156 Y-64.1017 Z-.78

(Arc Move)

G3 X-25.8104 Y-62.9157 I-1.186 J0

(Arc Move)

X-26.9964 Y-64.1017 I0 J-1.186

(Arc Move)

X-25.8104 Y-65.2877 I1.186 J0

(Arc Move)

X-24.6244 Y-64.1017 I0 J1.186

(Line Move)

G1 X40.7796 Y-64.1017 Z-.78

(Arc Move)

G3 X-25.8104 Y-62.0517 I-2.05 J0

(Arc Move)

X-27.8604 Y-64.1017 I0 J-2.05

(Arc Move)

X-25.8104 Y-66.1517 I2.05 J0

(Arc Move)

X-23.7604 Y-64.1017 I0 J2.05

(Line Move)

G1 X41.6436 Y-64.1017 Z-.78

(Arc Move)

G3 X-25.8104 Y-61.1877 I-2.914 J0

(Arc Move)

X-28.7244 Y-64.1017 I0 J-2.914

(Arc Move)

X-25.8104 Y-67.0157 I2.914 J0

(Arc Move)

X-22.8964 Y-64.1017 I0 J2.914

(Line Move)

G1 X42.5076 Y-64.1017 Z-.78

(Arc Move)

G3 X-25.8104 Y-60.3237 I-3.778 J0

(Arc Move)

X-29.5884 Y-64.1017 I0 J-3.778

(Arc Move)

X-25.8104 Y-67.8797 I3.778 J0

(Arc Move)

X-22.0324 Y-64.1017 I0 J3.778

(Line Move)

G1 X43.3716 Y-64.1017 Z-.78

(Arc Move)

G3 X-25.8104 Y-59.4597 I-4.642 J0

(Arc Move)

X-30.4524 Y-64.1017 I0 J-4.642

(Arc Move)

X-25.8104 Y-68.7437 I4.642 J0

(Arc Move)

X-21.1684 Y-64.1017 I0 J4.642

(Line Move)

G1 X44.2356 Y-64.1017 Z-.78

(Arc Move)

G3 X-25.8104 Y-58.5957 I-5.506 J0

(Arc Move)

X-31.3164 Y-64.1017 I0 J-5.506

(Arc Move)

X-25.8104 Y-69.6077 I5.506 J0

(Arc Move)

X-20.3044 Y-64.1017 I0 J5.506

(Line Move)

G1 X45.0996 Y-64.1017 Z-.78

(Arc Move)

G3 X-25.8104 Y-57.7317 I-6.37 J0

(Arc Move)

X-32.1804 Y-64.1017 I0 J-6.37

(Arc Move)

X-25.8104 Y-70.4717 I6.37 J0

(Arc Move)

X-19.4404 Y-64.1017 I0 J6.37

(Arc Move)

X-25.8104 Y-57.7317 I-6.37 J0

(Arc Move)

X-32.1804 Y-64.1017 I0 J-6.37

(Arc Move)

X-25.8104 Y-70.4717 I6.37 J0

(Arc Move)

X-19.4404 Y-64.1017 I0 J6.37

(Line Move)

G1 X38.7296 Y-64.1017 Z-.78

(Rapid Z up)

G0 Z2.8

(Rapid Z Down)

Z1.72

(Feed Z Down)

G1 Z-1.45 F411.48

(Line Move)

X-25.4884 Y-64.1017 Z-1.45 F822.96

(Arc Move)

G3 X-25.8104 Y-63.7797 I-.322 J0 F1645.92

(Arc Move)

X-26.1324 Y-64.1017 I0 J-.322

(Arc Move)

X-25.8104 Y-64.4237 I.322 J0

(Arc Move)

X-25.4884 Y-64.1017 I0 J.322

(Line Move)

G1 X39.9156 Y-64.1017 Z-1.45

(Arc Move)

G3 X-25.8104 Y-62.9157 I-1.186 J0

(Arc Move)

X-26.9964 Y-64.1017 I0 J-1.186

(Arc Move)

X-25.8104 Y-65.2877 I1.186 J0

(Arc Move)

X-24.6244 Y-64.1017 I0 J1.186

(Line Move)

G1 X40.7796 Y-64.1017 Z-1.45

(Arc Move)

G3 X-25.8104 Y-62.0517 I-2.05 J0

(Arc Move)

X-27.8604 Y-64.1017 I0 J-2.05

(Arc Move)

X-25.8104 Y-66.1517 I2.05 J0

(Arc Move)

X-23.7604 Y-64.1017 I0 J2.05

(Line Move)

G1 X41.6436 Y-64.1017 Z-1.45

(Arc Move)

G3 X-25.8104 Y-61.1877 I-2.914 J0

(Arc Move)

X-28.7244 Y-64.1017 I0 J-2.914

(Arc Move)

X-25.8104 Y-67.0157 I2.914 J0

(Arc Move)

X-22.8964 Y-64.1017 I0 J2.914

(Line Move)

G1 X42.5076 Y-64.1017 Z-1.45

(Arc Move)

G3 X-25.8104 Y-60.3237 I-3.778 J0

(Arc Move)

X-29.5884 Y-64.1017 I0 J-3.778

(Arc Move)

X-25.8104 Y-67.8797 I3.778 J0

(Arc Move)

X-22.0324 Y-64.1017 I0 J3.778

(Line Move)

G1 X43.3716 Y-64.1017 Z-1.45

(Arc Move)

G3 X-25.8104 Y-59.4597 I-4.642 J0

(Arc Move)

X-30.4524 Y-64.1017 I0 J-4.642

(Arc Move)

X-25.8104 Y-68.7437 I4.642 J0

(Arc Move)

X-21.1684 Y-64.1017 I0 J4.642

(Line Move)

G1 X44.2356 Y-64.1017 Z-1.45

(Arc Move)

G3 X-25.8104 Y-58.5957 I-5.506 J0

(Arc Move)

X-31.3164 Y-64.1017 I0 J-5.506

(Arc Move)

X-25.8104 Y-69.6077 I5.506 J0

(Arc Move)

X-20.3044 Y-64.1017 I0 J5.506

(Line Move)

G1 X45.0996 Y-64.1017 Z-1.45

(Arc Move)

G3 X-25.8104 Y-57.7317 I-6.37 J0

(Arc Move)

X-32.1804 Y-64.1017 I0 J-6.37

(Arc Move)

X-25.8104 Y-70.4717 I6.37 J0

(Arc Move)

X-19.4404 Y-64.1017 I0 J6.37

(Arc Move)

X-25.8104 Y-57.7317 I-6.37 J0

(Arc Move)

X-32.1804 Y-64.1017 I0 J-6.37

(Arc Move)

X-25.8104 Y-70.4717 I6.37 J0

(Arc Move)

X-19.4404 Y-64.1017 I0 J6.37

(Line Move)

G1 X38.7296 Y-64.1017 Z-1.45

(Rapid Z up)

G0 Z2.8

(Rapid Z Down)

Z1.05

(Feed Z Down)

G1 Z-1.7 F411.48

(Line Move)

X-25.4884 Y-64.1017 Z-1.7 F822.96

(Arc Move)

G3 X-25.8104 Y-63.7797 I-.322 J0 F1645.92

(Arc Move)

X-26.1324 Y-64.1017 I0 J-.322

(Arc Move)

X-25.8104 Y-64.4237 I.322 J0

(Arc Move)

X-25.4884 Y-64.1017 I0 J.322

(Line Move)

G1 X39.9156 Y-64.1017 Z-1.7

(Arc Move)

G3 X-25.8104 Y-62.9157 I-1.186 J0

(Arc Move)

X-26.9964 Y-64.1017 I0 J-1.186

(Arc Move)

X-25.8104 Y-65.2877 I1.186 J0

(Arc Move)

X-24.6244 Y-64.1017 I0 J1.186

(Line Move)

G1 X40.7796 Y-64.1017 Z-1.7

(Arc Move)

G3 X-25.8104 Y-62.0517 I-2.05 J0

(Arc Move)

X-27.8604 Y-64.1017 I0 J-2.05

(Arc Move)

X-25.8104 Y-66.1517 I2.05 J0

(Arc Move)

X-23.7604 Y-64.1017 I0 J2.05

(Line Move)

G1 X41.6436 Y-64.1017 Z-1.7

(Arc Move)

G3 X-25.8104 Y-61.1877 I-2.914 J0

(Arc Move)

X-28.7244 Y-64.1017 I0 J-2.914

(Arc Move)

X-25.8104 Y-67.0157 I2.914 J0

(Arc Move)

X-22.8964 Y-64.1017 I0 J2.914

(Line Move)

G1 X42.5076 Y-64.1017 Z-1.7

(Arc Move)

G3 X-25.8104 Y-60.3237 I-3.778 J0

(Arc Move)

X-29.5884 Y-64.1017 I0 J-3.778

(Arc Move)

X-25.8104 Y-67.8797 I3.778 J0

(Arc Move)

X-22.0324 Y-64.1017 I0 J3.778

(Line Move)

G1 X43.3716 Y-64.1017 Z-1.7

(Arc Move)

G3 X-25.8104 Y-59.4597 I-4.642 J0

(Arc Move)

X-30.4524 Y-64.1017 I0 J-4.642

(Arc Move)

X-25.8104 Y-68.7437 I4.642 J0

(Arc Move)

X-21.1684 Y-64.1017 I0 J4.642

(Line Move)

G1 X44.2356 Y-64.1017 Z-1.7

(Arc Move)

G3 X-25.8104 Y-58.5957 I-5.506 J0

(Arc Move)

X-31.3164 Y-64.1017 I0 J-5.506

(Arc Move)

X-25.8104 Y-69.6077 I5.506 J0

(Arc Move)

X-20.3044 Y-64.1017 I0 J5.506

(Line Move)

G1 X45.0996 Y-64.1017 Z-1.7

(Arc Move)

G3 X-25.8104 Y-57.7317 I-6.37 J0

(Arc Move)

X-32.1804 Y-64.1017 I0 J-6.37

(Arc Move)

X-25.8104 Y-70.4717 I6.37 J0

(Arc Move)

X-19.4404 Y-64.1017 I0 J6.37

(Arc Move)

X-25.8104 Y-57.7317 I-6.37 J0

(Arc Move)

X-32.1804 Y-64.1017 I0 J-6.37

(Arc Move)

X-25.8104 Y-70.4717 I6.37 J0

(Arc Move)

X-19.4404 Y-64.1017 I0 J6.37

(Line Move)

G1 X38.7296 Y-64.1017 Z-1.7

(Rapid Z up)

G0 Z2.8

(Rapid Z up)

Z25.

(Rapid Z Down)

Z3.3

(Feed Z Down)

G1 Z-.78 F411.48

(Line Leadin Move)

X-31.539 Y-62.9673 F1234.44

(Line Leadin Move)

X-32.3587 Y-63.7352

(Arc Move)

G3 X-32.4269 Y-63.8858 I.1477 J-.1576

(Arc Move)

X-32.4304 Y-64.1017 I6.6165 J-.216 F1645.92

(Arc Move)

X-25.8104 Y-70.7217 I6.62 J0

(Arc Move)

X-19.1904 Y-64.1017 I0 J6.62

(Arc Move)

X-25.8104 Y-57.4817 I-6.62 J0

(Arc Move)

X-32.4304 Y-64.1017 I0 J-6.62

(Arc Move)

X-32.4269 Y-64.3177 I6.62 J0

(Arc Move)

X-32.3587 Y-64.4683 I.2159 J.007

(Line Leadout Move)

G1 X33.0010 Y-65.2362

(Rapid Z up)

G0 Z3.3

(Rapid Move)

X-25.8104 Y-64.1017

(Rapid Z Down)

Z2.22

(Feed Z Down)

G1 Z-1.7 F411.48

(Line Leadin Move)

X-31.539 Y-62.9673 F1234.44

(Line Leadin Move)

X-32.3587 Y-63.7352

(Arc Move)

G3 X-32.4269 Y-63.8858 I.1477 J-.1576

(Arc Move)

X-32.4304 Y-64.1017 I6.6165 J-.216 F1645.92

(Arc Move)

X-25.8104 Y-70.7217 I6.62 J0

(Arc Move)

X-19.1904 Y-64.1017 I0 J6.62

(Arc Move)

X-25.8104 Y-57.4817 I-6.62 J0

(Arc Move)

X-32.4304 Y-64.1017 I0 J-6.62

(Arc Move)

X-32.4269 Y-64.3177 I6.62 J0

(Arc Move)

X-32.3587 Y-64.4683 I.2159 J.007

(Line Leadout Move)

G1 X33.0010 Y-65.2362

(Rapid Z up)

G0 Z3.3

(Last Rapid Z Up)

Z25. M9

(End of Tape)

G53

Z-2 

M5

G4 P1 

m8

M30

(Start of Tape)



(Made in : UPC)

(G Code optimized for RS-CNC32 with GRBL V0.9j controller)



( PART NUMBER=1 )

( PART NAME=  )

( PROGRAMMER=  )

( OPERATION NUMBER=  )

( DATE=  )



G90 G17 G21 G80

m8

(Init Tool Change)

(6MM CRB 2FL 19 LOC)

G53

G0 Z2 

G54

S12000 M3

M8

G4 P1 

(Rapid From Tool Change)

G0 G90 X130.9307 Y-100.1608

(Rapid Z Down)

Z3.

(Feed Z Down)

G1 Z-2. F411.48

(Line Leadin Move)

X1.0452 Y-100.9436 F1234.44

(Arc Move)

G3 X.9798 Y-101.0954 I.1505 J-.1549

(Arc Move)

G2 X.9767 Y-101.3114 I-3808.6698 J54.3264 F1645.92

(Line Move)

G1 X.9632 Y-102.2506 Z-2.

(Line Move)

X-.4414 Y-102.4269 Z-2.

(Line Move)

X-1.0949 Y-102.5661 Z-2.

(Line Move)

X-1.7712 Y-102.8092 Z-2.

(Line Move)

X-4.4481 Y-104.6732 Z-2.

(Line Move)

X-7.0229 Y-106.6269 Z-2.

(Line Move)

X-9.6389 Y-108.808 Z-2.

(Line Move)

X-10.8515 Y-109.9144 Z-2.

(Line Move)

X-12.0031 Y-111.0598 Z-2.

(Line Move)

X-13.0864 Y-112.2582 Z-2.

(Line Move)

X-14.1013 Y-113.5311 Z-2.

(Line Move)

X-15.0172 Y-114.8401 Z-2.

(Line Move)

X-15.8642 Y-116.2114 Z-2.

(Line Move)

X-17.4799 Y-119.1848 Z-2.

(Line Move)

X-18.173 Y-120.6363 Z-2.

(Line Move)

X-18.7397 Y-122.0765 Z-2.

(Line Move)

X-19.8226 Y-125.3249 Z-2.

(Line Move)

X-20.9629 Y-128.5282 Z-2.

(Arc Move)

G2 X-23.3754 Y-133.9203 I-34.7455 J12.3101

(Line Move)

G1 X100.6784 Y-143.1754 Z-2.

(Line Move)

X-29.7681 Y-145.6671 Z-2.

(Line Move)

X-30.458 Y-146.5898 Z-2.

(Line Move)

X-30.8896 Y-146.9992 Z-2.

(Line Move)

X-31.3801 Y-147.3596 Z-2.

(Line Move)

X-31.9339 Y-147.6698 Z-2.

(Line Move)

X-32.5491 Y-147.9105 Z-2.

(Line Move)

X-33.2058 Y-148.0473 Z-2.

(Line Move)

X-33.8593 Y-148.0661 Z-2.

(Line Move)

X-34.4924 Y-147.985 Z-2.

(Line Move)

X-35.1032 Y-147.8169 Z-2.

(Line Move)

X-36.1214 Y-147.3649 Z-2.

(Line Move)

X-39.2338 Y-145.4392 Z-2.

(Line Move)

X-40.0361 Y-144.8777 Z-2.

(Line Move)

X-40.7957 Y-144.2174 Z-2.

(Line Move)

X-41.4704 Y-143.4959 Z-2.

(Line Move)

X-42.0749 Y-142.7091 Z-2.

(Line Move)

X-42.6009 Y-141.8968 Z-2.

(Line Move)

X-43.4792 Y-140.193 Z-2.

(Line Move)

X-44.0578 Y-138.7202 Z-2.

(Line Move)

X-44.5829 Y-137.1825 Z-2.

(Line Move)

X-44.8659 Y-136.1138 Z-2.

(Line Move)

X-45.0941 Y-135.0064 Z-2.

(Line Move)

X-45.2537 Y-133.9406 Z-2.

(Line Move)

X-47.285 Y-109.1582 Z-2.

(Line Move)

X-47.5297 Y-107.1296 Z-2.

(Line Move)

X-47.8355 Y-105.1122 Z-2.

(Line Move)

X-48.1978 Y-103.1472 Z-2.

(Line Move)

X-48.6218 Y-101.1884 Z-2.

(Line Move)

X-49.6512 Y-97.2072 Z-2.

(Line Move)

X-54.2778 Y-81.2445 Z-2.

(Line Move)

X-55.3607 Y-77.2579 Z-2.

(Line Move)

X-56.3127 Y-73.1848 Z-2.

(Line Move)

X-57.1043 Y-69.0801 Z-2.

(Line Move)

X-57.4093 Y-66.9669 Z-2.

(Line Move)

X-57.6052 Y-64.8871 Z-2.

(Line Move)

X-57.6893 Y-62.7687 Z-2.

(Line Move)

X-57.6412 Y-58.5391 Z-2.

(Line Move)

X-57.4969 Y-56.6928 Z-2.

(Line Move)

X-57.1484 Y-53.9182 Z-2.

(Line Move)

X-56.5557 Y-51.1539 Z-2.

(Line Move)

X-55.8549 Y-48.5368 Z-2.

(Line Move)

X-55.2511 Y-46.7739 Z-2.

(Line Move)

X-54.4724 Y-45.0087 Z-2.

(Line Move)

X-52.4166 Y-40.9507 Z-2.

(Line Move)

X-52.4152 Y-40.948 Z-2.

(Arc Move)

G3 X-45.9149 Y-27.9751 I-646.5092 J332.0583

(Line Move)

G1 X83.1671 Y-27.9710 Z-2.

(Line Move)

X-45.9109 Y-27.9669 Z-2.

(Arc Move)

G2 X-41.6099 Y-20.8907 I44.587 J-22.2555

(Line Move)

G1 X87.4973 Y-20.8533 Z-2.

(Line Move)

X-40.0018 Y-19.0325 Z-2.

(Line Move)

X-37.9601 Y-17.0352 Z-2.

(Line Move)

X-36.7496 Y-15.7743 Z-2.

(Line Move)

X-35.2869 Y-13.9439 Z-2.

(Line Move)

X-34.068 Y-12.7679 Z-2.

(Line Move)

X-19.9305 Y.2157 Z-2.

(Line Move)

X-18.9737 Y.918 Z-2.

(Line Move)

X-18.4052 Y1.1912 Z-2.

(Line Move)

X-17.835 Y1.3687 Z-2.

(Line Move)

X-17.2415 Y1.4762 Z-2.

(Line Move)

X-16.1008 Y1.5398 Z-2.

(Line Move)

X-1.5645 Y1.5287 Z-2.

(Line Move)

X-1.0679 Y1.5249 Z-2.

(Line Move)

X-.2418 Y1.3611 Z-2.

(Line Move)

X1.0721 Y.6461 Z-2.

(Line Move)

X1.0799 Y.0133 Z-2.

(Arc Move)

G2 X1.3672 Y-46.7691 I-3808.77 J-46.7823

(Arc Move)

X.9767 Y-101.3114 I-3809.0573 J0

(Line Move)

G1 X.9736 Y-101.5274 Z-2.

(Arc Move)

G3 Y-101.5305 I.216 J-.0031

(Arc Move)

X1.0347 Y-101.681 I.216 J0

(Line Leadout Move)

G1 X130.8974 Y-102.4865

(Rapid Z up)

G0 Z3.

(Rapid Move)

X1.8507 Y-100.1608

(Rapid Z Down)

Z1.

(Feed Z Down)

G1 Z-3.801 F411.48

(Line Leadin Move)

X1.0452 Y-100.9436 F1234.44

(Arc Move)

G3 X.9798 Y-101.0954 I.1505 J-.1549

(Arc Move)

G2 X.9767 Y-101.3114 I-3808.6698 J54.3264 F1645.92

(Line Move)

G1 X.9632 Y-102.2506 Z-3.801

(Line Move)

X-.4414 Y-102.4269 Z-3.801

(Line Move)

X-1.0949 Y-102.5661 Z-3.801

(Line Move)

X-1.7712 Y-102.8092 Z-3.801

(Line Move)

X-4.4481 Y-104.6732 Z-3.801

(Line Move)

X-7.0229 Y-106.6269 Z-3.801

(Line Move)

X-9.6389 Y-108.808 Z-3.801

(Line Move)

X-10.8515 Y-109.9144 Z-3.801

(Line Move)

X-12.0031 Y-111.0598 Z-3.801

(Line Move)

X-13.0864 Y-112.2582 Z-3.801

(Line Move)

X-14.1013 Y-113.5311 Z-3.801

(Line Move)

X-15.0172 Y-114.8401 Z-3.801

(Line Move)

X-15.8642 Y-116.2114 Z-3.801

(Line Move)

X-17.4799 Y-119.1848 Z-3.801

(Line Move)

X-18.173 Y-120.6363 Z-3.801

(Line Move)

X-18.7397 Y-122.0765 Z-3.801

(Line Move)

X-19.8226 Y-125.3249 Z-3.801

(Line Move)

X-20.9629 Y-128.5282 Z-3.801

(Arc Move)

G2 X-23.3754 Y-133.9203 I-34.7455 J12.3101

(Line Move)

G1 X100.6784 Y-143.1754 Z-3.801

(Line Move)

X-29.7681 Y-145.6671 Z-3.801

(Line Move)

X-30.458 Y-146.5898 Z-3.801

(Line Move)

X-30.8896 Y-146.9992 Z-3.801

(Line Move)

X-31.3801 Y-147.3596 Z-3.801

(Line Move)

X-31.9339 Y-147.6698 Z-3.801

(Line Move)

X-32.5491 Y-147.9105 Z-3.801

(Line Move)

X-33.2058 Y-148.0473 Z-3.801

(Line Move)

X-33.8593 Y-148.0661 Z-3.801

(Line Move)

X-34.4924 Y-147.985 Z-3.801

(Line Move)

X-35.1032 Y-147.8169 Z-3.801

(Line Move)

X-36.1214 Y-147.3649 Z-3.801

(Line Move)

X-39.2338 Y-145.4392 Z-3.801

(Line Move)

X-40.0361 Y-144.8777 Z-3.801

(Line Move)

X-40.7957 Y-144.2174 Z-3.801

(Line Move)

X-41.4704 Y-143.4959 Z-3.801

(Line Move)

X-42.0749 Y-142.7091 Z-3.801

(Line Move)

X-42.6009 Y-141.8968 Z-3.801

(Line Move)

X-43.4792 Y-140.193 Z-3.801

(Line Move)

X-44.0578 Y-138.7202 Z-3.801

(Line Move)

X-44.5829 Y-137.1825 Z-3.801

(Line Move)

X-44.8659 Y-136.1138 Z-3.801

(Line Move)

X-45.0941 Y-135.0064 Z-3.801

(Line Move)

X-45.2537 Y-133.9406 Z-3.801

(Line Move)

X-47.285 Y-109.1582 Z-3.801

(Line Move)

X-47.5297 Y-107.1296 Z-3.801

(Line Move)

X-47.8355 Y-105.1122 Z-3.801

(Line Move)

X-48.1978 Y-103.1472 Z-3.801

(Line Move)

X-48.6218 Y-101.1884 Z-3.801

(Line Move)

X-49.6512 Y-97.2072 Z-3.801

(Line Move)

X-54.2778 Y-81.2445 Z-3.801

(Line Move)

X-55.3607 Y-77.2579 Z-3.801

(Line Move)

X-56.3127 Y-73.1848 Z-3.801

(Line Move)

X-57.1043 Y-69.0801 Z-3.801

(Line Move)

X-57.4093 Y-66.9669 Z-3.801

(Line Move)

X-57.6052 Y-64.8871 Z-3.801

(Line Move)

X-57.6893 Y-62.7687 Z-3.801

(Line Move)

X-57.6412 Y-58.5391 Z-3.801

(Line Move)

X-57.4969 Y-56.6928 Z-3.801

(Line Move)

X-57.1484 Y-53.9182 Z-3.801

(Line Move)

X-56.5557 Y-51.1539 Z-3.801

(Line Move)

X-55.8549 Y-48.5368 Z-3.801

(Line Move)

X-55.2511 Y-46.7739 Z-3.801

(Line Move)

X-54.4724 Y-45.0087 Z-3.801

(Line Move)

X-52.4166 Y-40.9507 Z-3.801

(Line Move)

X-52.4152 Y-40.948 Z-3.801

(Arc Move)

G3 X-45.9149 Y-27.9751 I-646.5092 J332.0583

(Line Move)

G1 X83.1671 Y-27.9710 Z-3.801

(Line Move)

X-45.9109 Y-27.9669 Z-3.801

(Arc Move)

G2 X-41.6099 Y-20.8907 I44.587 J-22.2555

(Line Move)

G1 X87.4973 Y-20.8533 Z-3.801

(Line Move)

X-40.0018 Y-19.0325 Z-3.801

(Line Move)

X-37.9601 Y-17.0352 Z-3.801

(Line Move)

X-36.7496 Y-15.7743 Z-3.801

(Line Move)

X-35.2869 Y-13.9439 Z-3.801

(Line Move)

X-34.068 Y-12.7679 Z-3.801

(Line Move)

X-19.9305 Y.2157 Z-3.801

(Line Move)

X-18.9737 Y.918 Z-3.801

(Line Move)

X-18.4052 Y1.1912 Z-3.801

(Line Move)

X-17.835 Y1.3687 Z-3.801

(Line Move)

X-17.2415 Y1.4762 Z-3.801

(Line Move)

X-16.1008 Y1.5398 Z-3.801

(Line Move)

X-1.5645 Y1.5287 Z-3.801

(Line Move)

X-1.0679 Y1.5249 Z-3.801

(Line Move)

X-.2418 Y1.3611 Z-3.801

(Line Move)

X1.0721 Y.6461 Z-3.801

(Line Move)

X1.0799 Y.0133 Z-3.801

(Arc Move)

G2 X1.3672 Y-46.7691 I-3808.77 J-46.7823

(Arc Move)

X.9767 Y-101.3114 I-3809.0573 J0

(Line Move)

G1 X.9736 Y-101.5274 Z-3.801

(Arc Move)

G3 Y-101.5305 I.216 J-.0031

(Arc Move)

X1.0347 Y-101.681 I.216 J0

(Line Leadout Move)

G1 X130.8974 Y-102.4865

(Rapid Z up)

G0 Z3.

(Rapid Move)

X1.8507 Y-100.1608

(Rapid Z Down)

Z-.801

(Feed Z Down)

G1 Z-5.602 F411.48

(Line Leadin Move)

X1.0452 Y-100.9436 F1234.44

(Arc Move)

G3 X.9798 Y-101.0954 I.1505 J-.1549

(Arc Move)

G2 X.9767 Y-101.3114 I-3808.6698 J54.3264 F1645.92

(Line Move)

G1 X.9632 Y-102.2506 Z-5.602

(Line Move)

X-.4414 Y-102.4269 Z-5.602

(Line Move)

X-1.0949 Y-102.5661 Z-5.602

(Line Move)

X-1.7712 Y-102.8092 Z-5.602

(Line Move)

X-4.4481 Y-104.6732 Z-5.602

(Line Move)

X-7.0229 Y-106.6269 Z-5.602

(Line Move)

X-9.6389 Y-108.808 Z-5.602

(Line Move)

X-10.8515 Y-109.9144 Z-5.602

(Line Move)

X-12.0031 Y-111.0598 Z-5.602

(Line Move)

X-13.0864 Y-112.2582 Z-5.602

(Line Move)

X-14.1013 Y-113.5311 Z-5.602

(Line Move)

X-15.0172 Y-114.8401 Z-5.602

(Line Move)

X-15.8642 Y-116.2114 Z-5.602

(Line Move)

X-17.4799 Y-119.1848 Z-5.602

(Line Move)

X-18.173 Y-120.6363 Z-5.602

(Line Move)

X-18.7397 Y-122.0765 Z-5.602

(Line Move)

X-19.8226 Y-125.3249 Z-5.602

(Line Move)

X-20.9629 Y-128.5282 Z-5.602

(Arc Move)

G2 X-23.3754 Y-133.9203 I-34.7455 J12.3101

(Line Move)

G1 X100.6784 Y-143.1754 Z-5.602

(Line Move)

X-29.7681 Y-145.6671 Z-5.602

(Line Move)

X-30.458 Y-146.5898 Z-5.602

(Line Move)

X-30.8896 Y-146.9992 Z-5.602

(Line Move)

X-31.3801 Y-147.3596 Z-5.602

(Line Move)

X-31.9339 Y-147.6698 Z-5.602

(Line Move)

X-32.5491 Y-147.9105 Z-5.602

(Line Move)

X-33.2058 Y-148.0473 Z-5.602

(Line Move)

X-33.8593 Y-148.0661 Z-5.602

(Line Move)

X-34.4924 Y-147.985 Z-5.602

(Line Move)

X-35.1032 Y-147.8169 Z-5.602

(Line Move)

X-36.1214 Y-147.3649 Z-5.602

(Line Move)

X-39.2338 Y-145.4392 Z-5.602

(Line Move)

X-40.0361 Y-144.8777 Z-5.602

(Line Move)

X-40.7957 Y-144.2174 Z-5.602

(Line Move)

X-41.4704 Y-143.4959 Z-5.602

(Line Move)

X-42.0749 Y-142.7091 Z-5.602

(Line Move)

X-42.6009 Y-141.8968 Z-5.602

(Line Move)

X-43.4792 Y-140.193 Z-5.602

(Line Move)

X-44.0578 Y-138.7202 Z-5.602

(Line Move)

X-44.5829 Y-137.1825 Z-5.602

(Line Move)

X-44.8659 Y-136.1138 Z-5.602

(Line Move)

X-45.0941 Y-135.0064 Z-5.602

(Line Move)

X-45.2537 Y-133.9406 Z-5.602

(Line Move)

X-47.285 Y-109.1582 Z-5.602

(Line Move)

X-47.5297 Y-107.1296 Z-5.602

(Line Move)

X-47.8355 Y-105.1122 Z-5.602

(Line Move)

X-48.1978 Y-103.1472 Z-5.602

(Line Move)

X-48.6218 Y-101.1884 Z-5.602

(Line Move)

X-49.6512 Y-97.2072 Z-5.602

(Line Move)

X-54.2778 Y-81.2445 Z-5.602

(Line Move)

X-55.3607 Y-77.2579 Z-5.602

(Line Move)

X-56.3127 Y-73.1848 Z-5.602

(Line Move)

X-57.1043 Y-69.0801 Z-5.602

(Line Move)

X-57.4093 Y-66.9669 Z-5.602

(Line Move)

X-57.6052 Y-64.8871 Z-5.602

(Line Move)

X-57.6893 Y-62.7687 Z-5.602

(Line Move)

X-57.6412 Y-58.5391 Z-5.602

(Line Move)

X-57.4969 Y-56.6928 Z-5.602

(Line Move)

X-57.1484 Y-53.9182 Z-5.602

(Line Move)

X-56.5557 Y-51.1539 Z-5.602

(Line Move)

X-55.8549 Y-48.5368 Z-5.602

(Line Move)

X-55.2511 Y-46.7739 Z-5.602

(Line Move)

X-54.4724 Y-45.0087 Z-5.602

(Line Move)

X-52.4166 Y-40.9507 Z-5.602

(Line Move)

X-52.4152 Y-40.948 Z-5.602

(Arc Move)

G3 X-45.9149 Y-27.9751 I-646.5092 J332.0583

(Line Move)

G1 X83.1671 Y-27.9710 Z-5.602

(Line Move)

X-45.9109 Y-27.9669 Z-5.602

(Arc Move)

G2 X-41.6099 Y-20.8907 I44.587 J-22.2555

(Line Move)

G1 X87.4973 Y-20.8533 Z-5.602

(Line Move)

X-40.0018 Y-19.0325 Z-5.602

(Line Move)

X-37.9601 Y-17.0352 Z-5.602

(Line Move)

X-36.7496 Y-15.7743 Z-5.602

(Line Move)

X-35.2869 Y-13.9439 Z-5.602

(Line Move)

X-34.068 Y-12.7679 Z-5.602

(Line Move)

X-19.9305 Y.2157 Z-5.602

(Line Move)

X-18.9737 Y.918 Z-5.602

(Line Move)

X-18.4052 Y1.1912 Z-5.602

(Line Move)

X-17.835 Y1.3687 Z-5.602

(Line Move)

X-17.2415 Y1.4762 Z-5.602

(Line Move)

X-16.1008 Y1.5398 Z-5.602

(Line Move)

X-1.5645 Y1.5287 Z-5.602

(Line Move)

X-1.0679 Y1.5249 Z-5.602

(Line Move)

X-.2418 Y1.3611 Z-5.602

(Line Move)

X1.0721 Y.6461 Z-5.602

(Line Move)

X1.0799 Y.0133 Z-5.602

(Arc Move)

G2 X1.3672 Y-46.7691 I-3808.77 J-46.7823

(Arc Move)

X.9767 Y-101.3114 I-3809.0573 J0

(Line Move)

G1 X.9736 Y-101.5274 Z-5.602

(Arc Move)

G3 Y-101.5305 I.216 J-.0031

(Arc Move)

X1.0347 Y-101.681 I.216 J0

(Line Leadout Move)

G1 X130.8974 Y-102.4865

(Rapid Z up)

G0 Z3.

(Rapid Move)

X1.8507 Y-100.1608

(Rapid Z Down)

Z-2.602

(Feed Z Down)

G1 Z-7.403 F411.48

(Line Leadin Move)

X1.0452 Y-100.9436 F1234.44

(Arc Move)

G3 X.9798 Y-101.0954 I.1505 J-.1549

(Arc Move)

G2 X.9767 Y-101.3114 I-3808.6698 J54.3264 F1645.92

(Line Move)

G1 X.9632 Y-102.2506 Z-7.403

(Line Move)

X-.4414 Y-102.4269 Z-7.403

(Line Move)

X-1.0949 Y-102.5661 Z-7.403

(Line Move)

X-1.7712 Y-102.8092 Z-7.403

(Line Move)

X-4.4481 Y-104.6732 Z-7.403

(Line Move)

X-7.0229 Y-106.6269 Z-7.403

(Line Move)

X-9.6389 Y-108.808 Z-7.403

(Line Move)

X-10.8515 Y-109.9144 Z-7.403

(Line Move)

X-12.0031 Y-111.0598 Z-7.403

(Line Move)

X-13.0864 Y-112.2582 Z-7.403

(Line Move)

X-14.1013 Y-113.5311 Z-7.403

(Line Move)

X-15.0172 Y-114.8401 Z-7.403

(Line Move)

X-15.8642 Y-116.2114 Z-7.403

(Line Move)

X-17.4799 Y-119.1848 Z-7.403

(Line Move)

X-18.173 Y-120.6363 Z-7.403

(Line Move)

X-18.7397 Y-122.0765 Z-7.403

(Line Move)

X-19.8226 Y-125.3249 Z-7.403

(Line Move)

X-20.9629 Y-128.5282 Z-7.403

(Arc Move)

G2 X-23.3754 Y-133.9203 I-34.7455 J12.3101

(Line Move)

G1 X100.6784 Y-143.1754 Z-7.403

(Line Move)

X-29.7681 Y-145.6671 Z-7.403

(Line Move)

X-30.458 Y-146.5898 Z-7.403

(Line Move)

X-30.8896 Y-146.9992 Z-7.403

(Line Move)

X-31.3801 Y-147.3596 Z-7.403

(Line Move)

X-31.9339 Y-147.6698 Z-7.403

(Line Move)

X-32.5491 Y-147.9105 Z-7.403

(Line Move)

X-33.2058 Y-148.0473 Z-7.403

(Line Move)

X-33.8593 Y-148.0661 Z-7.403

(Line Move)

X-34.4924 Y-147.985 Z-7.403

(Line Move)

X-35.1032 Y-147.8169 Z-7.403

(Line Move)

X-36.1214 Y-147.3649 Z-7.403

(Line Move)

X-39.2338 Y-145.4392 Z-7.403

(Line Move)

X-40.0361 Y-144.8777 Z-7.403

(Line Move)

X-40.7957 Y-144.2174 Z-7.403

(Line Move)

X-41.4704 Y-143.4959 Z-7.403

(Line Move)

X-42.0749 Y-142.7091 Z-7.403

(Line Move)

X-42.6009 Y-141.8968 Z-7.403

(Line Move)

X-43.4792 Y-140.193 Z-7.403

(Line Move)

X-44.0578 Y-138.7202 Z-7.403

(Line Move)

X-44.5829 Y-137.1825 Z-7.403

(Line Move)

X-44.8659 Y-136.1138 Z-7.403

(Line Move)

X-45.0941 Y-135.0064 Z-7.403

(Line Move)

X-45.2537 Y-133.9406 Z-7.403

(Line Move)

X-47.285 Y-109.1582 Z-7.403

(Line Move)

X-47.5297 Y-107.1296 Z-7.403

(Line Move)

X-47.8355 Y-105.1122 Z-7.403

(Line Move)

X-48.1978 Y-103.1472 Z-7.403

(Line Move)

X-48.6218 Y-101.1884 Z-7.403

(Line Move)

X-49.6512 Y-97.2072 Z-7.403

(Line Move)

X-54.2778 Y-81.2445 Z-7.403

(Line Move)

X-55.3607 Y-77.2579 Z-7.403

(Line Move)

X-56.3127 Y-73.1848 Z-7.403

(Line Move)

X-57.1043 Y-69.0801 Z-7.403

(Line Move)

X-57.4093 Y-66.9669 Z-7.403

(Line Move)

X-57.6052 Y-64.8871 Z-7.403

(Line Move)

X-57.6893 Y-62.7687 Z-7.403

(Line Move)

X-57.6412 Y-58.5391 Z-7.403

(Line Move)

X-57.4969 Y-56.6928 Z-7.403

(Line Move)

X-57.1484 Y-53.9182 Z-7.403

(Line Move)

X-56.5557 Y-51.1539 Z-7.403

(Line Move)

X-55.8549 Y-48.5368 Z-7.403

(Line Move)

X-55.2511 Y-46.7739 Z-7.403

(Line Move)

X-54.4724 Y-45.0087 Z-7.403

(Line Move)

X-52.4166 Y-40.9507 Z-7.403

(Line Move)

X-52.4152 Y-40.948 Z-7.403

(Arc Move)

G3 X-45.9149 Y-27.9751 I-646.5092 J332.0583

(Line Move)

G1 X83.1671 Y-27.9710 Z-7.403

(Line Move)

X-45.9109 Y-27.9669 Z-7.403

(Arc Move)

G2 X-41.6099 Y-20.8907 I44.587 J-22.2555

(Line Move)

G1 X87.4973 Y-20.8533 Z-7.403

(Line Move)

X-40.0018 Y-19.0325 Z-7.403

(Line Move)

X-37.9601 Y-17.0352 Z-7.403

(Line Move)

X-36.7496 Y-15.7743 Z-7.403

(Line Move)

X-35.2869 Y-13.9439 Z-7.403

(Line Move)

X-34.068 Y-12.7679 Z-7.403

(Line Move)

X-19.9305 Y.2157 Z-7.403

(Line Move)

X-18.9737 Y.918 Z-7.403

(Line Move)

X-18.4052 Y1.1912 Z-7.403

(Line Move)

X-17.835 Y1.3687 Z-7.403

(Line Move)

X-17.2415 Y1.4762 Z-7.403

(Line Move)

X-16.1008 Y1.5398 Z-7.403

(Line Move)

X-1.5645 Y1.5287 Z-7.403

(Line Move)

X-1.0679 Y1.5249 Z-7.403

(Line Move)

X-.2418 Y1.3611 Z-7.403

(Line Move)

X1.0721 Y.6461 Z-7.403

(Line Move)

X1.0799 Y.0133 Z-7.403

(Arc Move)

G2 X1.3672 Y-46.7691 I-3808.77 J-46.7823

(Arc Move)

X.9767 Y-101.3114 I-3809.0573 J0

(Line Move)

G1 X.9736 Y-101.5274 Z-7.403

(Arc Move)

G3 Y-101.5305 I.216 J-.0031

(Arc Move)

X1.0347 Y-101.681 I.216 J0

(Line Leadout Move)

G1 X130.8974 Y-102.4865

(Rapid Z up)

G0 Z3.

(Rapid Move)

X1.8507 Y-100.1608

(Rapid Z Down)

Z-4.403

(Feed Z Down)

G1 Z-9.204 F411.48

(Line Leadin Move)

X1.0452 Y-100.9436 F1234.44

(Arc Move)

G3 X.9798 Y-101.0954 I.1505 J-.1549

(Arc Move)

G2 X.9767 Y-101.3114 I-3808.6698 J54.3264 F1645.92

(Line Move)

G1 X.9632 Y-102.2506 Z-9.204

(Line Move)

X-.4414 Y-102.4269 Z-9.204

(Line Move)

X-1.0949 Y-102.5661 Z-9.204

(Line Move)

X-1.7712 Y-102.8092 Z-9.204

(Line Move)

X-4.4481 Y-104.6732 Z-9.204

(Line Move)

X-7.0229 Y-106.6269 Z-9.204

(Line Move)

X-9.6389 Y-108.808 Z-9.204

(Line Move)

X-10.8515 Y-109.9144 Z-9.204

(Line Move)

X-12.0031 Y-111.0598 Z-9.204

(Line Move)

X-13.0864 Y-112.2582 Z-9.204

(Line Move)

X-14.1013 Y-113.5311 Z-9.204

(Line Move)

X-15.0172 Y-114.8401 Z-9.204

(Line Move)

X-15.8642 Y-116.2114 Z-9.204

(Line Move)

X-17.4799 Y-119.1848 Z-9.204

(Line Move)

X-18.173 Y-120.6363 Z-9.204

(Line Move)

X-18.7397 Y-122.0765 Z-9.204

(Line Move)

X-19.8226 Y-125.3249 Z-9.204

(Line Move)

X-20.9629 Y-128.5282 Z-9.204

(Arc Move)

G2 X-23.3754 Y-133.9203 I-34.7455 J12.3101

(Line Move)

G1 X100.6784 Y-143.1754 Z-9.204

(Line Move)

X-29.7681 Y-145.6671 Z-9.204

(Line Move)

X-30.458 Y-146.5898 Z-9.204

(Line Move)

X-30.8896 Y-146.9992 Z-9.204

(Line Move)

X-31.3801 Y-147.3596 Z-9.204

(Line Move)

X-31.9339 Y-147.6698 Z-9.204

(Line Move)

X-32.5491 Y-147.9105 Z-9.204

(Line Move)

X-33.2058 Y-148.0473 Z-9.204

(Line Move)

X-33.8593 Y-148.0661 Z-9.204

(Line Move)

X-34.4924 Y-147.985 Z-9.204

(Line Move)

X-35.1032 Y-147.8169 Z-9.204

(Line Move)

X-36.1214 Y-147.3649 Z-9.204

(Line Move)

X-39.2338 Y-145.4392 Z-9.204

(Line Move)

X-40.0361 Y-144.8777 Z-9.204

(Line Move)

X-40.7957 Y-144.2174 Z-9.204

(Line Move)

X-41.4704 Y-143.4959 Z-9.204

(Line Move)

X-42.0749 Y-142.7091 Z-9.204

(Line Move)

X-42.6009 Y-141.8968 Z-9.204

(Line Move)

X-43.4792 Y-140.193 Z-9.204

(Line Move)

X-44.0578 Y-138.7202 Z-9.204

(Line Move)

X-44.5829 Y-137.1825 Z-9.204

(Line Move)

X-44.8659 Y-136.1138 Z-9.204

(Line Move)

X-45.0941 Y-135.0064 Z-9.204

(Line Move)

X-45.2537 Y-133.9406 Z-9.204

(Line Move)

X-47.285 Y-109.1582 Z-9.204

(Line Move)

X-47.5297 Y-107.1296 Z-9.204

(Line Move)

X-47.8355 Y-105.1122 Z-9.204

(Line Move)

X-48.1978 Y-103.1472 Z-9.204

(Line Move)

X-48.6218 Y-101.1884 Z-9.204

(Line Move)

X-49.6512 Y-97.2072 Z-9.204

(Line Move)

X-54.2778 Y-81.2445 Z-9.204

(Line Move)

X-55.3607 Y-77.2579 Z-9.204

(Line Move)

X-56.3127 Y-73.1848 Z-9.204

(Line Move)

X-57.1043 Y-69.0801 Z-9.204

(Line Move)

X-57.4093 Y-66.9669 Z-9.204

(Line Move)

X-57.6052 Y-64.8871 Z-9.204

(Line Move)

X-57.6893 Y-62.7687 Z-9.204

(Line Move)

X-57.6412 Y-58.5391 Z-9.204

(Line Move)

X-57.4969 Y-56.6928 Z-9.204

(Line Move)

X-57.1484 Y-53.9182 Z-9.204

(Line Move)

X-56.5557 Y-51.1539 Z-9.204

(Line Move)

X-55.8549 Y-48.5368 Z-9.204

(Line Move)

X-55.2511 Y-46.7739 Z-9.204

(Line Move)

X-54.4724 Y-45.0087 Z-9.204

(Line Move)

X-52.4166 Y-40.9507 Z-9.204

(Line Move)

X-52.4152 Y-40.948 Z-9.204

(Arc Move)

G3 X-45.9149 Y-27.9751 I-646.5092 J332.0583

(Line Move)

G1 X83.1671 Y-27.9710 Z-9.204

(Line Move)

X-45.9109 Y-27.9669 Z-9.204

(Arc Move)

G2 X-41.6099 Y-20.8907 I44.587 J-22.2555

(Line Move)

G1 X87.4973 Y-20.8533 Z-9.204

(Line Move)

X-40.0018 Y-19.0325 Z-9.204

(Line Move)

X-37.9601 Y-17.0352 Z-9.204

(Line Move)

X-36.7496 Y-15.7743 Z-9.204

(Line Move)

X-35.2869 Y-13.9439 Z-9.204

(Line Move)

X-34.068 Y-12.7679 Z-9.204

(Line Move)

X-19.9305 Y.2157 Z-9.204

(Line Move)

X-18.9737 Y.918 Z-9.204

(Line Move)

X-18.4052 Y1.1912 Z-9.204

(Line Move)

X-17.835 Y1.3687 Z-9.204

(Line Move)

X-17.2415 Y1.4762 Z-9.204

(Line Move)

X-16.1008 Y1.5398 Z-9.204

(Line Move)

X-1.5645 Y1.5287 Z-9.204

(Line Move)

X-1.0679 Y1.5249 Z-9.204

(Line Move)

X-.2418 Y1.3611 Z-9.204

(Line Move)

X1.0721 Y.6461 Z-9.204

(Line Move)

X1.0799 Y.0133 Z-9.204

(Arc Move)

G2 X1.3672 Y-46.7691 I-3808.77 J-46.7823

(Arc Move)

X.9767 Y-101.3114 I-3809.0573 J0

(Line Move)

G1 X.9736 Y-101.5274 Z-9.204

(Arc Move)

G3 Y-101.5305 I.216 J-.0031

(Arc Move)

X1.0347 Y-101.681 I.216 J0

(Line Leadout Move)

G1 X130.8974 Y-102.4865

(Rapid Z up)

G0 Z3.

(Rapid Move)

X1.8507 Y-100.1608

(Rapid Z Down)

Z-6.204

(Feed Z Down)

G1 Z-11.005 F411.48

(Line Leadin Move)

X1.0452 Y-100.9436 F1234.44

(Arc Move)

G3 X.9798 Y-101.0954 I.1505 J-.1549

(Arc Move)

G2 X.9767 Y-101.3114 I-3808.6698 J54.3264 F1645.92

(Line Move)

G1 X.9632 Y-102.2506 Z-11.005

(Line Move)

X-.4414 Y-102.4269 Z-11.005

(Line Move)

X-1.0949 Y-102.5661 Z-11.005

(Line Move)

X-1.7712 Y-102.8092 Z-11.005

(Line Move)

X-4.4481 Y-104.6732 Z-11.005

(Line Move)

X-7.0229 Y-106.6269 Z-11.005

(Line Move)

X-9.6389 Y-108.808 Z-11.005

(Line Move)

X-10.8515 Y-109.9144 Z-11.005

(Line Move)

X-12.0031 Y-111.0598 Z-11.005

(Line Move)

X-13.0864 Y-112.2582 Z-11.005

(Line Move)

X-14.1013 Y-113.5311 Z-11.005

(Line Move)

X-15.0172 Y-114.8401 Z-11.005

(Line Move)

X-15.8642 Y-116.2114 Z-11.005

(Line Move)

X-17.4799 Y-119.1848 Z-11.005

(Line Move)

X-18.173 Y-120.6363 Z-11.005

(Line Move)

X-18.7397 Y-122.0765 Z-11.005

(Line Move)

X-19.8226 Y-125.3249 Z-11.005

(Line Move)

X-20.9629 Y-128.5282 Z-11.005

(Arc Move)

G2 X-23.3754 Y-133.9203 I-34.7455 J12.3101

(Line Move)

G1 X100.6784 Y-143.1754 Z-11.005

(Line Move)

X-29.7681 Y-145.6671 Z-11.005

(Line Move)

X-30.458 Y-146.5898 Z-11.005

(Line Move)

X-30.8896 Y-146.9992 Z-11.005

(Line Move)

X-31.3801 Y-147.3596 Z-11.005

(Line Move)

X-31.9339 Y-147.6698 Z-11.005

(Line Move)

X-32.5491 Y-147.9105 Z-11.005

(Line Move)

X-33.2058 Y-148.0473 Z-11.005

(Line Move)

X-33.8593 Y-148.0661 Z-11.005

(Line Move)

X-34.4924 Y-147.985 Z-11.005

(Line Move)

X-35.1032 Y-147.8169 Z-11.005

(Line Move)

X-36.1214 Y-147.3649 Z-11.005

(Line Move)

X-39.2338 Y-145.4392 Z-11.005

(Line Move)

X-40.0361 Y-144.8777 Z-11.005

(Line Move)

X-40.7957 Y-144.2174 Z-11.005

(Line Move)

X-41.4704 Y-143.4959 Z-11.005

(Line Move)

X-42.0749 Y-142.7091 Z-11.005

(Line Move)

X-42.6009 Y-141.8968 Z-11.005

(Line Move)

X-43.4792 Y-140.193 Z-11.005

(Line Move)

X-44.0578 Y-138.7202 Z-11.005

(Line Move)

X-44.5829 Y-137.1825 Z-11.005

(Line Move)

X-44.8659 Y-136.1138 Z-11.005

(Line Move)

X-45.0941 Y-135.0064 Z-11.005

(Line Move)

X-45.2537 Y-133.9406 Z-11.005

(Line Move)

X-47.285 Y-109.1582 Z-11.005

(Line Move)

X-47.5297 Y-107.1296 Z-11.005

(Line Move)

X-47.8355 Y-105.1122 Z-11.005

(Line Move)

X-48.1978 Y-103.1472 Z-11.005

(Line Move)

X-48.6218 Y-101.1884 Z-11.005

(Line Move)

X-49.6512 Y-97.2072 Z-11.005

(Line Move)

X-54.2778 Y-81.2445 Z-11.005

(Line Move)

X-55.3607 Y-77.2579 Z-11.005

(Line Move)

X-56.3127 Y-73.1848 Z-11.005

(Line Move)

X-57.1043 Y-69.0801 Z-11.005

(Line Move)

X-57.4093 Y-66.9669 Z-11.005

(Line Move)

X-57.6052 Y-64.8871 Z-11.005

(Line Move)

X-57.6893 Y-62.7687 Z-11.005

(Line Move)

X-57.6412 Y-58.5391 Z-11.005

(Line Move)

X-57.4969 Y-56.6928 Z-11.005

(Line Move)

X-57.1484 Y-53.9182 Z-11.005

(Line Move)

X-56.5557 Y-51.1539 Z-11.005

(Line Move)

X-55.8549 Y-48.5368 Z-11.005

(Line Move)

X-55.2511 Y-46.7739 Z-11.005

(Line Move)

X-54.4724 Y-45.0087 Z-11.005

(Line Move)

X-52.4166 Y-40.9507 Z-11.005

(Line Move)

X-52.4152 Y-40.948 Z-11.005

(Arc Move)

G3 X-45.9149 Y-27.9751 I-646.5092 J332.0583

(Line Move)

G1 X83.1671 Y-27.9710 Z-11.005

(Line Move)

X-45.9109 Y-27.9669 Z-11.005

(Arc Move)

G2 X-41.6099 Y-20.8907 I44.587 J-22.2555

(Line Move)

G1 X87.4973 Y-20.8533 Z-11.005

(Line Move)

X-40.0018 Y-19.0325 Z-11.005

(Line Move)

X-37.9601 Y-17.0352 Z-11.005

(Line Move)

X-36.7496 Y-15.7743 Z-11.005

(Line Move)

X-35.2869 Y-13.9439 Z-11.005

(Line Move)

X-34.068 Y-12.7679 Z-11.005

(Line Move)

X-19.9305 Y.2157 Z-11.005

(Line Move)

X-18.9737 Y.918 Z-11.005

(Line Move)

X-18.4052 Y1.1912 Z-11.005

(Line Move)

X-17.835 Y1.3687 Z-11.005

(Line Move)

X-17.2415 Y1.4762 Z-11.005

(Line Move)

X-16.1008 Y1.5398 Z-11.005

(Line Move)

X-1.5645 Y1.5287 Z-11.005

(Line Move)

X-1.0679 Y1.5249 Z-11.005

(Line Move)

X-.2418 Y1.3611 Z-11.005

(Line Move)

X1.0721 Y.6461 Z-11.005

(Line Move)

X1.0799 Y.0133 Z-11.005

(Arc Move)

G2 X1.3672 Y-46.7691 I-3808.77 J-46.7823

(Arc Move)

X.9767 Y-101.3114 I-3809.0573 J0

(Line Move)

G1 X.9736 Y-101.5274 Z-11.005

(Arc Move)

G3 Y-101.5305 I.216 J-.0031

(Arc Move)

X1.0347 Y-101.681 I.216 J0

(Line Leadout Move)

G1 X130.8974 Y-102.4865

(Rapid Z up)

G0 Z3.

(Rapid Z up)

Z25.

(Rapid Move)

X-25.8104 Y-64.1017

(Rapid Z Down)

Z2.8

(Feed Z Down)

G1 Z-.78 F411.48

(Line Move)

X-25.4884 Y-64.1017 Z-.78 F822.96

(Arc Move)

G3 X-25.8104 Y-63.7797 I-.322 J0 F1645.92

(Arc Move)

X-26.1324 Y-64.1017 I0 J-.322

(Arc Move)

X-25.8104 Y-64.4237 I.322 J0

(Arc Move)

X-25.4884 Y-64.1017 I0 J.322

(Line Move)

G1 X104.4556 Y-64.1017 Z-.78

(Arc Move)

G3 X-25.8104 Y-62.9157 I-1.186 J0

(Arc Move)

X-26.9964 Y-64.1017 I0 J-1.186

(Arc Move)

X-25.8104 Y-65.2877 I1.186 J0

(Arc Move)

X-24.6244 Y-64.1017 I0 J1.186

(Line Move)

G1 X105.3196 Y-64.1017 Z-.78

(Arc Move)

G3 X-25.8104 Y-62.0517 I-2.05 J0

(Arc Move)

X-27.8604 Y-64.1017 I0 J-2.05

(Arc Move)

X-25.8104 Y-66.1517 I2.05 J0

(Arc Move)

X-23.7604 Y-64.1017 I0 J2.05

(Line Move)

G1 X106.1836 Y-64.1017 Z-.78

(Arc Move)

G3 X-25.8104 Y-61.1877 I-2.914 J0

(Arc Move)

X-28.7244 Y-64.1017 I0 J-2.914

(Arc Move)

X-25.8104 Y-67.0157 I2.914 J0

(Arc Move)

X-22.8964 Y-64.1017 I0 J2.914

(Line Move)

G1 X107.0476 Y-64.1017 Z-.78

(Arc Move)

G3 X-25.8104 Y-60.3237 I-3.778 J0

(Arc Move)

X-29.5884 Y-64.1017 I0 J-3.778

(Arc Move)

X-25.8104 Y-67.8797 I3.778 J0

(Arc Move)

X-22.0324 Y-64.1017 I0 J3.778

(Line Move)

G1 X107.9116 Y-64.1017 Z-.78

(Arc Move)

G3 X-25.8104 Y-59.4597 I-4.642 J0

(Arc Move)

X-30.4524 Y-64.1017 I0 J-4.642

(Arc Move)

X-25.8104 Y-68.7437 I4.642 J0

(Arc Move)

X-21.1684 Y-64.1017 I0 J4.642

(Line Move)

G1 X108.7756 Y-64.1017 Z-.78

(Arc Move)

G3 X-25.8104 Y-58.5957 I-5.506 J0

(Arc Move)

X-31.3164 Y-64.1017 I0 J-5.506

(Arc Move)

X-25.8104 Y-69.6077 I5.506 J0

(Arc Move)

X-20.3044 Y-64.1017 I0 J5.506

(Line Move)

G1 X109.6396 Y-64.1017 Z-.78

(Arc Move)

G3 X-25.8104 Y-57.7317 I-6.37 J0

(Arc Move)

X-32.1804 Y-64.1017 I0 J-6.37

(Arc Move)

X-25.8104 Y-70.4717 I6.37 J0

(Arc Move)

X-19.4404 Y-64.1017 I0 J6.37

(Arc Move)

X-25.8104 Y-57.7317 I-6.37 J0

(Arc Move)

X-32.1804 Y-64.1017 I0 J-6.37

(Arc Move)

X-25.8104 Y-70.4717 I6.37 J0

(Arc Move)

X-19.4404 Y-64.1017 I0 J6.37

(Line Move)

G1 X103.2696 Y-64.1017 Z-.78

(Rapid Z up)

G0 Z2.8

(Rapid Z Down)

Z1.72

(Feed Z Down)

G1 Z-1.45 F411.48

(Line Move)

X-25.4884 Y-64.1017 Z-1.45 F822.96

(Arc Move)

G3 X-25.8104 Y-63.7797 I-.322 J0 F1645.92

(Arc Move)

X-26.1324 Y-64.1017 I0 J-.322

(Arc Move)

X-25.8104 Y-64.4237 I.322 J0

(Arc Move)

X-25.4884 Y-64.1017 I0 J.322

(Line Move)

G1 X104.4556 Y-64.1017 Z-1.45

(Arc Move)

G3 X-25.8104 Y-62.9157 I-1.186 J0

(Arc Move)

X-26.9964 Y-64.1017 I0 J-1.186

(Arc Move)

X-25.8104 Y-65.2877 I1.186 J0

(Arc Move)

X-24.6244 Y-64.1017 I0 J1.186

(Line Move)

G1 X105.3196 Y-64.1017 Z-1.45

(Arc Move)

G3 X-25.8104 Y-62.0517 I-2.05 J0

(Arc Move)

X-27.8604 Y-64.1017 I0 J-2.05

(Arc Move)

X-25.8104 Y-66.1517 I2.05 J0

(Arc Move)

X-23.7604 Y-64.1017 I0 J2.05

(Line Move)

G1 X106.1836 Y-64.1017 Z-1.45

(Arc Move)

G3 X-25.8104 Y-61.1877 I-2.914 J0

(Arc Move)

X-28.7244 Y-64.1017 I0 J-2.914

(Arc Move)

X-25.8104 Y-67.0157 I2.914 J0

(Arc Move)

X-22.8964 Y-64.1017 I0 J2.914

(Line Move)

G1 X107.0476 Y-64.1017 Z-1.45

(Arc Move)

G3 X-25.8104 Y-60.3237 I-3.778 J0

(Arc Move)

X-29.5884 Y-64.1017 I0 J-3.778

(Arc Move)

X-25.8104 Y-67.8797 I3.778 J0

(Arc Move)

X-22.0324 Y-64.1017 I0 J3.778

(Line Move)

G1 X107.9116 Y-64.1017 Z-1.45

(Arc Move)

G3 X-25.8104 Y-59.4597 I-4.642 J0

(Arc Move)

X-30.4524 Y-64.1017 I0 J-4.642

(Arc Move)

X-25.8104 Y-68.7437 I4.642 J0

(Arc Move)

X-21.1684 Y-64.1017 I0 J4.642

(Line Move)

G1 X108.7756 Y-64.1017 Z-1.45

(Arc Move)

G3 X-25.8104 Y-58.5957 I-5.506 J0

(Arc Move)

X-31.3164 Y-64.1017 I0 J-5.506

(Arc Move)

X-25.8104 Y-69.6077 I5.506 J0

(Arc Move)

X-20.3044 Y-64.1017 I0 J5.506

(Line Move)

G1 X109.6396 Y-64.1017 Z-1.45

(Arc Move)

G3 X-25.8104 Y-57.7317 I-6.37 J0

(Arc Move)

X-32.1804 Y-64.1017 I0 J-6.37

(Arc Move)

X-25.8104 Y-70.4717 I6.37 J0

(Arc Move)

X-19.4404 Y-64.1017 I0 J6.37

(Arc Move)

X-25.8104 Y-57.7317 I-6.37 J0

(Arc Move)

X-32.1804 Y-64.1017 I0 J-6.37

(Arc Move)

X-25.8104 Y-70.4717 I6.37 J0

(Arc Move)

X-19.4404 Y-64.1017 I0 J6.37

(Line Move)

G1 X103.2696 Y-64.1017 Z-1.45

(Rapid Z up)

G0 Z2.8

(Rapid Z Down)

Z1.05

(Feed Z Down)

G1 Z-1.7 F411.48

(Line Move)

X-25.4884 Y-64.1017 Z-1.7 F822.96

(Arc Move)

G3 X-25.8104 Y-63.7797 I-.322 J0 F1645.92

(Arc Move)

X-26.1324 Y-64.1017 I0 J-.322

(Arc Move)

X-25.8104 Y-64.4237 I.322 J0

(Arc Move)

X-25.4884 Y-64.1017 I0 J.322

(Line Move)

G1 X104.4556 Y-64.1017 Z-1.7

(Arc Move)

G3 X-25.8104 Y-62.9157 I-1.186 J0

(Arc Move)

X-26.9964 Y-64.1017 I0 J-1.186

(Arc Move)

X-25.8104 Y-65.2877 I1.186 J0

(Arc Move)

X-24.6244 Y-64.1017 I0 J1.186

(Line Move)

G1 X105.3196 Y-64.1017 Z-1.7

(Arc Move)

G3 X-25.8104 Y-62.0517 I-2.05 J0

(Arc Move)

X-27.8604 Y-64.1017 I0 J-2.05

(Arc Move)

X-25.8104 Y-66.1517 I2.05 J0

(Arc Move)

X-23.7604 Y-64.1017 I0 J2.05

(Line Move)

G1 X106.1836 Y-64.1017 Z-1.7

(Arc Move)

G3 X-25.8104 Y-61.1877 I-2.914 J0

(Arc Move)

X-28.7244 Y-64.1017 I0 J-2.914

(Arc Move)

X-25.8104 Y-67.0157 I2.914 J0

(Arc Move)

X-22.8964 Y-64.1017 I0 J2.914

(Line Move)

G1 X107.0476 Y-64.1017 Z-1.7

(Arc Move)

G3 X-25.8104 Y-60.3237 I-3.778 J0

(Arc Move)

X-29.5884 Y-64.1017 I0 J-3.778

(Arc Move)

X-25.8104 Y-67.8797 I3.778 J0

(Arc Move)

X-22.0324 Y-64.1017 I0 J3.778

(Line Move)

G1 X107.9116 Y-64.1017 Z-1.7

(Arc Move)

G3 X-25.8104 Y-59.4597 I-4.642 J0

(Arc Move)

X-30.4524 Y-64.1017 I0 J-4.642

(Arc Move)

X-25.8104 Y-68.7437 I4.642 J0

(Arc Move)

X-21.1684 Y-64.1017 I0 J4.642

(Line Move)

G1 X108.7756 Y-64.1017 Z-1.7

(Arc Move)

G3 X-25.8104 Y-58.5957 I-5.506 J0

(Arc Move)

X-31.3164 Y-64.1017 I0 J-5.506

(Arc Move)

X-25.8104 Y-69.6077 I5.506 J0

(Arc Move)

X-20.3044 Y-64.1017 I0 J5.506

(Line Move)

G1 X109.6396 Y-64.1017 Z-1.7

(Arc Move)

G3 X-25.8104 Y-57.7317 I-6.37 J0

(Arc Move)

X-32.1804 Y-64.1017 I0 J-6.37

(Arc Move)

X-25.8104 Y-70.4717 I6.37 J0

(Arc Move)

X-19.4404 Y-64.1017 I0 J6.37

(Arc Move)

X-25.8104 Y-57.7317 I-6.37 J0

(Arc Move)

X-32.1804 Y-64.1017 I0 J-6.37

(Arc Move)

X-25.8104 Y-70.4717 I6.37 J0

(Arc Move)

X-19.4404 Y-64.1017 I0 J6.37

(Line Move)

G1 X103.2696 Y-64.1017 Z-1.7

(Rapid Z up)

G0 Z2.8

(Rapid Z up)

Z25.

(Rapid Z Down)

Z3.3

(Feed Z Down)

G1 Z-.78 F411.48

(Line Leadin Move)

X-31.539 Y-62.9673 F1234.44

(Line Leadin Move)

X-32.3587 Y-63.7352

(Arc Move)

G3 X-32.4269 Y-63.8858 I.1477 J-.1576

(Arc Move)

X-32.4304 Y-64.1017 I6.6165 J-.216 F1645.92

(Arc Move)

X-25.8104 Y-70.7217 I6.62 J0

(Arc Move)

X-19.1904 Y-64.1017 I0 J6.62

(Arc Move)

X-25.8104 Y-57.4817 I-6.62 J0

(Arc Move)

X-32.4304 Y-64.1017 I0 J-6.62

(Arc Move)

X-32.4269 Y-64.3177 I6.62 J0

(Arc Move)

X-32.3587 Y-64.4683 I.2159 J.007

(Line Leadout Move)

G1 X97.5410 Y-65.2362

(Rapid Z up)

G0 Z3.3

(Rapid Move)

X-25.8104 Y-64.1017

(Rapid Z Down)

Z2.22

(Feed Z Down)

G1 Z-1.7 F411.48

(Line Leadin Move)

X-31.539 Y-62.9673 F1234.44

(Line Leadin Move)

X-32.3587 Y-63.7352

(Arc Move)

G3 X-32.4269 Y-63.8858 I.1477 J-.1576

(Arc Move)

X-32.4304 Y-64.1017 I6.6165 J-.216 F1645.92

(Arc Move)

X-25.8104 Y-70.7217 I6.62 J0

(Arc Move)

X-19.1904 Y-64.1017 I0 J6.62

(Arc Move)

X-25.8104 Y-57.4817 I-6.62 J0

(Arc Move)

X-32.4304 Y-64.1017 I0 J-6.62

(Arc Move)

X-32.4269 Y-64.3177 I6.62 J0

(Arc Move)

X-32.3587 Y-64.4683 I.2159 J.007

(Line Leadout Move)

G1 X97.5410 Y-65.2362

(Rapid Z up)

G0 Z3.3

(Last Rapid Z Up)

Z25. M9

(End of Tape)

G53

Z-2 

M5

G4 P1 

m8

M30

(Start of Tape)



(Made in : UPC)

(G Code optimized for RS-CNC32 with GRBL V0.9j controller)



( PART NUMBER=1 )

( PART NAME=  )

( PROGRAMMER=  )

( OPERATION NUMBER=  )

( DATE=  )



G90 G17 G21 G80

m8

(Init Tool Change)

(6MM CRB 2FL 19 LOC)

G53

G0 Z2 

G54

S12000 M3

M8

G4 P1 

(Rapid From Tool Change)

G0 G90 X195.4707 Y-100.1608

(Rapid Z Down)

Z3.

(Feed Z Down)

G1 Z-2. F411.48

(Line Leadin Move)

X1.0452 Y-100.9436 F1234.44

(Arc Move)

G3 X.9798 Y-101.0954 I.1505 J-.1549

(Arc Move)

G2 X.9767 Y-101.3114 I-3808.6698 J54.3264 F1645.92

(Line Move)

G1 X.9632 Y-102.2506 Z-2.

(Line Move)

X-.4414 Y-102.4269 Z-2.

(Line Move)

X-1.0949 Y-102.5661 Z-2.

(Line Move)

X-1.7712 Y-102.8092 Z-2.

(Line Move)

X-4.4481 Y-104.6732 Z-2.

(Line Move)

X-7.0229 Y-106.6269 Z-2.

(Line Move)

X-9.6389 Y-108.808 Z-2.

(Line Move)

X-10.8515 Y-109.9144 Z-2.

(Line Move)

X-12.0031 Y-111.0598 Z-2.

(Line Move)

X-13.0864 Y-112.2582 Z-2.

(Line Move)

X-14.1013 Y-113.5311 Z-2.

(Line Move)

X-15.0172 Y-114.8401 Z-2.

(Line Move)

X-15.8642 Y-116.2114 Z-2.

(Line Move)

X-17.4799 Y-119.1848 Z-2.

(Line Move)

X-18.173 Y-120.6363 Z-2.

(Line Move)

X-18.7397 Y-122.0765 Z-2.

(Line Move)

X-19.8226 Y-125.3249 Z-2.

(Line Move)

X-20.9629 Y-128.5282 Z-2.

(Arc Move)

G2 X-23.3754 Y-133.9203 I-34.7455 J12.3101

(Line Move)

G1 X165.2184 Y-143.1754 Z-2.

(Line Move)

X-29.7681 Y-145.6671 Z-2.

