(Start of Tape)

(Made in : UPC)
(G Code optimized for RS-CNC32 with GRBL V0.9j controller)

( PART NUMBER=1 )
( PART NAME=  )
( PROGRAMMER=  )
( OPERATION NUMBER=  )
( DATE=  )

G90 G17 G21 G80
m8
(Init Tool Change)
(6MM CRB 2FL 19 LOC)
G53
G0 Z2 
G54
S12000 M3
M8
G4 P1 
(Rapid From Tool Change)
G0 G90 X100.1608 Y1.8506999999999938
(Rapid Z Down)
Z3.
(Feed Z Down)
G1 Z-2. F411.48
(Line Leadin Move)
X100.9436 Y1.0451999999999937 F1234.44
(Arc Move)
G3 X101.0954 Y0.9797999999999938 I0.15489999999999782 J0.15050000000000008
(Arc Move)
G2 X101.3114 Y0.9766999999999938 I-54.326400000000234 J-3808.6698 F1645.92
(Line Move)
G1 X102.2506 Y0.9631999999999937 Z-2.
(Line Move)
X102.4269 Y-0.4414000000000063 Z-2.
(Line Move)
X102.5661 Y-1.0949000000000062 Z-2.
(Line Move)
X102.8092 Y-1.7712000000000063 Z-2.
(Line Move)
X104.6732 Y-4.448100000000006 Z-2.
(Line Move)
X106.6269 Y-7.022900000000006 Z-2.
(Line Move)
X108.808 Y-9.638900000000007 Z-2.
(Line Move)
X109.9144 Y-10.851500000000007 Z-2.
(Line Move)
X111.0598 Y-12.003100000000007 Z-2.
(Line Move)
X112.2582 Y-13.086400000000006 Z-2.
(Line Move)
X113.5311 Y-14.101300000000007 Z-2.
(Line Move)
X114.8401 Y-15.017200000000008 Z-2.
(Line Move)
X116.2114 Y-15.864200000000007 Z-2.
(Line Move)
X119.1848 Y-17.479900000000008 Z-2.
(Line Move) soucis ici
X120.6363 Y-17.173000000000005 Z-2.
(Line Move)
X122.0765 Y-18.739700000000006 Z-2.
(Line Move)
X125.3249 Y-19.82260000000001 Z-2.
(Line Move)
X128.5282 Y-20.96290000000001 Z-2.
(Arc Move)
G2 X133.9203 Y-23.375400000000006 I-12.310100000000006 J-34.74549999999999
(Line Move)
G1 X143.1754 Y-28.401600000000006 Z-2.
(Line Move)
X145.6671 Y-29.76810000000001 Z-2.
(Line Move)
X146.5898 Y-30.45800000000001 Z-2.
(Line Move)
X146.9992 Y-30.889600000000012 Z-2.
(Line Move)
X147.3596 Y-31.38010000000001 Z-2.
(Line Move)
X147.6698 Y-31.933900000000012 Z-2.
(Line Move)
X147.9105 Y-32.54910000000001 Z-2.
(Line Move)
X148.0473 Y-33.20580000000001 Z-2.
(Line Move)
X148.0661 Y-33.859300000000005 Z-2.
(Line Move)
X147.985 Y-34.49240000000001 Z-2.
(Line Move)
X147.8169 Y-35.10320000000001 Z-2.
(Line Move)
X147.3649 Y-36.12140000000001 Z-2.
(Line Move)
X145.4392 Y-39.23380000000001 Z-2.
(Line Move)
X144.8777 Y-40.036100000000005 Z-2.
(Line Move)
X144.2174 Y-40.795700000000004 Z-2.
(Line Move)
X143.4959 Y-41.470400000000005 Z-2.
(Line Move)
X142.7091 Y-42.07490000000001 Z-2.
(Line Move)
X141.8968 Y-42.60090000000001 Z-2.
(Line Move)
X140.193 Y-43.479200000000006 Z-2.
(Line Move)
X138.7202 Y-44.05780000000001 Z-2.
(Line Move)
X137.1825 Y-44.58290000000001 Z-2.
(Line Move)
X136.1138 Y-44.86590000000001 Z-2.
(Line Move)
X135.0064 Y-45.094100000000005 Z-2.
(Line Move)
X133.9406 Y-45.25370000000001 Z-2.
(Line Move)
X109.1582 Y-47.285000000000004 Z-2.
(Line Move)
X107.1296 Y-47.529700000000005 Z-2.
(Line Move)
X105.1122 Y-47.83550000000001 Z-2.
(Line Move)
X103.1472 Y-48.19780000000001 Z-2.
(Line Move)
X101.1884 Y-48.62180000000001 Z-2.
(Line Move)
X97.2072 Y-49.65120000000001 Z-2.
(Line Move)
X81.2445 Y-54.277800000000006 Z-2.
(Line Move)
X77.2579 Y-55.36070000000001 Z-2.
(Line Move)
X73.1848 Y-56.31270000000001 Z-2.
(Line Move)
X69.0801 Y-57.10430000000001 Z-2.
(Line Move)
X66.9669 Y-57.40930000000001 Z-2.
(Line Move)
X64.8871 Y-57.60520000000001 Z-2.
(Line Move)
X62.7687 Y-57.68930000000001 Z-2.
(Line Move)
X58.5391 Y-57.641200000000005 Z-2.
(Line Move)
X56.6928 Y-57.4969 Z-2.
(Line Move)
X53.9182 Y-57.1484 Z-2.
(Line Move)
X51.1539 Y-56.5557 Z-2.
(Line Move)
X48.5368 Y-55.8549 Z-2.
(Line Move)
X46.7739 Y-55.2511 Z-2.
(Line Move)
X45.0087 Y-54.4724 Z-2.
(Line Move)
X40.9507 Y-52.4166 Z-2.
(Line Move)
X40.948 Y-52.4152 Z-2.
(Arc Move)
G3 X27.975099999999998 Y-45.9149 I-332.05830000000003 J-646.5092
(Line Move)
G1 X27.970999999999997 Y-45.9129 Z-2.
(Line Move)
X27.966899999999995 Y-45.9109 Z-2.
(Arc Move)
G2 X20.890699999999995 Y-41.6099 I22.255500000000005 J44.587
(Line Move)
G1 X20.853299999999997 Y-41.5827 Z-2.
(Line Move)
X19.032499999999995 Y-40.0018 Z-2.
(Line Move)
X17.035199999999996 Y-37.9601 Z-2.
(Line Move)
X15.774299999999998 Y-36.7496 Z-2.
(Line Move)
X13.943899999999998 Y-35.2869 Z-2.
(Line Move)
X12.767899999999997 Y-34.068 Z-2.
(Line Move)
X-0.21570000000000122 Y-19.9305 Z-2.
(Line Move)
X-0.9180000000000011 Y-18.9737 Z-2.
(Line Move)
X-1.1912000000000011 Y-18.4052 Z-2.
(Line Move)
X-1.3687000000000011 Y-17.835 Z-2.
(Line Move)
X-1.476200000000001 Y-17.2415 Z-2.
(Line Move)
X-1.539800000000001 Y-16.1008 Z-2.
(Line Move)
X-1.5287 Y-1.5645 Z-2.
(Line Move)
X-1.5249 Y-1.0679 Z-2.
(Line Move)
X-1.3611 Y-0.2417999999999999 Z-2.
(Line Move)
X-0.6460999999999999 Y1.0721 Z-2.
(Line Move)
X-0.013299999999999933 Y1.0799 Z-2.
(Arc Move)
G2 X46.7691 Y1.367199999999997 I46.782299999999765 J-3808.77
(Arc Move)
X101.3114 Y0.9766999999999938 I-2.3447910280083306e-13 J-3809.0573
(Line Move)
G1 X101.5274 Y0.9735999999999938 Z-2.
(Arc Move)
G3 Y0.9735999999999938 I0.0031000000000034333 J0.21599999999999997
(Arc Move)
X101.681 Y1.0346999999999937 I0.0 J0.21599999999999997
(Line Leadout Move)
G1 X102.4865 Y1.8173999999999937
(Rapid Z up)
G0 Z3.
(Rapid Move)
X100.1608 Y1.8506999999999938
(Rapid Z Down)
Z1.
(Feed Z Down)
G1 Z-3.801 F411.48
(Line Leadin Move)
X100.9436 Y1.0451999999999937 F1234.44
(Arc Move)
G3 X101.0954 Y0.9798099999999937 I0.15489999999999782 J0.15050000000000008
(Arc Move)
G2 X101.3114 Y0.9767099999999937 I-54.326400000000234 J-3808.6698 F1645.92
(Line Move)
G1 X102.2506 Y1.0999999999999939 Z-3.801
(Line Move) probleme
X102.4269 Y1.0999999999999939 Z-3.801
(Line Move)
X102.5661 Y-1.0949000000000062 Z-3.801
(Line Move)
X102.8092 Y-1.7712000000000063 Z-3.801
(Line Move)
X104.6732 Y-4.448100000000006 Z-3.801
(Line Move)
X106.6269 Y-7.022900000000006 Z-3.801
(Line Move)
X108.808 Y-9.638900000000007 Z-3.801
(Line Move)
X109.9144 Y-10.851500000000007 Z-3.801
(Line Move)
X111.0598 Y-12.003100000000007 Z-3.801
(Line Move)
X112.2582 Y-13.086400000000006 Z-3.801
(Line Move)
X113.5311 Y-14.101300000000007 Z-3.801
(Line Move)
X114.8401 Y-15.017200000000008 Z-3.801
(Line Move)
X116.2114 Y-15.864200000000007 Z-3.801
(Line Move)
X119.1848 Y-17.479900000000008 Z-3.801
(Line Move)
X120.6363 Y-18.173000000000005 Z-3.801
(Line Move)
X122.0765 Y-18.739700000000006 Z-3.801
(Line Move)
X125.3249 Y-19.82260000000001 Z-3.801
(Line Move)
X128.5282 Y-20.96290000000001 Z-3.801
(Arc Move)
G2 X133.9203 Y-23.375400000000006 I-12.310100000000006 J-34.74549999999999
(Line Move)
G1 X143.1754 Y-28.401600000000006 Z-3.801
(Line Move)
X145.6671 Y-29.76810000000001 Z-3.801
(Line Move)
X146.5898 Y-30.45800000000001 Z-3.801
(Line Move)
X146.9992 Y-30.889600000000012 Z-3.801
(Line Move)
X147.3596 Y-31.38010000000001 Z-3.801
(Line Move)
X147.6698 Y-31.933900000000012 Z-3.801
(Line Move)
X147.9105 Y-32.54910000000001 Z-3.801
(Line Move)
X148.0473 Y-33.20580000000001 Z-3.801
(Line Move)
X148.0661 Y-33.859300000000005 Z-3.801
(Line Move)
X147.985 Y-34.49240000000001 Z-3.801
(Line Move)
X147.8169 Y-35.10320000000001 Z-3.801
(Line Move)
X147.3649 Y-36.12140000000001 Z-3.801
(Line Move)
X145.4392 Y-39.23380000000001 Z-3.801
(Line Move)
X144.8777 Y-40.036100000000005 Z-3.801
(Line Move)
X144.2174 Y-40.795700000000004 Z-3.801
(Line Move)
X143.4959 Y-41.470400000000005 Z-3.801
(Line Move)
X142.7091 Y-42.07490000000001 Z-3.801
(Line Move)
X141.8968 Y-42.60090000000001 Z-3.801
(Line Move)
X140.193 Y-43.479200000000006 Z-3.801
(Line Move)
X138.7202 Y-44.05780000000001 Z-3.801
(Line Move)
X137.1825 Y-44.58290000000001 Z-3.801
(Line Move)
X136.1138 Y-44.86590000000001 Z-3.801
(Line Move)
X135.0064 Y-45.094100000000005 Z-3.801
(Line Move)
X133.9406 Y-45.25370000000001 Z-3.801
(Line Move)
X109.1582 Y-47.285000000000004 Z-3.801
(Line Move)
X107.1296 Y-47.529700000000005 Z-3.801
(Line Move)
X105.1122 Y-47.83550000000001 Z-3.801
(Line Move)
X103.1472 Y-48.19780000000001 Z-3.801
(Line Move)
X101.1884 Y-48.62180000000001 Z-3.801
(Line Move)
X97.2072 Y-49.65120000000001 Z-3.801
(Line Move)
X81.2445 Y-54.277800000000006 Z-3.801
(Line Move)
X77.2579 Y-55.36070000000001 Z-3.801
(Line Move)
X73.1848 Y-56.31270000000001 Z-3.801
(Line Move)
X69.0801 Y-57.10430000000001 Z-3.801
(Line Move)
X66.9669 Y-57.40930000000001 Z-3.801
(Line Move)
X64.8871 Y-57.60520000000001 Z-3.801
(Line Move)
X62.7687 Y-57.68930000000001 Z-3.801
(Line Move)
X58.5391 Y-57.641200000000005 Z-3.801
(Line Move)
X56.6928 Y-57.4969 Z-3.801
(Line Move)
X53.9182 Y-57.1484 Z-3.801
(Line Move)
X51.1539 Y-56.5557 Z-3.801
(Line Move)
X48.5368 Y-55.8549 Z-3.801
(Line Move)
X46.7739 Y-55.2511 Z-3.801
(Line Move)
X45.0087 Y-54.4724 Z-3.801
(Line Move)
X40.9507 Y-52.4166 Z-3.801
(Line Move)
X40.948 Y-52.4152 Z-3.801
(Arc Move)
G3 X27.975099999999998 Y-45.9149 I-332.05830000000003 J-646.5092
(Line Move)
G1 X27.970999999999997 Y-45.9129 Z-3.801
(Line Move)
X27.966899999999995 Y-45.9109 Z-3.801
(Arc Move)
G2 X20.890699999999995 Y-41.6099 I22.255500000000005 J44.587
(Line Move)
G1 X20.853299999999997 Y-41.5827 Z-3.801
(Line Move)
X19.032499999999995 Y-40.0018 Z-3.801
(Line Move)
X17.035199999999996 Y-37.9601 Z-3.801
(Line Move)
X15.774299999999998 Y-36.7496 Z-3.801
(Line Move)
X13.943899999999998 Y-35.2869 Z-3.801
(Line Move)
X12.767899999999997 Y-34.068 Z-3.801
(Line Move)
X-0.21570000000000122 Y-19.9305 Z-3.801
(Line Move)
X-0.9180000000000011 Y-18.9737 Z-3.801
(Line Move)
X-1.1912000000000011 Y-18.4052 Z-3.801
(Line Move)
X-1.3687000000000011 Y-17.835 Z-3.801
(Line Move)
X-1.476200000000001 Y-17.2415 Z-3.801
(Line Move)
X-1.539800000000001 Y-16.1008 Z-3.801
(Line Move)
X-1.5287 Y-1.5645 Z-3.801
(Line Move)
X-1.5249 Y-1.0679 Z-3.801
(Line Move)
X-1.3611 Y-0.2417999999999999 Z-3.801
(Line Move)
X-0.6460999999999999 Y1.0721 Z-3.801
(Line Move)
X-0.013299999999999933 Y1.0799 Z-3.801
(Arc Move)
G2 X46.7691 Y1.367199999999997 I46.782299999999765 J-3808.77
(Arc Move)
X101.3114 Y0.9766999999999938 I-2.3447910280083306e-13 J-3809.0573
(Line Move)
G1 X101.5274 Y0.9735999999999938 Z-3.801
(Arc Move)
G3 Y0.9735999999999938 I0.0031000000000034333 J0.21599999999999997
(Arc Move)
X101.681 Y1.0346999999999937 I0.0 J0.21599999999999997
(Line Leadout Move)
G1 X102.4865 Y1.8173999999999937
(Rapid Z up)
G0 Z3.
(Rapid Move)
X100.1608 Y1.8506999999999938
(Rapid Z Down)
Z-.801
(Feed Z Down)
G1 Z-5.602 F411.48
(Line Leadin Move)
X100.9436 Y1.0451999999999937 F1234.44
(Arc Move)
G3 X101.0954 Y0.9797999999999938 I0.15489999999999782 J0.15050000000000008
(Arc Move)
G2 X101.3114 Y0.9766999999999938 I-54.326400000000234 J-3808.6698 F1645.92
(Line Move)
G1 X102.2506 Y0.9631999999999937 Z-5.602
(Line Move)
X102.4269 Y-0.4414000000000063 Z-5.602
(Line Move)
X102.5661 Y-1.0949000000000062 Z-5.602
(Line Move)
X102.8092 Y-1.7712000000000063 Z-5.602
(Line Move)
X104.6732 Y-4.448100000000006 Z-5.602
(Line Move)
X106.6269 Y-7.022900000000006 Z-5.602
(Line Move)
X108.808 Y-9.638900000000007 Z-5.602
(Line Move)
X109.9144 Y-10.851500000000007 Z-5.602
(Line Move)
X111.0598 Y-12.003100000000007 Z-5.602
(Line Move)
X112.2582 Y-13.086400000000006 Z-5.602
(Line Move)
X113.5311 Y-14.101300000000007 Z-5.602
(Line Move)
X114.8401 Y-15.017200000000008 Z-5.602
(Line Move)
X116.2114 Y-15.864200000000007 Z-5.602
(Line Move)
X119.1848 Y-17.479900000000008 Z-5.602
(Line Move)
X120.6363 Y-18.173000000000005 Z-5.602
(Line Move)
X122.0765 Y-18.739700000000006 Z-5.602
(Line Move)
X125.3249 Y-19.82260000000001 Z-5.602
(Line Move)
X128.5282 Y-20.96290000000001 Z-5.602
(Arc Move)
G2 X133.9203 Y-23.375400000000006 I-12.310100000000006 J-34.74549999999999
(Line Move)
G1 X143.1754 Y-28.401600000000006 Z-5.602
(Line Move)
X145.6671 Y-29.76810000000001 Z-5.602
(Line Move)
X146.5898 Y-30.45800000000001 Z-5.602
(Line Move)
X146.9992 Y-30.889600000000012 Z-5.602
(Line Move)
X147.3596 Y-31.38010000000001 Z-5.602
(Line Move)
X147.6698 Y-31.933900000000012 Z-5.602
(Line Move)
X147.9105 Y-32.54910000000001 Z-5.602
(Line Move)
X148.0473 Y-33.20580000000001 Z-5.602
(Line Move)
X148.0661 Y-33.859300000000005 Z-5.602
(Line Move)
X147.985 Y-34.49240000000001 Z-5.602
(Line Move)
X147.8169 Y-35.10320000000001 Z-5.602
(Line Move)
X147.3649 Y-36.12140000000001 Z-5.602
(Line Move)
X145.4392 Y-39.23380000000001 Z-5.602
(Line Move)
X144.8777 Y-40.036100000000005 Z-5.602
(Line Move)
X144.2174 Y-40.795700000000004 Z-5.602
(Line Move)
X143.4959 Y-41.470400000000005 Z-5.602
(Line Move)
X142.7091 Y-42.07490000000001 Z-5.602
(Line Move)
X141.8968 Y-42.60090000000001 Z-5.602
(Line Move)
X140.193 Y-43.479200000000006 Z-5.602
(Line Move)
X138.7202 Y-44.05780000000001 Z-5.602
(Line Move)
X137.1825 Y-44.58290000000001 Z-5.602
(Line Move)
X136.1138 Y-44.86590000000001 Z-5.602
(Line Move)
X135.0064 Y-45.094100000000005 Z-5.602
(Line Move)
X133.9406 Y-45.25370000000001 Z-5.602
(Line Move)
X109.1582 Y-47.285000000000004 Z-5.602
(Line Move)
X107.1296 Y-47.529700000000005 Z-5.602
(Line Move)
X105.1122 Y-47.83550000000001 Z-5.602
(Line Move)
X103.1472 Y-48.19780000000001 Z-5.602
(Line Move)
X101.1884 Y-48.62180000000001 Z-5.602
(Line Move)
X97.2072 Y-49.65120000000001 Z-5.602
(Line Move)
X81.2445 Y-54.277800000000006 Z-5.602
(Line Move)
X77.2579 Y-55.36070000000001 Z-5.602
(Line Move)
X73.1848 Y-56.31270000000001 Z-5.602
(Line Move)
X69.0801 Y-57.10430000000001 Z-5.602
(Line Move)
X66.9669 Y-57.40930000000001 Z-5.602
(Line Move)
X64.8871 Y-57.60520000000001 Z-5.602
(Line Move)
X62.7687 Y-57.68930000000001 Z-5.602
(Line Move)
X58.5391 Y-57.641200000000005 Z-5.602
(Line Move)
X56.6928 Y-57.4969 Z-5.602
(Line Move)
X53.9182 Y-57.1484 Z-5.602
(Line Move)
X51.1539 Y-56.5557 Z-5.602
(Line Move)
X48.5368 Y-55.8549 Z-5.602
(Line Move)
X46.7739 Y-55.2511 Z-5.602
(Line Move)
X45.0087 Y-54.4724 Z-5.602
(Line Move)
X40.9507 Y-52.4166 Z-5.602
(Line Move)
X40.948 Y-52.4152 Z-5.602
(Arc Move)
G3 X27.975099999999998 Y-45.9149 I-332.05830000000003 J-646.5092
(Line Move)
G1 X27.970999999999997 Y-45.9129 Z-5.602
(Line Move)
X27.966899999999995 Y-45.9109 Z-5.602
(Arc Move)
G2 X20.890699999999995 Y-41.6099 I22.255500000000005 J44.587
(Line Move)
G1 X20.853299999999997 Y-41.5827 Z-5.602
(Line Move)
X19.032499999999995 Y-40.0018 Z-5.602
(Line Move)
X17.035199999999996 Y-37.9601 Z-5.602
(Line Move)
X15.774299999999998 Y-36.7496 Z-5.602
(Line Move)
X13.943899999999998 Y-35.2869 Z-5.602
(Line Move)
X12.767899999999997 Y-34.068 Z-5.602
(Line Move)
X-0.21570000000000122 Y-19.9305 Z-5.602
(Line Move)
X-0.9180000000000011 Y-18.9737 Z-5.602
(Line Move)
X-1.1912000000000011 Y-18.4052 Z-5.602
(Line Move)
X-1.3687000000000011 Y-17.835 Z-5.602
(Line Move)
X-1.476200000000001 Y-17.2415 Z-5.602
(Line Move)
X-1.539800000000001 Y-16.1008 Z-5.602
(Line Move)
X-1.5287 Y-1.5645 Z-5.602
(Line Move)
X-1.5249 Y-1.0679 Z-5.602
(Line Move)
X-1.3611 Y-0.2417999999999999 Z-5.602
(Line Move)
X-0.6460999999999999 Y1.0721 Z-5.602
(Line Move)
X-0.013299999999999933 Y1.0799 Z-5.602
(Arc Move)
G2 X46.7691 Y1.367199999999997 I46.782299999999765 J-3808.77
(Arc Move)
X101.3114 Y0.9766999999999938 I-2.3447910280083306e-13 J-3809.0573
(Line Move)
G1 X101.5274 Y0.9735999999999938 Z-5.602
(Arc Move)
G3 Y0.9735999999999938 I0.0031000000000034333 J0.21599999999999997
(Arc Move)
X101.681 Y1.0346999999999937 I0.0 J0.21599999999999997
(Line Leadout Move)
G1 X102.4865 Y1.8173999999999937
(Rapid Z up)
G0 Z3.
(Rapid Move)
X100.1608 Y1.8506999999999938
(Rapid Z Down)
Z-2.602
(Feed Z Down)
G1 Z-7.403 F411.48
(Line Leadin Move)
X100.9436 Y1.0451999999999937 F1234.44
(Arc Move)
G3 X101.0954 Y0.9797999999999938 I0.15489999999999782 J0.15050000000000008
(Arc Move)
G2 X101.3114 Y0.9766999999999938 I-54.326400000000234 J-3808.6698 F1645.92
(Line Move)
G1 X102.2506 Y0.9631999999999937 Z-7.403
(Line Move)
X102.4269 Y-0.4414000000000063 Z-7.403
(Line Move)
X102.5661 Y-1.0949000000000062 Z-7.403
(Line Move)
X102.8092 Y-1.7712000000000063 Z-7.403
(Line Move)
X104.6732 Y-4.448100000000006 Z-7.403
(Line Move)
X106.6269 Y-7.022900000000006 Z-7.403
(Line Move)
X108.808 Y-9.638900000000007 Z-7.403
(Line Move)
X109.9144 Y-10.851500000000007 Z-7.403
(Line Move)
X111.0598 Y-12.003100000000007 Z-7.403
(Line Move)
X112.2582 Y-13.086400000000006 Z-7.403
(Line Move)
X113.5311 Y-14.101300000000007 Z-7.403
(Line Move)
X114.8401 Y-15.017200000000008 Z-7.403
(Line Move)
X116.2114 Y-15.864200000000007 Z-7.403
(Line Move)
X119.1848 Y-17.479900000000008 Z-7.403
(Line Move)
X120.6363 Y-18.173000000000005 Z-7.403
(Line Move)
X122.0765 Y-18.739700000000006 Z-7.403
(Line Move)
X125.3249 Y-19.82260000000001 Z-7.403
(Line Move)
X128.5282 Y-20.96290000000001 Z-7.403
(Arc Move)
G2 X133.9203 Y-23.375400000000006 I-12.310100000000006 J-34.74549999999999
(Line Move)
G1 X143.1754 Y-28.401600000000006 Z-7.403
(Line Move)
X145.6671 Y-29.76810000000001 Z-7.403
(Line Move)
X146.5898 Y-30.45800000000001 Z-7.403
(Line Move)
X146.9992 Y-30.889600000000012 Z-7.403
(Line Move)
X147.3596 Y-31.38010000000001 Z-7.403
(Line Move)
X147.6698 Y-31.933900000000012 Z-7.403
(Line Move)
X147.9105 Y-32.54910000000001 Z-7.403
(Line Move)
X148.0473 Y-33.20580000000001 Z-7.403
(Line Move)
X148.0661 Y-33.859300000000005 Z-7.403
(Line Move)
X147.985 Y-34.49240000000001 Z-7.403
(Line Move)
X147.8169 Y-35.10320000000001 Z-7.403
(Line Move)
X147.3649 Y-36.12140000000001 Z-7.403
(Line Move)
X145.4392 Y-39.23380000000001 Z-7.403
(Line Move)
X144.8777 Y-40.036100000000005 Z-7.403
(Line Move)
X144.2174 Y-40.795700000000004 Z-7.403
(Line Move)
X143.4959 Y-41.470400000000005 Z-7.403
(Line Move)
X142.7091 Y-42.07490000000001 Z-7.403
(Line Move)
X141.8968 Y-42.60090000000001 Z-7.403
(Line Move)
X140.193 Y-43.479200000000006 Z-7.403
(Line Move)
X138.7202 Y-44.05780000000001 Z-7.403
(Line Move)
X137.1825 Y-44.58290000000001 Z-7.403
(Line Move)
X136.1138 Y-44.86590000000001 Z-7.403
(Line Move)
X135.0064 Y-45.094100000000005 Z-7.403
(Line Move)
X133.9406 Y-45.25370000000001 Z-7.403
(Line Move)
X109.1582 Y-47.285000000000004 Z-7.403
(Line Move)
X107.1296 Y-47.529700000000005 Z-7.403
(Line Move)
X105.1122 Y-47.83550000000001 Z-7.403
(Line Move)
X103.1472 Y-48.19780000000001 Z-7.403
(Line Move)
X101.1884 Y-48.62180000000001 Z-7.403
(Line Move)
X97.2072 Y-49.65120000000001 Z-7.403
(Line Move)
X81.2445 Y-54.277800000000006 Z-7.403
(Line Move)
X77.2579 Y-55.36070000000001 Z-7.403
(Line Move)
X73.1848 Y-56.31270000000001 Z-7.403
(Line Move)
X69.0801 Y-57.10430000000001 Z-7.403
(Line Move)
X66.9669 Y-57.40930000000001 Z-7.403
(Line Move)
X64.8871 Y-57.60520000000001 Z-7.403
(Line Move)
X62.7687 Y-57.68930000000001 Z-7.403
(Line Move)
X58.5391 Y-57.641200000000005 Z-7.403
(Line Move)
X56.6928 Y-57.4969 Z-7.403
(Line Move)
X53.9182 Y-57.1484 Z-7.403
(Line Move)
X51.1539 Y-56.5557 Z-7.403
(Line Move)
X48.5368 Y-55.8549 Z-7.403
(Line Move)
X46.7739 Y-55.2511 Z-7.403
(Line Move)
X45.0087 Y-54.4724 Z-7.403
(Line Move)
X40.9507 Y-52.4166 Z-7.403
(Line Move)
X40.948 Y-52.4152 Z-7.403
(Arc Move)
G3 X27.975099999999998 Y-45.9149 I-332.05830000000003 J-646.5092
(Line Move)
G1 X27.970999999999997 Y-45.9129 Z-7.403
(Line Move)
X27.966899999999995 Y-45.9109 Z-7.403
(Arc Move)
G2 X20.890699999999995 Y-41.6099 I22.255500000000005 J44.587
(Line Move)
G1 X20.853299999999997 Y-41.5827 Z-7.403
(Line Move)
X19.032499999999995 Y-40.0018 Z-7.403
(Line Move)
X17.035199999999996 Y-37.9601 Z-7.403
(Line Move)
X15.774299999999998 Y-36.7496 Z-7.403
(Line Move)
X13.943899999999998 Y-35.2869 Z-7.403
(Line Move)
X12.767899999999997 Y-34.068 Z-7.403
(Line Move)
X-0.21570000000000122 Y-19.9305 Z-7.403
(Line Move)
X-0.9180000000000011 Y-18.9737 Z-7.403
(Line Move)
X-1.1912000000000011 Y-18.4052 Z-7.403
(Line Move)
X-1.3687000000000011 Y-17.835 Z-7.403
(Line Move)
X-1.476200000000001 Y-17.2415 Z-7.403
(Line Move)
X-1.539800000000001 Y-16.1008 Z-7.403
(Line Move)
X-1.5287 Y-1.5645 Z-7.403
(Line Move)
X-1.5249 Y-1.0679 Z-7.403
(Line Move)
X-1.3611 Y-0.2417999999999999 Z-7.403
(Line Move)
X-0.6460999999999999 Y1.0721 Z-7.403
(Line Move)
X-0.013299999999999933 Y1.0799 Z-7.403
(Arc Move)
G2 X46.7691 Y1.367199999999997 I46.782299999999765 J-3808.77
(Arc Move)
X101.3114 Y0.9766999999999938 I-2.3447910280083306e-13 J-3809.0573
(Line Move)
G1 X101.5274 Y0.9735999999999938 Z-7.403
(Arc Move)
G3 Y0.9735999999999938 I0.0031000000000034333 J0.21599999999999997
(Arc Move)
X101.681 Y1.0346999999999937 I0.0 J0.21599999999999997
(Line Leadout Move)
G1 X102.4865 Y1.8173999999999937
(Rapid Z up)
G0 Z3.
(Rapid Move)
X100.1608 Y1.8506999999999938
(Rapid Z Down)
Z-4.403
(Feed Z Down)
G1 Z-9.204 F411.48
(Line Leadin Move)
X100.9436 Y1.0451999999999937 F1234.44
(Arc Move)
G3 X101.0954 Y0.9797999999999938 I0.15489999999999782 J0.15050000000000008
(Arc Move)
G2 X101.3114 Y0.9766999999999938 I-54.326400000000234 J-3808.6698 F1645.92
(Line Move)
G1 X102.2506 Y0.9631999999999937 Z-9.204
(Line Move)
X102.4269 Y-0.4414000000000063 Z-9.204
(Line Move)
X102.5661 Y-1.0949000000000062 Z-9.204
(Line Move)
X102.8092 Y-1.7712000000000063 Z-9.204
(Line Move)
X104.6732 Y-4.448100000000006 Z-9.204
(Line Move)
X106.6269 Y-7.022900000000006 Z-9.204
(Line Move)
X108.808 Y-9.638900000000007 Z-9.204
(Line Move)
X109.9144 Y-10.851500000000007 Z-9.204
(Line Move)
X111.0598 Y-12.003100000000007 Z-9.204
(Line Move)
X112.2582 Y-13.086400000000006 Z-9.204
(Line Move)
X113.5311 Y-14.101300000000007 Z-9.204
(Line Move)
X114.8401 Y-15.017200000000008 Z-9.204
(Line Move)
X116.2114 Y-15.864200000000007 Z-9.204
(Line Move)
X119.1848 Y-17.479900000000008 Z-9.204
(Line Move)
X120.6363 Y-18.173000000000005 Z-9.204
(Line Move)
X122.0765 Y-18.739700000000006 Z-9.204
(Line Move)
X125.3249 Y-19.82260000000001 Z-9.204
(Line Move)
X128.5282 Y-20.96290000000001 Z-9.204
(Arc Move)
G2 X133.9203 Y-23.375400000000006 I-12.310100000000006 J-34.74549999999999
(Line Move)
G1 X143.1754 Y-28.401600000000006 Z-9.204
(Line Move)
X145.6671 Y-29.76810000000001 Z-9.204
(Line Move)
X146.5898 Y-30.45800000000001 Z-9.204
(Line Move)
X146.9992 Y-30.889600000000012 Z-9.204
(Line Move)
X147.3596 Y-31.38010000000001 Z-9.204
(Line Move)
X147.6698 Y-31.933900000000012 Z-9.204
(Line Move)
X147.9105 Y-32.54910000000001 Z-9.204
(Line Move)
X148.0473 Y-33.20580000000001 Z-9.204
(Line Move)
X148.0661 Y-33.859300000000005 Z-9.204
(Line Move)
X147.985 Y-34.49240000000001 Z-9.204
(Line Move)
X147.8169 Y-35.10320000000001 Z-9.204
(Line Move)
X147.3649 Y-36.12140000000001 Z-9.204
(Line Move)
X145.4392 Y-39.23380000000001 Z-9.204
(Line Move)
X144.8777 Y-40.036100000000005 Z-9.204
(Line Move)
X144.2174 Y-40.795700000000004 Z-9.204
(Line Move)
X143.4959 Y-41.470400000000005 Z-9.204
(Line Move)
X142.7091 Y-42.07490000000001 Z-9.204
(Line Move)
X141.8968 Y-42.60090000000001 Z-9.204
(Line Move)
X140.193 Y-43.479200000000006 Z-9.204
(Line Move)
X138.7202 Y-44.05780000000001 Z-9.204
(Line Move)
X137.1825 Y-44.58290000000001 Z-9.204
(Line Move)
X136.1138 Y-44.86590000000001 Z-9.204
(Line Move)
X135.0064 Y-45.094100000000005 Z-9.204
(Line Move)
X133.9406 Y-45.25370000000001 Z-9.204
(Line Move)
X109.1582 Y-47.285000000000004 Z-9.204
(Line Move)
X107.1296 Y-47.529700000000005 Z-9.204
(Line Move)
X105.1122 Y-47.83550000000001 Z-9.204
(Line Move)
X103.1472 Y-48.19780000000001 Z-9.204
(Line Move)
X101.1884 Y-48.62180000000001 Z-9.204
(Line Move)
X97.2072 Y-49.65120000000001 Z-9.204
(Line Move)
X81.2445 Y-54.277800000000006 Z-9.204
(Line Move)
X77.2579 Y-55.36070000000001 Z-9.204
(Line Move)
X73.1848 Y-56.31270000000001 Z-9.204
(Line Move)
X69.0801 Y-57.10430000000001 Z-9.204
(Line Move)
X66.9669 Y-57.40930000000001 Z-9.204
(Line Move)
X64.8871 Y-57.60520000000001 Z-9.204
(Line Move)
X62.7687 Y-57.68930000000001 Z-9.204
(Line Move)
X58.5391 Y-57.641200000000005 Z-9.204
(Line Move)
X56.6928 Y-57.4969 Z-9.204
(Line Move)
X53.9182 Y-57.1484 Z-9.204
(Line Move)
X51.1539 Y-56.5557 Z-9.204
(Line Move)
X48.5368 Y-55.8549 Z-9.204
(Line Move)
X46.7739 Y-55.2511 Z-9.204
(Line Move)
X45.0087 Y-54.4724 Z-9.204
(Line Move)
X40.9507 Y-52.4166 Z-9.204
(Line Move)
X40.948 Y-52.4152 Z-9.204
(Arc Move)
G3 X27.975099999999998 Y-45.9149 I-332.05830000000003 J-646.5092
(Line Move)
G1 X27.970999999999997 Y-45.9129 Z-9.204
(Line Move)
X27.966899999999995 Y-45.9109 Z-9.204
(Arc Move)
G2 X20.890699999999995 Y-41.6099 I22.255500000000005 J44.587
(Line Move)
G1 X20.853299999999997 Y-41.5827 Z-9.204
(Line Move)
X19.032499999999995 Y-40.0018 Z-9.204
(Line Move)
X17.035199999999996 Y-37.9601 Z-9.204
(Line Move)
X15.774299999999998 Y-36.7496 Z-9.204
(Line Move)
X13.943899999999998 Y-35.2869 Z-9.204
(Line Move)
X12.767899999999997 Y-34.068 Z-9.204
(Line Move)
X-0.21570000000000122 Y-19.9305 Z-9.204
(Line Move)
X-0.9180000000000011 Y-18.9737 Z-9.204
(Line Move)
X-1.1912000000000011 Y-18.4052 Z-9.204
(Line Move)
X-1.3687000000000011 Y-17.835 Z-9.204
(Line Move)
X-1.476200000000001 Y-17.2415 Z-9.204
(Line Move)
X-1.539800000000001 Y-16.1008 Z-9.204
(Line Move)
X-1.5287 Y-1.5645 Z-9.204
(Line Move)
X-1.5249 Y-1.0679 Z-9.204
(Line Move)
X-1.3611 Y-0.2417999999999999 Z-9.204
(Line Move)
X-0.6460999999999999 Y1.0721 Z-9.204
(Line Move)
X-0.013299999999999933 Y1.0799 Z-9.204
(Arc Move)
G2 X46.7691 Y1.367199999999997 I46.782299999999765 J-3808.77
(Arc Move)
X101.3114 Y0.9766999999999938 I-2.3447910280083306e-13 J-3809.0573
(Line Move)
G1 X101.5274 Y0.9735999999999938 Z-9.204
(Arc Move)
G3 Y0.9735999999999938 I0.0031000000000034333 J0.21599999999999997
(Arc Move)
X101.681 Y1.0346999999999937 I0.0 J0.21599999999999997
(Line Leadout Move)
G1 X102.4865 Y1.8173999999999937
(Rapid Z up)
G0 Z3.
(Rapid Move)
X100.1608 Y1.8506999999999938
(Rapid Z Down)
Z-6.204
(Feed Z Down)
G1 Z-11.005 F411.48
(Line Leadin Move)
X100.9436 Y1.0451999999999937 F1234.44
(Arc Move)
G3 X101.0954 Y0.9797999999999938 I0.15489999999999782 J0.15050000000000008
(Arc Move)
G2 X101.3114 Y0.9766999999999938 I-54.326400000000234 J-3808.6698 F1645.92
(Line Move)
G1 X102.2506 Y0.9631999999999937 Z-11.005
(Line Move)
X102.4269 Y-0.4414000000000063 Z-11.005
(Line Move)
X102.5661 Y-1.0949000000000062 Z-11.005
(Line Move)
X102.8092 Y-1.7712000000000063 Z-11.005
(Line Move)
X104.6732 Y-4.448100000000006 Z-11.005
(Line Move)
X106.6269 Y-7.022900000000006 Z-11.005
(Line Move)
X108.808 Y-9.638900000000007 Z-11.005
(Line Move)
X109.9144 Y-10.851500000000007 Z-11.005
(Line Move)
X111.0598 Y-12.003100000000007 Z-11.005
(Line Move)
X112.2582 Y-13.086400000000006 Z-11.005
(Line Move)
X113.5311 Y-14.101300000000007 Z-11.005
(Line Move)
X114.8401 Y-15.017200000000008 Z-11.005
(Line Move)
X116.2114 Y-15.864200000000007 Z-11.005
(Line Move)
X119.1848 Y-17.479900000000008 Z-11.005
(Line Move)
X120.6363 Y-18.173000000000005 Z-11.005
(Line Move)
X122.0765 Y-18.739700000000006 Z-11.005
(Line Move)
X125.3249 Y-19.82260000000001 Z-11.005
(Line Move)
X128.5282 Y-20.96290000000001 Z-11.005
(Arc Move)
G2 X133.9203 Y-23.375400000000006 I-12.310100000000006 J-34.74549999999999
(Line Move)
G1 X143.1754 Y-28.401600000000006 Z-11.005
(Line Move)
X145.6671 Y-29.76810000000001 Z-11.005
(Line Move)
X146.5898 Y-30.45800000000001 Z-11.005
(Line Move)
X146.9992 Y-30.889600000000012 Z-11.005
(Line Move)
X147.3596 Y-31.38010000000001 Z-11.005
(Line Move)
X147.6698 Y-31.933900000000012 Z-11.005
(Line Move)
X147.9105 Y-32.54910000000001 Z-11.005
(Line Move)
X148.0473 Y-33.20580000000001 Z-11.005
(Line Move)
X148.0661 Y-33.859300000000005 Z-11.005
(Line Move)
X147.985 Y-34.49240000000001 Z-11.005
(Line Move)
X147.8169 Y-35.10320000000001 Z-11.005
(Line Move)
X147.3649 Y-36.12140000000001 Z-11.005
(Line Move)
X145.4392 Y-39.23380000000001 Z-11.005
(Line Move)
X144.8777 Y-40.036100000000005 Z-11.005
(Line Move)
X144.2174 Y-40.795700000000004 Z-11.005
(Line Move)
X143.4959 Y-41.470400000000005 Z-11.005
(Line Move)
X142.7091 Y-42.07490000000001 Z-11.005
(Line Move)
X141.8968 Y-42.60090000000001 Z-11.005
(Line Move)
X140.193 Y-43.479200000000006 Z-11.005
(Line Move)
X138.7202 Y-44.05780000000001 Z-11.005
(Line Move)
X137.1825 Y-44.58290000000001 Z-11.005
(Line Move)
X136.1138 Y-44.86590000000001 Z-11.005
(Line Move)
X135.0064 Y-45.094100000000005 Z-11.005
(Line Move)
X133.9406 Y-45.25370000000001 Z-11.005
(Line Move)
X109.1582 Y-47.285000000000004 Z-11.005
(Line Move)
X107.1296 Y-47.529700000000005 Z-11.005
(Line Move)
X105.1122 Y-47.83550000000001 Z-11.005
(Line Move)
X103.1472 Y-48.19780000000001 Z-11.005
(Line Move)
X101.1884 Y-48.62180000000001 Z-11.005
(Line Move)
X97.2072 Y-49.65120000000001 Z-11.005
(Line Move)
X81.2445 Y-54.277800000000006 Z-11.005
(Line Move)
X77.2579 Y-55.36070000000001 Z-11.005
(Line Move)
X73.1848 Y-56.31270000000001 Z-11.005
(Line Move)
X69.0801 Y-57.10430000000001 Z-11.005
(Line Move)
X66.9669 Y-57.40930000000001 Z-11.005
(Line Move)
X64.8871 Y-57.60520000000001 Z-11.005
(Line Move)
X62.7687 Y-57.68930000000001 Z-11.005
(Line Move)
X58.5391 Y-57.641200000000005 Z-11.005
(Line Move)
X56.6928 Y-57.4969 Z-11.005
(Line Move)
X53.9182 Y-57.1484 Z-11.005
(Line Move)
X51.1539 Y-56.5557 Z-11.005
(Line Move)
X48.5368 Y-55.8549 Z-11.005
(Line Move)
X46.7739 Y-55.2511 Z-11.005
(Line Move)
X45.0087 Y-54.4724 Z-11.005
(Line Move)
X40.9507 Y-52.4166 Z-11.005
(Line Move)
X40.948 Y-52.4152 Z-11.005
(Arc Move)
G3 X27.975099999999998 Y-45.9149 I-332.05830000000003 J-646.5092
(Line Move)
G1 X27.970999999999997 Y-45.9129 Z-11.005
(Line Move)
X27.966899999999995 Y-45.9109 Z-11.005
(Arc Move)
G2 X20.890699999999995 Y-41.6099 I22.255500000000005 J44.587
(Line Move)
G1 X20.853299999999997 Y-41.5827 Z-11.005
(Line Move)
X19.032499999999995 Y-40.0018 Z-11.005
(Line Move)
X17.035199999999996 Y-37.9601 Z-11.005
(Line Move)
X15.774299999999998 Y-36.7496 Z-11.005
(Line Move)
X13.943899999999998 Y-35.2869 Z-11.005
(Line Move)
X12.767899999999997 Y-34.068 Z-11.005
(Line Move)
X-0.21570000000000122 Y-19.9305 Z-11.005
(Line Move)
X-0.9180000000000011 Y-18.9737 Z-11.005
(Line Move)
X-1.1912000000000011 Y-18.4052 Z-11.005
(Line Move)
X-1.3687000000000011 Y-17.835 Z-11.005
(Line Move)
X-1.476200000000001 Y-17.2415 Z-11.005
(Line Move)
X-1.539800000000001 Y-16.1008 Z-11.005
(Line Move)
X-1.5287 Y-1.5645 Z-11.005
(Line Move)
X-1.5249 Y-1.0679 Z-11.005
(Line Move)
X-1.3611 Y-0.2417999999999999 Z-11.005
(Line Move)
X-0.6460999999999999 Y1.0721 Z-11.005
(Line Move)
X-0.013299999999999933 Y1.0799 Z-11.005
(Arc Move)
G2 X46.7691 Y1.367199999999997 I46.782299999999765 J-3808.77
(Arc Move)
X101.3114 Y0.9766999999999938 I-2.3447910280083306e-13 J-3809.0573
(Line Move)
G1 X101.5274 Y0.9735999999999938 Z-11.005
(Arc Move)
G3 Y0.9735999999999938 I0.0031000000000034333 J0.21599999999999997
(Arc Move)
X101.681 Y1.0346999999999937 I0.0 J0.21599999999999997
(Line Leadout Move)
G1 X102.4865 Y1.8173999999999937
(Rapid Z up)
G0 Z3.
(Rapid Z up)
Z25.
(Rapid Move)
X64.1017 Y-25.810400000000005
(Rapid Z Down)
Z2.8
(Feed Z Down)
G1 Z-.78 F411.48
(Line Move)
X64.1017 Y-25.488400000000002 Z-.78 F822.96
(Arc Move)
G3 X63.7797 Y-25.810400000000005 I0.0 J-0.3219999999999992 F1645.92
(Arc Move)
X64.1017 Y-26.132400000000004 I0.3219999999999956 J0.0
(Arc Move)
X64.4237 Y-25.810400000000005 I0.0 J0.3219999999999992
(Arc Move)
X64.1017 Y-25.488400000000002 I-0.32200000000000273 J0.0
(Line Move)
G1 X64.1017 Y-24.624400000000005 Z-.78
(Arc Move)
G3 X62.9157 Y-25.810400000000005 I0.0 J-1.186
(Arc Move)
X64.1017 Y-26.996400000000005 I1.1859999999999928 J0.0
(Arc Move)
X65.2877 Y-25.810400000000005 I0.0 J1.186
(Arc Move)
X64.1017 Y-24.624400000000005 I-1.186000000000007 J0.0
(Line Move)
G1 X64.1017 Y-23.760400000000004 Z-.78
(Arc Move)
G3 X62.0517 Y-25.810400000000005 I0.0 J-2.0500000000000007
(Arc Move)
X64.1017 Y-27.860400000000002 I2.049999999999997 J0.0
(Arc Move)
X66.1517 Y-25.810400000000005 I0.0 J2.0500000000000007
(Arc Move)
X64.1017 Y-23.760400000000004 I-2.049999999999997 J0.0
(Line Move)
G1 X64.1017 Y-22.896400000000003 Z-.78
(Arc Move)
G3 X61.1877 Y-25.810400000000005 I0.0 J-2.9140000000000015
(Arc Move)
X64.1017 Y-28.724400000000003 I2.9139999999999944 J0.0
(Arc Move)
X67.0157 Y-25.810400000000005 I0.0 J2.9140000000000015
(Arc Move)
X64.1017 Y-22.896400000000003 I-2.9140000000000015 J0.0
(Line Move)
G1 X64.1017 Y-22.032400000000003 Z-.78
(Arc Move)
G3 X60.3237 Y-25.810400000000005 I0.0 J-3.7779999999999987
(Arc Move)
X64.1017 Y-29.588400000000004 I3.778000000000006 J0.0
(Arc Move)
X67.8797 Y-25.810400000000005 I0.0 J3.7779999999999987
(Arc Move)
X64.1017 Y-22.032400000000003 I-3.778000000000006 J0.0
(Line Move)
G1 X64.1017 Y-21.168400000000002 Z-.78
(Arc Move)
G3 X59.4597 Y-25.810400000000005 I0.0 J-4.6419999999999995
(Arc Move)
X64.1017 Y-30.452400000000004 I4.641999999999996 J0.0
(Arc Move)
X68.7437 Y-25.810400000000005 I0.0 J4.6419999999999995
(Arc Move)
X64.1017 Y-21.168400000000002 I-4.641999999999996 J0.0
(Line Move)
G1 X64.1017 Y-20.304400000000005 Z-.78
(Arc Move)
G3 X58.5957 Y-25.810400000000005 I0.0 J-5.506
(Arc Move)
X64.1017 Y-31.316400000000005 I5.505999999999993 J0.0
(Arc Move)
X69.6077 Y-25.810400000000005 I0.0 J5.506
(Arc Move)
X64.1017 Y-20.304400000000005 I-5.506 J0.0
(Line Move)
G1 X64.1017 Y-19.440400000000004 Z-.78
(Arc Move)
G3 X57.7317 Y-25.810400000000005 I0.0 J-6.370000000000001
(Arc Move)
X64.1017 Y-32.180400000000006 I6.369999999999997 J0.0
(Arc Move)
X70.4717 Y-25.810400000000005 I0.0 J6.3700000000000045
(Arc Move)
X64.1017 Y-19.440400000000004 I-6.3700000000000045 J0.0
(Arc Move)
X57.7317 Y-25.810400000000005 I0.0 J-6.370000000000001
(Arc Move)
X64.1017 Y-32.180400000000006 I6.369999999999997 J0.0
(Arc Move)
X70.4717 Y-25.810400000000005 I0.0 J6.3700000000000045
(Arc Move)
X64.1017 Y-19.440400000000004 I-6.3700000000000045 J0.0
(Line Move)
G1 X64.1017 Y-25.810400000000005 Z-.78
(Rapid Z up)
G0 Z2.8
(Rapid Z Down)
Z1.72
(Feed Z Down)
G1 Z-1.45 F411.48
(Line Move)
X64.1017 Y-25.488400000000002 Z-1.45 F822.96
(Arc Move)
G3 X63.7797 Y-25.810400000000005 I0.0 J-0.3219999999999992 F1645.92
(Arc Move)
X64.1017 Y-26.132400000000004 I0.3219999999999956 J0.0
(Arc Move)
X64.4237 Y-25.810400000000005 I0.0 J0.3219999999999992
(Arc Move)
X64.1017 Y-25.488400000000002 I-0.32200000000000273 J0.0
(Line Move)
G1 X64.1017 Y-24.624400000000005 Z-1.45
(Arc Move)
G3 X62.9157 Y-25.810400000000005 I0.0 J-1.186
(Arc Move)
X64.1017 Y-26.996400000000005 I1.1859999999999928 J0.0
(Arc Move)
X65.2877 Y-25.810400000000005 I0.0 J1.186
(Arc Move)
X64.1017 Y-24.624400000000005 I-1.186000000000007 J0.0
(Line Move)
G1 X64.1017 Y-23.760400000000004 Z-1.45
(Arc Move)
G3 X62.0517 Y-25.810400000000005 I0.0 J-2.0500000000000007
(Arc Move)
X64.1017 Y-27.860400000000002 I2.049999999999997 J0.0
(Arc Move)
X66.1517 Y-25.810400000000005 I0.0 J2.0500000000000007
(Arc Move)
X64.1017 Y-23.760400000000004 I-2.049999999999997 J0.0
(Line Move)
G1 X64.1017 Y-22.896400000000003 Z-1.45
(Arc Move)
G3 X61.1877 Y-25.810400000000005 I0.0 J-2.9140000000000015
(Arc Move)
X64.1017 Y-28.724400000000003 I2.9139999999999944 J0.0
(Arc Move)
X67.0157 Y-25.810400000000005 I0.0 J2.9140000000000015
(Arc Move)
X64.1017 Y-22.896400000000003 I-2.9140000000000015 J0.0
(Line Move)
G1 X64.1017 Y-22.032400000000003 Z-1.45
(Arc Move)
G3 X60.3237 Y-25.810400000000005 I0.0 J-3.7779999999999987
(Arc Move)
X64.1017 Y-29.588400000000004 I3.778000000000006 J0.0
(Arc Move)
X67.8797 Y-25.810400000000005 I0.0 J3.7779999999999987
(Arc Move)
X64.1017 Y-22.032400000000003 I-3.778000000000006 J0.0
(Line Move)
G1 X64.1017 Y-21.168400000000002 Z-1.45
(Arc Move)
G3 X59.4597 Y-25.810400000000005 I0.0 J-4.6419999999999995
(Arc Move)
X64.1017 Y-30.452400000000004 I4.641999999999996 J0.0
(Arc Move)
X68.7437 Y-25.810400000000005 I0.0 J4.6419999999999995
(Arc Move)
X64.1017 Y-21.168400000000002 I-4.641999999999996 J0.0
(Line Move)
G1 X64.1017 Y-20.304400000000005 Z-1.45
(Arc Move)
G3 X58.5957 Y-25.810400000000005 I0.0 J-5.506
(Arc Move)
X64.1017 Y-31.316400000000005 I5.505999999999993 J0.0
(Arc Move)
X69.6077 Y-25.810400000000005 I0.0 J5.506
(Arc Move)
X64.1017 Y-20.304400000000005 I-5.506 J0.0
(Line Move)
G1 X64.1017 Y-19.440400000000004 Z-1.45
(Arc Move)
G3 X57.7317 Y-25.810400000000005 I0.0 J-6.370000000000001
(Arc Move)
X64.1017 Y-32.180400000000006 I6.369999999999997 J0.0
(Arc Move)
X70.4717 Y-25.810400000000005 I0.0 J6.3700000000000045
(Arc Move)
X64.1017 Y-19.440400000000004 I-6.3700000000000045 J0.0
(Arc Move)
X57.7317 Y-25.810400000000005 I0.0 J-6.370000000000001
(Arc Move)
X64.1017 Y-32.180400000000006 I6.369999999999997 J0.0
(Arc Move)
X70.4717 Y-25.810400000000005 I0.0 J6.3700000000000045
(Arc Move)
X64.1017 Y-19.440400000000004 I-6.3700000000000045 J0.0
(Line Move)
G1 X64.1017 Y-25.810400000000005 Z-1.45
(Rapid Z up)
G0 Z2.8
(Rapid Z Down)
Z1.05
(Feed Z Down)
G1 Z-1.7 F411.48
(Line Move)
X64.1017 Y-25.488400000000002 Z-1.7 F822.96
(Arc Move)
G3 X63.7797 Y-25.810400000000005 I0.0 J-0.3219999999999992 F1645.92
(Arc Move)
X64.1017 Y-26.132400000000004 I0.3219999999999956 J0.0
(Arc Move)
X64.4237 Y-25.810400000000005 I0.0 J0.3219999999999992
(Arc Move)
X64.1017 Y-25.488400000000002 I-0.32200000000000273 J0.0
(Line Move)
G1 X64.1017 Y-24.624400000000005 Z-1.7
(Arc Move)
G3 X62.9157 Y-25.810400000000005 I0.0 J-1.186
(Arc Move)
X64.1017 Y-26.996400000000005 I1.1859999999999928 J0.0
(Arc Move)
X65.2877 Y-25.810400000000005 I0.0 J1.186
(Arc Move)
X64.1017 Y-24.624400000000005 I-1.186000000000007 J0.0
(Line Move)
G1 X64.1017 Y-23.760400000000004 Z-1.7
(Arc Move)
G3 X62.0517 Y-25.810400000000005 I0.0 J-2.0500000000000007
(Arc Move)
X64.1017 Y-27.860400000000002 I2.049999999999997 J0.0
(Arc Move)
X66.1517 Y-25.810400000000005 I0.0 J2.0500000000000007
(Arc Move)
X64.1017 Y-23.760400000000004 I-2.049999999999997 J0.0
(Line Move)
G1 X64.1017 Y-22.896400000000003 Z-1.7
(Arc Move)
G3 X61.1877 Y-25.810400000000005 I0.0 J-2.9140000000000015
(Arc Move)
X64.1017 Y-28.724400000000003 I2.9139999999999944 J0.0
(Arc Move)
X67.0157 Y-25.810400000000005 I0.0 J2.9140000000000015
(Arc Move)
X64.1017 Y-22.896400000000003 I-2.9140000000000015 J0.0
(Line Move)
G1 X64.1017 Y-22.032400000000003 Z-1.7
(Arc Move)
G3 X60.3237 Y-25.810400000000005 I0.0 J-3.7779999999999987
(Arc Move)
X64.1017 Y-29.588400000000004 I3.778000000000006 J0.0
(Arc Move)
X67.8797 Y-25.810400000000005 I0.0 J3.7779999999999987
(Arc Move)
X64.1017 Y-22.032400000000003 I-3.778000000000006 J0.0
(Line Move)
G1 X64.1017 Y-21.168400000000002 Z-1.7
(Arc Move)
G3 X59.4597 Y-25.810400000000005 I0.0 J-4.6419999999999995
(Arc Move)
X64.1017 Y-30.452400000000004 I4.641999999999996 J0.0
(Arc Move)
X68.7437 Y-25.810400000000005 I0.0 J4.6419999999999995
(Arc Move)
X64.1017 Y-21.168400000000002 I-4.641999999999996 J0.0
(Line Move)
G1 X64.1017 Y-20.304400000000005 Z-1.7
(Arc Move)
G3 X58.5957 Y-25.810400000000005 I0.0 J-5.506
(Arc Move)
X64.1017 Y-31.316400000000005 I5.505999999999993 J0.0
(Arc Move)
X69.6077 Y-25.810400000000005 I0.0 J5.506
(Arc Move)
X64.1017 Y-20.304400000000005 I-5.506 J0.0
(Line Move)
G1 X64.1017 Y-19.440400000000004 Z-1.7
(Arc Move)
G3 X57.7317 Y-25.810400000000005 I0.0 J-6.370000000000001
(Arc Move)
X64.1017 Y-32.180400000000006 I6.369999999999997 J0.0
(Arc Move)
X70.4717 Y-25.810400000000005 I0.0 J6.3700000000000045
(Arc Move)
X64.1017 Y-19.440400000000004 I-6.3700000000000045 J0.0
(Arc Move)
X57.7317 Y-25.810400000000005 I0.0 J-6.370000000000001
(Arc Move)
X64.1017 Y-32.180400000000006 I6.369999999999997 J0.0
(Arc Move)
X70.4717 Y-25.810400000000005 I0.0 J6.3700000000000045
(Arc Move)
X64.1017 Y-19.440400000000004 I-6.3700000000000045 J0.0
(Line Move)
G1 X64.1017 Y-25.810400000000005 Z-1.7
(Rapid Z up)
G0 Z2.8
(Rapid Z up)
Z25.
(Rapid Z Down)
Z3.3
(Feed Z Down)
G1 Z-.78 F411.48
(Line Leadin Move)
X62.9673 Y-31.539000000000005 F1234.44
(Line Leadin Move)
X63.7352 Y-32.358700000000006
(Arc Move)
G3 X63.8858 Y-32.42690000000001 I0.15760000000000218 J0.1477000000000004
(Arc Move)
X64.1017 Y-32.430400000000006 I0.21599999999999397 J6.616500000000006 F1645.92
(Arc Move)
X70.7217 Y-25.810400000000005 I0.0 J6.6200000000000045
(Arc Move)
X64.1017 Y-19.190400000000004 I-6.6200000000000045 J0.0
(Arc Move)
X57.4817 Y-25.810400000000005 I0.0 J-6.620000000000001
(Arc Move)
X64.1017 Y-32.430400000000006 I6.619999999999997 J0.0
(Arc Move)
X64.3177 Y-32.42690000000001 I0.0 J6.6200000000000045
(Arc Move)
X64.4683 Y-32.358700000000006 I-0.007000000000005002 J0.21589999999999776
(Line Leadout Move)
G1 X65.2362 Y-31.539000000000005
(Rapid Z up)
G0 Z3.3
(Rapid Move)
X64.1017 Y-25.810400000000005
(Rapid Z Down)
Z2.22
(Feed Z Down)
G1 Z-1.7 F411.48
(Line Leadin Move)
X62.9673 Y-31.539000000000005 F1234.44
(Line Leadin Move)
X63.7352 Y-32.358700000000006
(Arc Move)
G3 X63.8858 Y-32.42690000000001 I0.15760000000000218 J0.1477000000000004
(Arc Move)
X64.1017 Y-32.430400000000006 I0.21599999999999397 J6.616500000000006 F1645.92
(Arc Move)
X70.7217 Y-25.810400000000005 I0.0 J6.6200000000000045
(Arc Move)
X64.1017 Y-19.190400000000004 I-6.6200000000000045 J0.0
(Arc Move)
X57.4817 Y-25.810400000000005 I0.0 J-6.620000000000001
(Arc Move)
X64.1017 Y-32.430400000000006 I6.619999999999997 J0.0
(Arc Move)
X64.3177 Y-32.42690000000001 I0.0 J6.6200000000000045
(Arc Move)
X64.4683 Y-32.358700000000006 I-0.007000000000005002 J0.21589999999999776
(Line Leadout Move)
G1 X65.2362 Y-31.539000000000005
(Rapid Z up)
G0 Z3.3
(Last Rapid Z Up)
Z25. M9
(End of Tape)
G53
Z-2 
M5
G4 P1 
m8
M30
