(Start of Tape)

(Made in : UPC)
(G Code optimized for RS-CNC32 with GRBL V0.9j controller)

( PART NUMBER=1 )
( PART NAME=  )
( PROGRAMMER=  )
( OPERATION NUMBER=  )
( DATE=  )

G90 G17 G21 G80
m8
(Init Tool Change)
(6MM CRB 2FL 19 LOC)
G53
G0 Z2 
G54
S12000 M3
M8
G4 P1 
(Rapid From Tool Change)
G0 G90 X19.2153 Y-98.3178
(Rapid Z Down)
Z3.
(Feed Z Down)
G1 Z-2. F411.48
(Line Leadin Move)
X18.5580 Y-99.2285 F1234.44
(Arc Move)
G3 X.9798 Y-99.3894 I.1505 J-.1549
(Arc Move)
G2 X.9767 Y-99.6027 I-3760.2412 J-607.8675 F1645.92
(Line Move)
G1 X.9632 Y-100.5299 Z-2.
(Line Move)
X-.4414 Y-100.9475 Z-2.
(Line Move)
X16.7322 Y-101.1980 Z-2.
(Line Move)
X16.1083 Y-101.5549 Z-2.
(Line Move)
X13.7958 Y-103.8554 Z-2.
(Line Move)
X11.5994 Y-106.2265 Z-2.
(Line Move)
X9.4018 Y-108.808 Z-2.
(Line Move)
X8.3998 Y-110.1289 Z-2.
(Line Move)
X7.4646 Y-111.4569 Z-2.
(Line Move)
X6.6058 Y-112.8252 Z-2.
(Line Move)
X5.8274 Y-114.2550 Z-2.
(Line Move)
X5.1527 Y-115.7031 Z-2.
(Line Move)
X4.5567 Y-117.2007 Z-2.
(Line Move)
X3.4819 Y-120.4095 Z-2.
(Line Move)
X-18.173 Y-121.9593 Z-2.
(Line Move)
X2.7434 Y-123.4760 Z-2.
(Line Move)
X2.2410 Y-126.8631 Z-2.
(Line Move)
X1.6743 Y-130.2157 Z-2.
(Arc Move)
G2 X0.2347 Y-135.9448 I-36.3553 J6.0896
(Line Move)
G1 X-3.1080 Y-145.9321 Z-2.
(Line Move)
X-4.0210 Y-148.6233 Z-2.
(Line Move)
X-30.458 Y-149.6517 Z-2.
(Line Move)
X-4.8942 Y-150.1299 Z-2.
(Line Move)
X-5.3146 Y-150.5700 Z-2.
(Line Move)
X-5.8062 Y-150.9716 Z-2.
(Line Move)
X-6.3702 Y-151.3155 Z-2.
(Line Move)
X-6.9932 Y-151.5643 Z-2.
(Line Move)
X-7.6335 Y-151.6962 Z-2.
(Line Move)
X-8.2711 Y-147.985 Z-2.
(Line Move)
X-8.9018 Y-151.6668 Z-2.
(Line Move)
X-9.9830 Y-151.3985 Z-2.
(Line Move)
X-13.3825 Y-150.0425 Z-2.
(Line Move)
X-14.2701 Y-149.6289 Z-2.
(Line Move)
X-15.1328 Y-149.1105 Z-2.
(Line Move)
X-15.9226 Y-148.5171 Z-2.
(Line Move)
X-16.6545 Y-147.8473 Z-2.
(Line Move)
X-17.3136 Y-147.1386 Z-2.
(Line Move)
X-18.4744 Y-140.193 Z-2.
(Line Move)
X-19.3000 Y-144.2633 Z-2.
(Line Move)
X-20.0841 Y-142.8401 Z-2.
(Line Move)
X-20.5484 Y-141.8368 Z-2.
(Line Move)
X-20.9654 Y-140.7859 Z-2.
(Line Move)
X-21.3077 Y-139.7640 Z-2.
(Line Move)
X-47.285 Y-115.7108 Z-2.
(Line Move)
X-28.2048 Y-113.7555 Z-2.
(Line Move)
X-28.8562 Y-111.8219 Z-2.
(Line Move)
X-29.5542 Y-109.9496 Z-2.
(Line Move)
X-30.3119 Y-108.0942 Z-2.
(Line Move)
X-32.0170 Y-104.3522 Z-2.
(Line Move)
X-39.3452 Y-89.4355 Z-2.
(Line Move)
X-41.1040 Y-85.6975 Z-2.
(Line Move)
X-42.7488 Y-81.8516 Z-2.
(Line Move)
X-44.2411 Y-77.9467 Z-2.
(Line Move)
X-44.9084 Y-75.9185 Z-2.
(Line Move)
X-45.4625 Y-73.9044 Z-2.
(Line Move)
X-45.9132 Y-71.8327 Z-2.
(Line Move)
X-46.6003 Y-67.6590 Z-2.
(Line Move)
X-46.7788 Y-65.8157 Z-2.
(Line Move)
X-46.9174 Y-63.0228 Z-2.
(Line Move)
X-46.8137 Y-60.1976 Z-2.
(Line Move)
X-46.5780 Y-57.4985 Z-2.
(Line Move)
X-46.2895 Y-55.6576 Z-2.
(Line Move)
X-45.8292 Y-53.7839 Z-2.
(Line Move)
X-44.5093 Y-49.4306 Z-2.
(Line Move)
X-44.5083 Y-40.948 Z-2.
(Arc Move)
G3 X-40.3595 Y-35.5231 I-694.3486 J214.7484
(Line Move)
G1 X-40.3583 Y-27.971 Z-2.
(Line Move)
X-40.3570 Y-35.5144 Z-2.
(Arc Move)
G2 X-37.3501 Y-27.7988 I44.587 J-14.1749
(Line Move)
G1 X-37.3298 Y-27.7573 Z-2.
(Line Move)
X-36.0891 Y-25.6896 Z-2.
(Line Move)
X-34.4253 Y-23.3681 Z-2.
(Line Move)
X-33.4521 Y-21.9162 Z-2.
(Line Move)
X-32.3295 Y-19.8596 Z-2.
(Line Move)
X-34.068 Y-18.4898 Z-2.
(Line Move)
X-19.6652 Y.2157 Z-2.
(Line Move)
X-18.8449 Y.918 Z-2.
(Line Move)
X-18.3324 Y-2.0229 Z-2.
(Line Move)
X-17.835 Y-1.7491 Z-2.
(Line Move)
X-17.2359 Y-1.5402 Z-2.
(Line Move)
X-16.1236 Y-1.2795 Z-2.
(Line Move)
X-1.8062 Y1.2338 Z-2.
(Line Move)
X-1.3165 Y1.3163 Z-2.
(Line Move)
X-.2418 Y1.2984 Z-2.
(Line Move)
X0.9436 Y.6461 Z-2.
(Line Move)
X1.0612 Y.0133 Z-2.
(Arc Move)
G2 X9.4678 Y-45.8212 I-3808.77 J-707.4575
(Arc Move)
X.9767 Y-99.6027 I-3751.1892 J0
(Line Move)
G1 X.9736 Y-99.8159 Z-2.
(Arc Move)
G3 Y-99.8190 I.216 J-.0031
(Arc Move)
X18.6757 Y-101.681 I.216 J0
(Line Leadout Move)
G1 X19.5864 Y-100.6139
(Rapid Z up)
G0 Z3.
(Rapid Move)
X19.2153 Y-98.3178
(Rapid Z Down)
Z1.
(Feed Z Down)
G1 Z-3.801 F411.48
(Line Leadin Move)
X18.5580 Y-99.2285 F1234.44
(Arc Move)
G3 X.9798 Y-99.3894 I.1505 J-.1549
(Arc Move)
G2 X.9767 Y-99.6027 I-3760.2412 J-607.8675 F1645.92
(Line Move)
G1 X.9632 Y-100.5299 Z-3.801
(Line Move)
X-.4414 Y-100.9475 Z-3.801
(Line Move)
X16.7322 Y-101.1980 Z-3.801
(Line Move)
X16.1083 Y-101.5549 Z-3.801
(Line Move)
X13.7958 Y-103.8554 Z-3.801
(Line Move)
X11.5994 Y-106.2265 Z-3.801
(Line Move)
X9.4018 Y-108.808 Z-3.801
(Line Move)
X8.3998 Y-110.1289 Z-3.801
(Line Move)
X7.4646 Y-111.4569 Z-3.801
(Line Move)
X6.6058 Y-112.8252 Z-3.801
(Line Move)
X5.8274 Y-114.2550 Z-3.801
(Line Move)
X5.1527 Y-115.7031 Z-3.801
(Line Move)
X4.5567 Y-117.2007 Z-3.801
(Line Move)
X3.4819 Y-120.4095 Z-3.801
(Line Move)
X-18.173 Y-121.9593 Z-3.801
(Line Move)
X2.7434 Y-123.4760 Z-3.801
(Line Move)
X2.2410 Y-126.8631 Z-3.801
(Line Move)
X1.6743 Y-130.2157 Z-3.801
(Arc Move)
G2 X0.2347 Y-135.9448 I-36.3553 J6.0896
(Line Move)
G1 X-3.1080 Y-145.9321 Z-3.801
(Line Move)
X-4.0210 Y-148.6233 Z-3.801
(Line Move)
X-30.458 Y-149.6517 Z-3.801
(Line Move)
X-4.8942 Y-150.1299 Z-3.801
(Line Move)
X-5.3146 Y-150.5700 Z-3.801
(Line Move)
X-5.8062 Y-150.9716 Z-3.801
(Line Move)
X-6.3702 Y-151.3155 Z-3.801
(Line Move)
X-6.9932 Y-151.5643 Z-3.801
(Line Move)
X-7.6335 Y-151.6962 Z-3.801
(Line Move)
X-8.2711 Y-147.985 Z-3.801
(Line Move)
X-8.9018 Y-151.6668 Z-3.801
(Line Move)
X-9.9830 Y-151.3985 Z-3.801
(Line Move)
X-13.3825 Y-150.0425 Z-3.801
(Line Move)
X-14.2701 Y-149.6289 Z-3.801
(Line Move)
X-15.1328 Y-149.1105 Z-3.801
(Line Move)
X-15.9226 Y-148.5171 Z-3.801
(Line Move)
X-16.6545 Y-147.8473 Z-3.801
(Line Move)
X-17.3136 Y-147.1386 Z-3.801
(Line Move)
X-18.4744 Y-140.193 Z-3.801
(Line Move)
X-19.3000 Y-144.2633 Z-3.801
(Line Move)
X-20.0841 Y-142.8401 Z-3.801
(Line Move)
X-20.5484 Y-141.8368 Z-3.801
(Line Move)
X-20.9654 Y-140.7859 Z-3.801
(Line Move)
X-21.3077 Y-139.7640 Z-3.801
(Line Move)
X-47.285 Y-115.7108 Z-3.801
(Line Move)
X-28.2048 Y-113.7555 Z-3.801
(Line Move)
X-28.8562 Y-111.8219 Z-3.801
(Line Move)
X-29.5542 Y-109.9496 Z-3.801
(Line Move)
X-30.3119 Y-108.0942 Z-3.801
(Line Move)
X-32.0170 Y-104.3522 Z-3.801
(Line Move)
X-39.3452 Y-89.4355 Z-3.801
(Line Move)
X-41.1040 Y-85.6975 Z-3.801
(Line Move)
X-42.7488 Y-81.8516 Z-3.801
(Line Move)
X-44.2411 Y-77.9467 Z-3.801
(Line Move)
X-44.9084 Y-75.9185 Z-3.801
(Line Move)
X-45.4625 Y-73.9044 Z-3.801
(Line Move)
X-45.9132 Y-71.8327 Z-3.801
(Line Move)
X-46.6003 Y-67.6590 Z-3.801
(Line Move)
X-46.7788 Y-65.8157 Z-3.801
(Line Move)
X-46.9174 Y-63.0228 Z-3.801
(Line Move)
X-46.8137 Y-60.1976 Z-3.801
(Line Move)
X-46.5780 Y-57.4985 Z-3.801
(Line Move)
X-46.2895 Y-55.6576 Z-3.801
(Line Move)
X-45.8292 Y-53.7839 Z-3.801
(Line Move)
X-44.5093 Y-49.4306 Z-3.801
(Line Move)
X-44.5083 Y-40.948 Z-3.801
(Arc Move)
G3 X-40.3595 Y-35.5231 I-694.3486 J214.7484
(Line Move)
G1 X-40.3583 Y-27.971 Z-3.801
(Line Move)
X-40.3570 Y-35.5144 Z-3.801
(Arc Move)
G2 X-37.3501 Y-27.7988 I44.587 J-14.1749
(Line Move)
G1 X-37.3298 Y-27.7573 Z-3.801
(Line Move)
X-36.0891 Y-25.6896 Z-3.801
(Line Move)
X-34.4253 Y-23.3681 Z-3.801
(Line Move)
X-33.4521 Y-21.9162 Z-3.801
(Line Move)
X-32.3295 Y-19.8596 Z-3.801
(Line Move)
X-34.068 Y-18.4898 Z-3.801
(Line Move)
X-19.6652 Y.2157 Z-3.801
(Line Move)
X-18.8449 Y.918 Z-3.801
(Line Move)
X-18.3324 Y-2.0229 Z-3.801
(Line Move)
X-17.835 Y-1.7491 Z-3.801
(Line Move)
X-17.2359 Y-1.5402 Z-3.801
(Line Move)
X-16.1236 Y-1.2795 Z-3.801
(Line Move)
X-1.8062 Y1.2338 Z-3.801
(Line Move)
X-1.3165 Y1.3163 Z-3.801
(Line Move)
X-.2418 Y1.2984 Z-3.801
(Line Move)
X0.9436 Y.6461 Z-3.801
(Line Move)
X1.0612 Y.0133 Z-3.801
(Arc Move)
G2 X9.4678 Y-45.8212 I-3808.77 J-707.4575
(Arc Move)
X.9767 Y-99.6027 I-3751.1892 J0
(Line Move)
G1 X.9736 Y-99.8159 Z-3.801
(Arc Move)
G3 Y-99.8190 I.216 J-.0031
(Arc Move)
X18.6757 Y-101.681 I.216 J0
(Line Leadout Move)
G1 X19.5864 Y-100.6139
(Rapid Z up)
G0 Z3.
(Rapid Move)
X19.2153 Y-98.3178
(Rapid Z Down)
Z-.801
(Feed Z Down)
G1 Z-5.602 F411.48
(Line Leadin Move)
X18.5580 Y-99.2285 F1234.44
(Arc Move)
G3 X.9798 Y-99.3894 I.1505 J-.1549
(Arc Move)
G2 X.9767 Y-99.6027 I-3760.2412 J-607.8675 F1645.92
(Line Move)
G1 X.9632 Y-100.5299 Z-5.602
(Line Move)
X-.4414 Y-100.9475 Z-5.602
(Line Move)
X16.7322 Y-101.1980 Z-5.602
(Line Move)
X16.1083 Y-101.5549 Z-5.602
(Line Move)
X13.7958 Y-103.8554 Z-5.602
(Line Move)
X11.5994 Y-106.2265 Z-5.602
(Line Move)
X9.4018 Y-108.808 Z-5.602
(Line Move)
X8.3998 Y-110.1289 Z-5.602
(Line Move)
X7.4646 Y-111.4569 Z-5.602
(Line Move)
X6.6058 Y-112.8252 Z-5.602
(Line Move)
X5.8274 Y-114.2550 Z-5.602
(Line Move)
X5.1527 Y-115.7031 Z-5.602
(Line Move)
X4.5567 Y-117.2007 Z-5.602
(Line Move)
X3.4819 Y-120.4095 Z-5.602
(Line Move)
X-18.173 Y-121.9593 Z-5.602
(Line Move)
X2.7434 Y-123.4760 Z-5.602
(Line Move)
X2.2410 Y-126.8631 Z-5.602
(Line Move)
X1.6743 Y-130.2157 Z-5.602
(Arc Move)
G2 X0.2347 Y-135.9448 I-36.3553 J6.0896
(Line Move)
G1 X-3.1080 Y-145.9321 Z-5.602
(Line Move)
X-4.0210 Y-148.6233 Z-5.602
(Line Move)
X-30.458 Y-149.6517 Z-5.602
(Line Move)
X-4.8942 Y-150.1299 Z-5.602
(Line Move)
X-5.3146 Y-150.5700 Z-5.602
(Line Move)
X-5.8062 Y-150.9716 Z-5.602
(Line Move)
X-6.3702 Y-151.3155 Z-5.602
(Line Move)
X-6.9932 Y-151.5643 Z-5.602
(Line Move)
X-7.6335 Y-151.6962 Z-5.602
(Line Move)
X-8.2711 Y-147.985 Z-5.602
(Line Move)
X-8.9018 Y-151.6668 Z-5.602
(Line Move)
X-9.9830 Y-151.3985 Z-5.602
(Line Move)
X-13.3825 Y-150.0425 Z-5.602
(Line Move)
X-14.2701 Y-149.6289 Z-5.602
(Line Move)
X-15.1328 Y-149.1105 Z-5.602
(Line Move)
X-15.9226 Y-148.5171 Z-5.602
(Line Move)
X-16.6545 Y-147.8473 Z-5.602
(Line Move)
X-17.3136 Y-147.1386 Z-5.602
(Line Move)
X-18.4744 Y-140.193 Z-5.602
(Line Move)
X-19.3000 Y-144.2633 Z-5.602
(Line Move)
X-20.0841 Y-142.8401 Z-5.602
(Line Move)
X-20.5484 Y-141.8368 Z-5.602
(Line Move)
X-20.9654 Y-140.7859 Z-5.602
(Line Move)
X-21.3077 Y-139.7640 Z-5.602
(Line Move)
X-47.285 Y-115.7108 Z-5.602
(Line Move)
X-28.2048 Y-113.7555 Z-5.602
(Line Move)
X-28.8562 Y-111.8219 Z-5.602
(Line Move)
X-29.5542 Y-109.9496 Z-5.602
(Line Move)
X-30.3119 Y-108.0942 Z-5.602
(Line Move)
X-32.0170 Y-104.3522 Z-5.602
(Line Move)
X-39.3452 Y-89.4355 Z-5.602
(Line Move)
X-41.1040 Y-85.6975 Z-5.602
(Line Move)
X-42.7488 Y-81.8516 Z-5.602
(Line Move)
X-44.2411 Y-77.9467 Z-5.602
(Line Move)
X-44.9084 Y-75.9185 Z-5.602
(Line Move)
X-45.4625 Y-73.9044 Z-5.602
(Line Move)
X-45.9132 Y-71.8327 Z-5.602
(Line Move)
X-46.6003 Y-67.6590 Z-5.602
(Line Move)
X-46.7788 Y-65.8157 Z-5.602
(Line Move)
X-46.9174 Y-63.0228 Z-5.602
(Line Move)
X-46.8137 Y-60.1976 Z-5.602
(Line Move)
X-46.5780 Y-57.4985 Z-5.602
(Line Move)
X-46.2895 Y-55.6576 Z-5.602
(Line Move)
X-45.8292 Y-53.7839 Z-5.602
(Line Move)
X-44.5093 Y-49.4306 Z-5.602
(Line Move)
X-44.5083 Y-40.948 Z-5.602
(Arc Move)
G3 X-40.3595 Y-35.5231 I-694.3486 J214.7484
(Line Move)
G1 X-40.3583 Y-27.971 Z-5.602
(Line Move)
X-40.3570 Y-35.5144 Z-5.602
(Arc Move)
G2 X-37.3501 Y-27.7988 I44.587 J-14.1749
(Line Move)
G1 X-37.3298 Y-27.7573 Z-5.602
(Line Move)
X-36.0891 Y-25.6896 Z-5.602
(Line Move)
X-34.4253 Y-23.3681 Z-5.602
(Line Move)
X-33.4521 Y-21.9162 Z-5.602
(Line Move)
X-32.3295 Y-19.8596 Z-5.602
(Line Move)
X-34.068 Y-18.4898 Z-5.602
(Line Move)
X-19.6652 Y.2157 Z-5.602
(Line Move)
X-18.8449 Y.918 Z-5.602
(Line Move)
X-18.3324 Y-2.0229 Z-5.602
(Line Move)
X-17.835 Y-1.7491 Z-5.602
(Line Move)
X-17.2359 Y-1.5402 Z-5.602
(Line Move)
X-16.1236 Y-1.2795 Z-5.602
(Line Move)
X-1.8062 Y1.2338 Z-5.602
(Line Move)
X-1.3165 Y1.3163 Z-5.602
(Line Move)
X-.2418 Y1.2984 Z-5.602
(Line Move)
X0.9436 Y.6461 Z-5.602
(Line Move)
X1.0612 Y.0133 Z-5.602
(Arc Move)
G2 X9.4678 Y-45.8212 I-3808.77 J-707.4575
(Arc Move)
X.9767 Y-99.6027 I-3751.1892 J0
(Line Move)
G1 X.9736 Y-99.8159 Z-5.602
(Arc Move)
G3 Y-99.8190 I.216 J-.0031
(Arc Move)
X18.6757 Y-101.681 I.216 J0
(Line Leadout Move)
G1 X19.5864 Y-100.6139
(Rapid Z up)
G0 Z3.
(Rapid Move)
X19.2153 Y-98.3178
(Rapid Z Down)
Z-2.602
(Feed Z Down)
G1 Z-7.403 F411.48
(Line Leadin Move)
X18.5580 Y-99.2285 F1234.44
(Arc Move)
G3 X.9798 Y-99.3894 I.1505 J-.1549
(Arc Move)
G2 X.9767 Y-99.6027 I-3760.2412 J-607.8675 F1645.92
(Line Move)
G1 X.9632 Y-100.5299 Z-7.403
(Line Move)
X-.4414 Y-100.9475 Z-7.403
(Line Move)
X16.7322 Y-101.1980 Z-7.403
(Line Move)
X16.1083 Y-101.5549 Z-7.403
(Line Move)
X13.7958 Y-103.8554 Z-7.403
(Line Move)
X11.5994 Y-106.2265 Z-7.403
(Line Move)
X9.4018 Y-108.808 Z-7.403
(Line Move)
X8.3998 Y-110.1289 Z-7.403
(Line Move)
X7.4646 Y-111.4569 Z-7.403
(Line Move)
X6.6058 Y-112.8252 Z-7.403
(Line Move)
X5.8274 Y-114.2550 Z-7.403
(Line Move)
X5.1527 Y-115.7031 Z-7.403
(Line Move)
X4.5567 Y-117.2007 Z-7.403
(Line Move)
X3.4819 Y-120.4095 Z-7.403
(Line Move)
X-18.173 Y-121.9593 Z-7.403
(Line Move)
X2.7434 Y-123.4760 Z-7.403
(Line Move)
X2.2410 Y-126.8631 Z-7.403
(Line Move)
X1.6743 Y-130.2157 Z-7.403
(Arc Move)
G2 X0.2347 Y-135.9448 I-36.3553 J6.0896
(Line Move)
G1 X-3.1080 Y-145.9321 Z-7.403
(Line Move)
X-4.0210 Y-148.6233 Z-7.403
(Line Move)
X-30.458 Y-149.6517 Z-7.403
(Line Move)
X-4.8942 Y-150.1299 Z-7.403
(Line Move)
X-5.3146 Y-150.5700 Z-7.403
(Line Move)
X-5.8062 Y-150.9716 Z-7.403
(Line Move)
X-6.3702 Y-151.3155 Z-7.403
(Line Move)
X-6.9932 Y-151.5643 Z-7.403
(Line Move)
X-7.6335 Y-151.6962 Z-7.403
(Line Move)
X-8.2711 Y-147.985 Z-7.403
(Line Move)
X-8.9018 Y-151.6668 Z-7.403
(Line Move)
X-9.9830 Y-151.3985 Z-7.403
(Line Move)
X-13.3825 Y-150.0425 Z-7.403
(Line Move)
X-14.2701 Y-149.6289 Z-7.403
(Line Move)
X-15.1328 Y-149.1105 Z-7.403
(Line Move)
X-15.9226 Y-148.5171 Z-7.403
(Line Move)
X-16.6545 Y-147.8473 Z-7.403
(Line Move)
X-17.3136 Y-147.1386 Z-7.403
(Line Move)
X-18.4744 Y-140.193 Z-7.403
(Line Move)
X-19.3000 Y-144.2633 Z-7.403
(Line Move)
X-20.0841 Y-142.8401 Z-7.403
(Line Move)
X-20.5484 Y-141.8368 Z-7.403
(Line Move)
X-20.9654 Y-140.7859 Z-7.403
(Line Move)
X-21.3077 Y-139.7640 Z-7.403
(Line Move)
X-47.285 Y-115.7108 Z-7.403
(Line Move)
X-28.2048 Y-113.7555 Z-7.403
(Line Move)
X-28.8562 Y-111.8219 Z-7.403
(Line Move)
X-29.5542 Y-109.9496 Z-7.403
(Line Move)
X-30.3119 Y-108.0942 Z-7.403
(Line Move)
X-32.0170 Y-104.3522 Z-7.403
(Line Move)
X-39.3452 Y-89.4355 Z-7.403
(Line Move)
X-41.1040 Y-85.6975 Z-7.403
(Line Move)
X-42.7488 Y-81.8516 Z-7.403
(Line Move)
X-44.2411 Y-77.9467 Z-7.403
(Line Move)
X-44.9084 Y-75.9185 Z-7.403
(Line Move)
X-45.4625 Y-73.9044 Z-7.403
(Line Move)
X-45.9132 Y-71.8327 Z-7.403
(Line Move)
X-46.6003 Y-67.6590 Z-7.403
(Line Move)
X-46.7788 Y-65.8157 Z-7.403
(Line Move)
X-46.9174 Y-63.0228 Z-7.403
(Line Move)
X-46.8137 Y-60.1976 Z-7.403
(Line Move)
X-46.5780 Y-57.4985 Z-7.403
(Line Move)
X-46.2895 Y-55.6576 Z-7.403
(Line Move)
X-45.8292 Y-53.7839 Z-7.403
(Line Move)
X-44.5093 Y-49.4306 Z-7.403
(Line Move)
X-44.5083 Y-40.948 Z-7.403
(Arc Move)
G3 X-40.3595 Y-35.5231 I-694.3486 J214.7484
(Line Move)
G1 X-40.3583 Y-27.971 Z-7.403
(Line Move)
X-40.3570 Y-35.5144 Z-7.403
(Arc Move)
G2 X-37.3501 Y-27.7988 I44.587 J-14.1749
(Line Move)
G1 X-37.3298 Y-27.7573 Z-7.403
(Line Move)
X-36.0891 Y-25.6896 Z-7.403
(Line Move)
X-34.4253 Y-23.3681 Z-7.403
(Line Move)
X-33.4521 Y-21.9162 Z-7.403
(Line Move)
X-32.3295 Y-19.8596 Z-7.403
(Line Move)
X-34.068 Y-18.4898 Z-7.403
(Line Move)
X-19.6652 Y.2157 Z-7.403
(Line Move)
X-18.8449 Y.918 Z-7.403
(Line Move)
X-18.3324 Y-2.0229 Z-7.403
(Line Move)
X-17.835 Y-1.7491 Z-7.403
(Line Move)
X-17.2359 Y-1.5402 Z-7.403
(Line Move)
X-16.1236 Y-1.2795 Z-7.403
(Line Move)
X-1.8062 Y1.2338 Z-7.403
(Line Move)
X-1.3165 Y1.3163 Z-7.403
(Line Move)
X-.2418 Y1.2984 Z-7.403
(Line Move)
X0.9436 Y.6461 Z-7.403
(Line Move)
X1.0612 Y.0133 Z-7.403
(Arc Move)
G2 X9.4678 Y-45.8212 I-3808.77 J-707.4575
(Arc Move)
X.9767 Y-99.6027 I-3751.1892 J0
(Line Move)
G1 X.9736 Y-99.8159 Z-7.403
(Arc Move)
G3 Y-99.8190 I.216 J-.0031
(Arc Move)
X18.6757 Y-101.681 I.216 J0
(Line Leadout Move)
G1 X19.5864 Y-100.6139
(Rapid Z up)
G0 Z3.
(Rapid Move)
X19.2153 Y-98.3178
(Rapid Z Down)
Z-4.403
(Feed Z Down)
G1 Z-9.204 F411.48
(Line Leadin Move)
X18.5580 Y-99.2285 F1234.44
(Arc Move)
G3 X.9798 Y-99.3894 I.1505 J-.1549
(Arc Move)
G2 X.9767 Y-99.6027 I-3760.2412 J-607.8675 F1645.92
(Line Move)
G1 X.9632 Y-100.5299 Z-9.204
(Line Move)
X-.4414 Y-100.9475 Z-9.204
(Line Move)
X16.7322 Y-101.1980 Z-9.204
(Line Move)
X16.1083 Y-101.5549 Z-9.204
(Line Move)
X13.7958 Y-103.8554 Z-9.204
(Line Move)
X11.5994 Y-106.2265 Z-9.204
(Line Move)
X9.4018 Y-108.808 Z-9.204
(Line Move)
X8.3998 Y-110.1289 Z-9.204
(Line Move)
X7.4646 Y-111.4569 Z-9.204
(Line Move)
X6.6058 Y-112.8252 Z-9.204
(Line Move)
X5.8274 Y-114.2550 Z-9.204
(Line Move)
X5.1527 Y-115.7031 Z-9.204
(Line Move)
X4.5567 Y-117.2007 Z-9.204
(Line Move)
X3.4819 Y-120.4095 Z-9.204
(Line Move)
X-18.173 Y-121.9593 Z-9.204
(Line Move)
X2.7434 Y-123.4760 Z-9.204
(Line Move)
X2.2410 Y-126.8631 Z-9.204
(Line Move)
X1.6743 Y-130.2157 Z-9.204
(Arc Move)
G2 X0.2347 Y-135.9448 I-36.3553 J6.0896
(Line Move)
G1 X-3.1080 Y-145.9321 Z-9.204
(Line Move)
X-4.0210 Y-148.6233 Z-9.204
(Line Move)
X-30.458 Y-149.6517 Z-9.204
(Line Move)
X-4.8942 Y-150.1299 Z-9.204
(Line Move)
X-5.3146 Y-150.5700 Z-9.204
(Line Move)
X-5.8062 Y-150.9716 Z-9.204
(Line Move)
X-6.3702 Y-151.3155 Z-9.204
(Line Move)
X-6.9932 Y-151.5643 Z-9.204
(Line Move)
X-7.6335 Y-151.6962 Z-9.204
(Line Move)
X-8.2711 Y-147.985 Z-9.204
(Line Move)
X-8.9018 Y-151.6668 Z-9.204
(Line Move)
X-9.9830 Y-151.3985 Z-9.204
(Line Move)
X-13.3825 Y-150.0425 Z-9.204
(Line Move)
X-14.2701 Y-149.6289 Z-9.204
(Line Move)
X-15.1328 Y-149.1105 Z-9.204
(Line Move)
X-15.9226 Y-148.5171 Z-9.204
(Line Move)
X-16.6545 Y-147.8473 Z-9.204
(Line Move)
X-17.3136 Y-147.1386 Z-9.204
(Line Move)
X-18.4744 Y-140.193 Z-9.204
(Line Move)
X-19.3000 Y-144.2633 Z-9.204
(Line Move)
X-20.0841 Y-142.8401 Z-9.204
(Line Move)
X-20.5484 Y-141.8368 Z-9.204
(Line Move)
X-20.9654 Y-140.7859 Z-9.204
(Line Move)
X-21.3077 Y-139.7640 Z-9.204
(Line Move)
X-47.285 Y-115.7108 Z-9.204
(Line Move)
X-28.2048 Y-113.7555 Z-9.204
(Line Move)
X-28.8562 Y-111.8219 Z-9.204
(Line Move)
X-29.5542 Y-109.9496 Z-9.204
(Line Move)
X-30.3119 Y-108.0942 Z-9.204
(Line Move)
X-32.0170 Y-104.3522 Z-9.204
(Line Move)
X-39.3452 Y-89.4355 Z-9.204
(Line Move)
X-41.1040 Y-85.6975 Z-9.204
(Line Move)
X-42.7488 Y-81.8516 Z-9.204
(Line Move)
X-44.2411 Y-77.9467 Z-9.204
(Line Move)
X-44.9084 Y-75.9185 Z-9.204
(Line Move)
X-45.4625 Y-73.9044 Z-9.204
(Line Move)
X-45.9132 Y-71.8327 Z-9.204
(Line Move)
X-46.6003 Y-67.6590 Z-9.204
(Line Move)
X-46.7788 Y-65.8157 Z-9.204
(Line Move)
X-46.9174 Y-63.0228 Z-9.204
(Line Move)
X-46.8137 Y-60.1976 Z-9.204
(Line Move)
X-46.5780 Y-57.4985 Z-9.204
(Line Move)
X-46.2895 Y-55.6576 Z-9.204
(Line Move)
X-45.8292 Y-53.7839 Z-9.204
(Line Move)
X-44.5093 Y-49.4306 Z-9.204
(Line Move)
X-44.5083 Y-40.948 Z-9.204
(Arc Move)
G3 X-40.3595 Y-35.5231 I-694.3486 J214.7484
(Line Move)
G1 X-40.3583 Y-27.971 Z-9.204
(Line Move)
X-40.3570 Y-35.5144 Z-9.204
(Arc Move)
G2 X-37.3501 Y-27.7988 I44.587 J-14.1749
(Line Move)
G1 X-37.3298 Y-27.7573 Z-9.204
(Line Move)
X-36.0891 Y-25.6896 Z-9.204
(Line Move)
X-34.4253 Y-23.3681 Z-9.204
(Line Move)
X-33.4521 Y-21.9162 Z-9.204
(Line Move)
X-32.3295 Y-19.8596 Z-9.204
(Line Move)
X-34.068 Y-18.4898 Z-9.204
(Line Move)
X-19.6652 Y.2157 Z-9.204
(Line Move)
X-18.8449 Y.918 Z-9.204
(Line Move)
X-18.3324 Y-2.0229 Z-9.204
(Line Move)
X-17.835 Y-1.7491 Z-9.204
(Line Move)
X-17.2359 Y-1.5402 Z-9.204
(Line Move)
X-16.1236 Y-1.2795 Z-9.204
(Line Move)
X-1.8062 Y1.2338 Z-9.204
(Line Move)
X-1.3165 Y1.3163 Z-9.204
(Line Move)
X-.2418 Y1.2984 Z-9.204
(Line Move)
X0.9436 Y.6461 Z-9.204
(Line Move)
X1.0612 Y.0133 Z-9.204
(Arc Move)
G2 X9.4678 Y-45.8212 I-3808.77 J-707.4575
(Arc Move)
X.9767 Y-99.6027 I-3751.1892 J0
(Line Move)
G1 X.9736 Y-99.8159 Z-9.204
(Arc Move)
G3 Y-99.8190 I.216 J-.0031
(Arc Move)
X18.6757 Y-101.681 I.216 J0
(Line Leadout Move)
G1 X19.5864 Y-100.6139
(Rapid Z up)
G0 Z3.
(Rapid Move)
X19.2153 Y-98.3178
(Rapid Z Down)
Z-6.204
(Feed Z Down)
G1 Z-11.005 F411.48
(Line Leadin Move)
X18.5580 Y-99.2285 F1234.44
(Arc Move)
G3 X.9798 Y-99.3894 I.1505 J-.1549
(Arc Move)
G2 X.9767 Y-99.6027 I-3760.2412 J-607.8675 F1645.92
(Line Move)
G1 X.9632 Y-100.5299 Z-11.005
(Line Move)
X-.4414 Y-100.9475 Z-11.005
(Line Move)
X16.7322 Y-101.1980 Z-11.005
(Line Move)
X16.1083 Y-101.5549 Z-11.005
(Line Move)
X13.7958 Y-103.8554 Z-11.005
(Line Move)
X11.5994 Y-106.2265 Z-11.005
(Line Move)
X9.4018 Y-108.808 Z-11.005
(Line Move)
X8.3998 Y-110.1289 Z-11.005
(Line Move)
X7.4646 Y-111.4569 Z-11.005
(Line Move)
X6.6058 Y-112.8252 Z-11.005
(Line Move)
X5.8274 Y-114.2550 Z-11.005
(Line Move)
X5.1527 Y-115.7031 Z-11.005
(Line Move)
X4.5567 Y-117.2007 Z-11.005
(Line Move)
X3.4819 Y-120.4095 Z-11.005
(Line Move)
X-18.173 Y-121.9593 Z-11.005
(Line Move)
X2.7434 Y-123.4760 Z-11.005
(Line Move)
X2.2410 Y-126.8631 Z-11.005
(Line Move)
X1.6743 Y-130.2157 Z-11.005
(Arc Move)
G2 X0.2347 Y-135.9448 I-36.3553 J6.0896
(Line Move)
G1 X-3.1080 Y-145.9321 Z-11.005
(Line Move)
X-4.0210 Y-148.6233 Z-11.005
(Line Move)
X-30.458 Y-149.6517 Z-11.005
(Line Move)
X-4.8942 Y-150.1299 Z-11.005
(Line Move)
X-5.3146 Y-150.5700 Z-11.005
(Line Move)
X-5.8062 Y-150.9716 Z-11.005
(Line Move)
X-6.3702 Y-151.3155 Z-11.005
(Line Move)
X-6.9932 Y-151.5643 Z-11.005
(Line Move)
X-7.6335 Y-151.6962 Z-11.005
(Line Move)
X-8.2711 Y-147.985 Z-11.005
(Line Move)
X-8.9018 Y-151.6668 Z-11.005
(Line Move)
X-9.9830 Y-151.3985 Z-11.005
(Line Move)
X-13.3825 Y-150.0425 Z-11.005
(Line Move)
X-14.2701 Y-149.6289 Z-11.005
(Line Move)
X-15.1328 Y-149.1105 Z-11.005
(Line Move)
X-15.9226 Y-148.5171 Z-11.005
(Line Move)
X-16.6545 Y-147.8473 Z-11.005
(Line Move)
X-17.3136 Y-147.1386 Z-11.005
(Line Move)
X-18.4744 Y-140.193 Z-11.005
(Line Move)
X-19.3000 Y-144.2633 Z-11.005
(Line Move)
X-20.0841 Y-142.8401 Z-11.005
(Line Move)
X-20.5484 Y-141.8368 Z-11.005
(Line Move)
X-20.9654 Y-140.7859 Z-11.005
(Line Move)
X-21.3077 Y-139.7640 Z-11.005
(Line Move)
X-47.285 Y-115.7108 Z-11.005
(Line Move)
X-28.2048 Y-113.7555 Z-11.005
(Line Move)
X-28.8562 Y-111.8219 Z-11.005
(Line Move)
X-29.5542 Y-109.9496 Z-11.005
(Line Move)
X-30.3119 Y-108.0942 Z-11.005
(Line Move)
X-32.0170 Y-104.3522 Z-11.005
(Line Move)
X-39.3452 Y-89.4355 Z-11.005
(Line Move)
X-41.1040 Y-85.6975 Z-11.005
(Line Move)
X-42.7488 Y-81.8516 Z-11.005
(Line Move)
X-44.2411 Y-77.9467 Z-11.005
(Line Move)
X-44.9084 Y-75.9185 Z-11.005
(Line Move)
X-45.4625 Y-73.9044 Z-11.005
(Line Move)
X-45.9132 Y-71.8327 Z-11.005
(Line Move)
X-46.6003 Y-67.6590 Z-11.005
(Line Move)
X-46.7788 Y-65.8157 Z-11.005
(Line Move)
X-46.9174 Y-63.0228 Z-11.005
(Line Move)
X-46.8137 Y-60.1976 Z-11.005
(Line Move)
X-46.5780 Y-57.4985 Z-11.005
(Line Move)
X-46.2895 Y-55.6576 Z-11.005
(Line Move)
X-45.8292 Y-53.7839 Z-11.005
(Line Move)
X-44.5093 Y-49.4306 Z-11.005
(Line Move)
X-44.5083 Y-40.948 Z-11.005
(Arc Move)
G3 X-40.3595 Y-35.5231 I-694.3486 J214.7484
(Line Move)
G1 X-40.3583 Y-27.971 Z-11.005
(Line Move)
X-40.3570 Y-35.5144 Z-11.005
(Arc Move)
G2 X-37.3501 Y-27.7988 I44.587 J-14.1749
(Line Move)
G1 X-37.3298 Y-27.7573 Z-11.005
(Line Move)
X-36.0891 Y-25.6896 Z-11.005
(Line Move)
X-34.4253 Y-23.3681 Z-11.005
(Line Move)
X-33.4521 Y-21.9162 Z-11.005
(Line Move)
X-32.3295 Y-19.8596 Z-11.005
(Line Move)
X-34.068 Y-18.4898 Z-11.005
(Line Move)
X-19.6652 Y.2157 Z-11.005
(Line Move)
X-18.8449 Y.918 Z-11.005
(Line Move)
X-18.3324 Y-2.0229 Z-11.005
(Line Move)
X-17.835 Y-1.7491 Z-11.005
(Line Move)
X-17.2359 Y-1.5402 Z-11.005
(Line Move)
X-16.1236 Y-1.2795 Z-11.005
(Line Move)
X-1.8062 Y1.2338 Z-11.005
(Line Move)
X-1.3165 Y1.3163 Z-11.005
(Line Move)
X-.2418 Y1.2984 Z-11.005
(Line Move)
X0.9436 Y.6461 Z-11.005
(Line Move)
X1.0612 Y.0133 Z-11.005
(Arc Move)
G2 X9.4678 Y-45.8212 I-3808.77 J-707.4575
(Arc Move)
X.9767 Y-99.6027 I-3751.1892 J0
(Line Move)
G1 X.9736 Y-99.8159 Z-11.005
(Arc Move)
G3 Y-99.8190 I.216 J-.0031
(Arc Move)
X18.6757 Y-101.681 I.216 J0
(Line Leadout Move)
G1 X19.5864 Y-100.6139
(Rapid Z up)
G0 Z3.
(Rapid Z up)
Z25.
(Rapid Move)
X-14.2871 Y-67.6098
(Rapid Z Down)
Z2.8
(Feed Z Down)
G1 Z-.78 F411.48
(Line Move)
X-13.9700 Y-67.5539 Z-.78 F822.96
(Arc Move)
G3 X-14.3431 Y-67.2927 I-.322 J0 F1645.92
(Arc Move)
X-14.6042 Y-67.6657 I0 J-.322
(Arc Move)
X-14.2312 Y-67.9269 I.322 J0
(Arc Move)
X-13.9700 Y-67.5539 I0 J.322
(Line Move)
G1 X-13.1192 Y-67.4038 Z-.78
(Arc Move)
G3 X-14.4931 Y-66.4418 I-1.186 J0
(Arc Move)
X-15.4551 Y-67.8157 I0 J-1.186
(Arc Move)
X-14.0812 Y-68.7778 I1.186 J0
(Arc Move)
X-13.1192 Y-67.4038 I0 J1.186
(Line Move)
G1 X-12.2683 Y-67.2538 Z-.78
(Arc Move)
G3 X-14.6431 Y-65.5909 I-2.05 J0
(Arc Move)
X-16.3060 Y-67.9658 I0 J-2.05
(Arc Move)
X-13.9312 Y-69.6286 I2.05 J0
(Arc Move)
X-12.2683 Y-67.2538 I0 J2.05
(Line Move)
G1 X-11.4174 Y-67.1038 Z-.78
(Arc Move)
G3 X-14.7931 Y-64.7401 I-2.914 J0
(Arc Move)
X-17.1569 Y-68.1158 I0 J-2.914
(Arc Move)
X-13.7811 Y-70.4795 I2.914 J0
(Arc Move)
X-11.4174 Y-67.1038 I0 J2.914
(Line Move)
G1 X-10.5665 Y-66.9537 Z-.78
(Arc Move)
G3 X-14.9432 Y-63.8892 I-3.778 J0
(Arc Move)
X-18.0077 Y-68.2658 I0 J-3.778
(Arc Move)
X-13.6311 Y-71.3304 I3.778 J0
(Arc Move)
X-10.5665 Y-66.9537 I0 J3.778
(Line Move)
G1 X-9.7157 Y-66.8037 Z-.78
(Arc Move)
G3 X-15.0932 Y-63.0383 I-4.642 J0
(Arc Move)
X-18.8586 Y-68.4159 I0 J-4.642
(Arc Move)
X-13.4811 Y-72.1813 I4.642 J0
(Arc Move)
X-9.7157 Y-66.8037 I0 J4.642
(Line Move)
G1 X-8.8648 Y-66.6537 Z-.78
(Arc Move)
G3 X-15.2432 Y-62.1874 I-5.506 J0
(Arc Move)
X-19.7095 Y-68.5659 I0 J-5.506
(Arc Move)
X-13.3310 Y-73.0321 I5.506 J0
(Arc Move)
X-8.8648 Y-66.6537 I0 J5.506
(Line Move)
G1 X-8.0139 Y-66.5036 Z-.78
(Arc Move)
G3 X-15.3933 Y-61.3366 I-6.37 J0
(Arc Move)
X-20.5604 Y-68.7159 I0 J-6.37
(Arc Move)
X-13.1810 Y-73.8830 I6.37 J0
(Arc Move)
X-8.0139 Y-66.5036 I0 J6.37
(Arc Move)
X-15.3933 Y-61.3366 I-6.37 J0
(Arc Move)
X-20.5604 Y-68.7159 I0 J-6.37
(Arc Move)
X-13.1810 Y-73.8830 I6.37 J0
(Arc Move)
X-8.0139 Y-66.5036 I0 J6.37
(Line Move)
G1 X-14.2871 Y-67.6098 Z-.78
(Rapid Z up)
G0 Z2.8
(Rapid Z Down)
Z1.72
(Feed Z Down)
G1 Z-1.45 F411.48
(Line Move)
X-13.9700 Y-67.5539 Z-1.45 F822.96
(Arc Move)
G3 X-14.3431 Y-67.2927 I-.322 J0 F1645.92
(Arc Move)
X-14.6042 Y-67.6657 I0 J-.322
(Arc Move)
X-14.2312 Y-67.9269 I.322 J0
(Arc Move)
X-13.9700 Y-67.5539 I0 J.322
(Line Move)
G1 X-13.1192 Y-67.4038 Z-1.45
(Arc Move)
G3 X-14.4931 Y-66.4418 I-1.186 J0
(Arc Move)
X-15.4551 Y-67.8157 I0 J-1.186
(Arc Move)
X-14.0812 Y-68.7778 I1.186 J0
(Arc Move)
X-13.1192 Y-67.4038 I0 J1.186
(Line Move)
G1 X-12.2683 Y-67.2538 Z-1.45
(Arc Move)
G3 X-14.6431 Y-65.5909 I-2.05 J0
(Arc Move)
X-16.3060 Y-67.9658 I0 J-2.05
(Arc Move)
X-13.9312 Y-69.6286 I2.05 J0
(Arc Move)
X-12.2683 Y-67.2538 I0 J2.05
(Line Move)
G1 X-11.4174 Y-67.1038 Z-1.45
(Arc Move)
G3 X-14.7931 Y-64.7401 I-2.914 J0
(Arc Move)
X-17.1569 Y-68.1158 I0 J-2.914
(Arc Move)
X-13.7811 Y-70.4795 I2.914 J0
(Arc Move)
X-11.4174 Y-67.1038 I0 J2.914
(Line Move)
G1 X-10.5665 Y-66.9537 Z-1.45
(Arc Move)
G3 X-14.9432 Y-63.8892 I-3.778 J0
(Arc Move)
X-18.0077 Y-68.2658 I0 J-3.778
(Arc Move)
X-13.6311 Y-71.3304 I3.778 J0
(Arc Move)
X-10.5665 Y-66.9537 I0 J3.778
(Line Move)
G1 X-9.7157 Y-66.8037 Z-1.45
(Arc Move)
G3 X-15.0932 Y-63.0383 I-4.642 J0
(Arc Move)
X-18.8586 Y-68.4159 I0 J-4.642
(Arc Move)
X-13.4811 Y-72.1813 I4.642 J0
(Arc Move)
X-9.7157 Y-66.8037 I0 J4.642
(Line Move)
G1 X-8.8648 Y-66.6537 Z-1.45
(Arc Move)
G3 X-15.2432 Y-62.1874 I-5.506 J0
(Arc Move)
X-19.7095 Y-68.5659 I0 J-5.506
(Arc Move)
X-13.3310 Y-73.0321 I5.506 J0
(Arc Move)
X-8.8648 Y-66.6537 I0 J5.506
(Line Move)
G1 X-8.0139 Y-66.5036 Z-1.45
(Arc Move)
G3 X-15.3933 Y-61.3366 I-6.37 J0
(Arc Move)
X-20.5604 Y-68.7159 I0 J-6.37
(Arc Move)
X-13.1810 Y-73.8830 I6.37 J0
(Arc Move)
X-8.0139 Y-66.5036 I0 J6.37
(Arc Move)
X-15.3933 Y-61.3366 I-6.37 J0
(Arc Move)
X-20.5604 Y-68.7159 I0 J-6.37
(Arc Move)
X-13.1810 Y-73.8830 I6.37 J0
(Arc Move)
X-8.0139 Y-66.5036 I0 J6.37
(Line Move)
G1 X-14.2871 Y-67.6098 Z-1.45
(Rapid Z up)
G0 Z2.8
(Rapid Z Down)
Z1.05
(Feed Z Down)
G1 Z-1.7 F411.48
(Line Move)
X-13.9700 Y-67.5539 Z-1.7 F822.96
(Arc Move)
G3 X-14.3431 Y-67.2927 I-.322 J0 F1645.92
(Arc Move)
X-14.6042 Y-67.6657 I0 J-.322
(Arc Move)
X-14.2312 Y-67.9269 I.322 J0
(Arc Move)
X-13.9700 Y-67.5539 I0 J.322
(Line Move)
G1 X-13.1192 Y-67.4038 Z-1.7
(Arc Move)
G3 X-14.4931 Y-66.4418 I-1.186 J0
(Arc Move)
X-15.4551 Y-67.8157 I0 J-1.186
(Arc Move)
X-14.0812 Y-68.7778 I1.186 J0
(Arc Move)
X-13.1192 Y-67.4038 I0 J1.186
(Line Move)
G1 X-12.2683 Y-67.2538 Z-1.7
(Arc Move)
G3 X-14.6431 Y-65.5909 I-2.05 J0
(Arc Move)
X-16.3060 Y-67.9658 I0 J-2.05
(Arc Move)
X-13.9312 Y-69.6286 I2.05 J0
(Arc Move)
X-12.2683 Y-67.2538 I0 J2.05
(Line Move)
G1 X-11.4174 Y-67.1038 Z-1.7
(Arc Move)
G3 X-14.7931 Y-64.7401 I-2.914 J0
(Arc Move)
X-17.1569 Y-68.1158 I0 J-2.914
(Arc Move)
X-13.7811 Y-70.4795 I2.914 J0
(Arc Move)
X-11.4174 Y-67.1038 I0 J2.914
(Line Move)
G1 X-10.5665 Y-66.9537 Z-1.7
(Arc Move)
G3 X-14.9432 Y-63.8892 I-3.778 J0
(Arc Move)
X-18.0077 Y-68.2658 I0 J-3.778
(Arc Move)
X-13.6311 Y-71.3304 I3.778 J0
(Arc Move)
X-10.5665 Y-66.9537 I0 J3.778
(Line Move)
G1 X-9.7157 Y-66.8037 Z-1.7
(Arc Move)
G3 X-15.0932 Y-63.0383 I-4.642 J0
(Arc Move)
X-18.8586 Y-68.4159 I0 J-4.642
(Arc Move)
X-13.4811 Y-72.1813 I4.642 J0
(Arc Move)
X-9.7157 Y-66.8037 I0 J4.642
(Line Move)
G1 X-8.8648 Y-66.6537 Z-1.7
(Arc Move)
G3 X-15.2432 Y-62.1874 I-5.506 J0
(Arc Move)
X-19.7095 Y-68.5659 I0 J-5.506
(Arc Move)
X-13.3310 Y-73.0321 I5.506 J0
(Arc Move)
X-8.8648 Y-66.6537 I0 J5.506
(Line Move)
G1 X-8.0139 Y-66.5036 Z-1.7
(Arc Move)
G3 X-15.3933 Y-61.3366 I-6.37 J0
(Arc Move)
X-20.5604 Y-68.7159 I0 J-6.37
(Arc Move)
X-13.1810 Y-73.8830 I6.37 J0
(Arc Move)
X-8.0139 Y-66.5036 I0 J6.37
(Arc Move)
X-15.3933 Y-61.3366 I-6.37 J0
(Arc Move)
X-20.5604 Y-68.7159 I0 J-6.37
(Arc Move)
X-13.1810 Y-73.8830 I6.37 J0
(Arc Move)
X-8.0139 Y-66.5036 I0 J6.37
(Line Move)
G1 X-14.2871 Y-67.6098 Z-1.7
(Rapid Z up)
G0 Z2.8
(Rapid Z up)
Z25.
(Rapid Z Down)
Z3.3
(Feed Z Down)
G1 Z-.78 F411.48
(Line Leadin Move)
X-31.539 Y-67.4874 F1234.44
(Line Leadin Move)
X-20.7996 Y-68.3859
(Arc Move)
G3 X-20.8406 Y-68.5461 I.1477 J-.1576
(Arc Move)
X-20.8066 Y-68.7593 I6.5535 J-.216 F1645.92
(Arc Move)
X-13.1376 Y-74.1292 I6.62 J0
(Arc Move)
X-7.7677 Y-66.4602 I0 J6.62
(Arc Move)
X-15.4367 Y-61.0904 I-6.62 J0
(Arc Move)
X-20.8066 Y-68.7593 I0 J-6.62
(Arc Move)
X-20.7656 Y-68.9714 I6.62 J0
(Arc Move)
X-20.6723 Y-69.1079 I.2159 J.007
(Line Leadout Move)
G1 X-31.539 Y-69.7218
(Rapid Z up)
G0 Z3.3
(Rapid Move)
X-14.2871 Y-67.6098
(Rapid Z Down)
Z2.22
(Feed Z Down)
G1 Z-1.7 F411.48
(Line Leadin Move)
X-31.539 Y-67.4874 F1234.44
(Line Leadin Move)
X-20.7996 Y-68.3859
(Arc Move)
G3 X-20.8406 Y-68.5461 I.1477 J-.1576
(Arc Move)
X-20.8066 Y-68.7593 I6.5535 J-.216 F1645.92
(Arc Move)
X-13.1376 Y-74.1292 I6.62 J0
(Arc Move)
X-7.7677 Y-66.4602 I0 J6.62
(Arc Move)
X-15.4367 Y-61.0904 I-6.62 J0
(Arc Move)
X-20.8066 Y-68.7593 I0 J-6.62
(Arc Move)
X-20.7656 Y-68.9714 I6.62 J0
(Arc Move)
X-20.6723 Y-69.1079 I.2159 J.007
(Line Leadout Move)
G1 X-31.539 Y-69.7218
(Rapid Z up)
G0 Z3.3
(Last Rapid Z Up)
Z25. M9
(End of Tape)
G53
Z-2 
M5
G4 P1 
m8
M30
