(Start of Tape)



(Made in : UPC)

(G Code optimized for RS-CNC32 with GRBL V0.9j controller)



( PART NUMBER=1 )

( PART NAME=  )

( PROGRAMMER=  )

( OPERATION NUMBER=  )

( DATE=  )



G90 G17 G21 G80

m8

(Init Tool Change)

(6MM CRB 2FL 19 LOC)

G53

G0 Z2 

G54

S12000 M3

M8

G4 P1 

(Rapid From Tool Change)

G0 G90 X1.8507 Y-100.1608

(Rapid Z Down)

Z3.

(Feed Z Down)

G1 Z-2. F411.48

(Line Leadin Move)

X1.0452 Y-100.9436 F1234.44

(Arc Move)

G3 X0.9798 Y-101.0954 I.1505 J-.1549

(Arc Move)

G2 X0.9767 Y-101.3114 I-3808.6698 J54.3264 F1645.92

(Line Move)

G1 X0.9632 Y-102.2506 Z-2.

(Line Move)

X-0.4414 Y-102.4269 Z-2.

(Line Move)

X-1.0949 Y-102.5661 Z-2.

(Line Move)

X-1.7712 Y-102.8092 Z-2.

(Line Move)

X-4.4481 Y-104.6732 Z-2.

(Line Move)

X-7.0229 Y-106.6269 Z-2.

(Line Move)

X-9.6389 Y-108.8080 Z-2.

(Line Move)

X-10.8515 Y-109.9144 Z-2.

(Line Move)

X-12.0031 Y-111.0598 Z-2.

(Line Move)

X-13.0864 Y-112.2582 Z-2.

(Line Move)

X-14.1013 Y-113.5311 Z-2.

(Line Move)

X-15.0172 Y-114.8401 Z-2.

(Line Move)

X-15.8642 Y-116.2114 Z-2.

(Line Move)

X-17.4799 Y-119.1848 Z-2.

(Line Move) soucis ici

X-17.1730 Y-120.6363 Z-2.

(Line Move)

X-18.7397 Y-122.0765 Z-2.

(Line Move)

X-19.8226 Y-125.3249 Z-2.

(Line Move)

X-20.9629 Y-128.5282 Z-2.

(Arc Move)

G2 X-23.3754 Y-133.9203 I-34.7455 J12.3101

(Line Move)

G1 X-28.4016 Y-143.1754 Z-2.

(Line Move)

X-29.7681 Y-145.6671 Z-2.

(Line Move)

X-30.4580 Y-146.5898 Z-2.

(Line Move)

X-30.8896 Y-146.9992 Z-2.

(Line Move)

X-31.3801 Y-147.3596 Z-2.

(Line Move)

X-31.9339 Y-147.6698 Z-2.

(Line Move)

X-32.5491 Y-147.9105 Z-2.

(Line Move)

X-33.2058 Y-148.0473 Z-2.

(Line Move)

X-33.8593 Y-148.0661 Z-2.

(Line Move)

X-34.4924 Y-147.9850 Z-2.

(Line Move)

X-35.1032 Y-147.8169 Z-2.

(Line Move)

X-36.1214 Y-147.3649 Z-2.

(Line Move)

X-39.2338 Y-145.4392 Z-2.

(Line Move)

X-40.0361 Y-144.8777 Z-2.

(Line Move)

X-40.7957 Y-144.2174 Z-2.

(Line Move)

X-41.4704 Y-143.4959 Z-2.

(Line Move)

X-42.0749 Y-142.7091 Z-2.

(Line Move)

X-42.6009 Y-141.8968 Z-2.

(Line Move)

X-43.4792 Y-140.1930 Z-2.

(Line Move)

X-44.0578 Y-138.7202 Z-2.

(Line Move)

X-44.5829 Y-137.1825 Z-2.

(Line Move)

X-44.8659 Y-136.1138 Z-2.

(Line Move)

X-45.0941 Y-135.0064 Z-2.

(Line Move)

X-45.2537 Y-133.9406 Z-2.

(Line Move)

X-47.2850 Y-109.1582 Z-2.

(Line Move)

X-47.5297 Y-107.1296 Z-2.

(Line Move)

X-47.8355 Y-105.1122 Z-2.

(Line Move)

X-48.1978 Y-103.1472 Z-2.

(Line Move)

X-48.6218 Y-101.1884 Z-2.

(Line Move)

X-49.6512 Y-97.2072 Z-2.

(Line Move)

X-54.2778 Y-81.2445 Z-2.

(Line Move)

X-55.3607 Y-77.2579 Z-2.

(Line Move)

X-56.3127 Y-73.1848 Z-2.

(Line Move)

X-57.1043 Y-69.0801 Z-2.

(Line Move)

X-57.4093 Y-66.9669 Z-2.

(Line Move)

X-57.6052 Y-64.8871 Z-2.

(Line Move)

X-57.6893 Y-62.7687 Z-2.

(Line Move)

X-57.6412 Y-58.5391 Z-2.

(Line Move)

X-57.4969 Y-56.6928 Z-2.

(Line Move)

X-57.1484 Y-53.9182 Z-2.

(Line Move)

X-56.5557 Y-51.1539 Z-2.

(Line Move)

X-55.8549 Y-48.5368 Z-2.

(Line Move)

X-55.2511 Y-46.7739 Z-2.

(Line Move)

X-54.4724 Y-45.0087 Z-2.

(Line Move)

X-52.4166 Y-40.9507 Z-2.

(Line Move)

X-52.4152 Y-40.9480 Z-2.

(Arc Move)

G3 X-45.9149 Y-27.9751 I-646.5092 J332.0583

(Line Move)

G1 X-45.9129 Y-27.9710 Z-2.

(Line Move)

X-45.9109 Y-27.9669 Z-2.

(Arc Move)

G2 X-41.6099 Y-20.8907 I44.587 J-22.2555

(Line Move)

G1 X-41.5827 Y-20.8533 Z-2.

(Line Move)

X-40.0018 Y-19.0325 Z-2.

(Line Move)

X-37.9601 Y-17.0352 Z-2.

(Line Move)

X-36.7496 Y-15.7743 Z-2.

(Line Move)

X-35.2869 Y-13.9439 Z-2.

(Line Move)

X-34.0680 Y-12.7679 Z-2.

(Line Move)

X-19.9305 Y0.2157 Z-2.

(Line Move)

X-18.9737 Y0.9180 Z-2.

(Line Move)

X-18.4052 Y1.1912 Z-2.

(Line Move)

X-17.8350 Y1.3687 Z-2.

(Line Move)

X-17.2415 Y1.4762 Z-2.

(Line Move)

X-16.1008 Y1.5398 Z-2.

(Line Move)

X-1.5645 Y1.5287 Z-2.

(Line Move)

X-1.0679 Y1.5249 Z-2.

(Line Move)

X-0.2418 Y1.3611 Z-2.

(Line Move)

X1.0721 Y0.6461 Z-2.

(Line Move)

X1.0799 Y0.0133 Z-2.

(Arc Move)

G2 X1.3672 Y-46.7691 I-3808.77 J-46.7823

(Arc Move)

X0.9767 Y-101.3114 I-3809.0573 J0

(Line Move)

G1 X0.9736 Y-101.5274 Z-2.

(Arc Move)

G3 Y-101.5305 I.216 J-.0031

(Arc Move)

X1.0347 Y-101.6810 I.216 J0

(Line Leadout Move)

G1 X1.8174 Y-102.4865

(Rapid Z up)

G0 Z3.

(Rapid Move)

X1.8507 Y-100.1608

(Rapid Z Down)

Z1.

(Feed Z Down)

G1 Z-3.801 F411.48

(Line Leadin Move)

X1.0452 Y-100.9436 F1234.44

(Arc Move)

G3 X0.9798 Y-101.0954 I.1505 J-.1549

(Arc Move)

G2 X0.9767 Y-101.3114 I-3808.6698 J54.3264 F1645.92

(Line Move)

G1 X1.1000 Y-102.2506 Z-3.801

(Line Move) probleme

X1.1000 Y-102.4269 Z-3.801

(Line Move)

X-1.0949 Y-102.5661 Z-3.801

(Line Move)

X-1.7712 Y-102.8092 Z-3.801

(Line Move)

X-4.4481 Y-104.6732 Z-3.801

(Line Move)

X-7.0229 Y-106.6269 Z-3.801

(Line Move)

X-9.6389 Y-108.8080 Z-3.801

(Line Move)

X-10.8515 Y-109.9144 Z-3.801

(Line Move)

X-12.0031 Y-111.0598 Z-3.801

(Line Move)

X-13.0864 Y-112.2582 Z-3.801

(Line Move)

X-14.1013 Y-113.5311 Z-3.801

(Line Move)

X-15.0172 Y-114.8401 Z-3.801

(Line Move)

X-15.8642 Y-116.2114 Z-3.801

(Line Move)

X-17.4799 Y-119.1848 Z-3.801

(Line Move)

X-18.1730 Y-120.6363 Z-3.801

(Line Move)

X-18.7397 Y-122.0765 Z-3.801

(Line Move)

X-19.8226 Y-125.3249 Z-3.801

(Line Move)

X-20.9629 Y-128.5282 Z-3.801

(Arc Move)

G2 X-23.3754 Y-133.9203 I-34.7455 J12.3101

(Line Move)

G1 X-28.4016 Y-143.1754 Z-3.801

(Line Move)

X-29.7681 Y-145.6671 Z-3.801

(Line Move)

X-30.4580 Y-146.5898 Z-3.801

(Line Move)

X-30.8896 Y-146.9992 Z-3.801

(Line Move)

X-31.3801 Y-147.3596 Z-3.801

(Line Move)

X-31.9339 Y-147.6698 Z-3.801

(Line Move)

X-32.5491 Y-147.9105 Z-3.801

(Line Move)

X-33.2058 Y-148.0473 Z-3.801

(Line Move)

X-33.8593 Y-148.0661 Z-3.801

(Line Move)

X-34.4924 Y-147.9850 Z-3.801

(Line Move)

X-35.1032 Y-147.8169 Z-3.801

(Line Move)

X-36.1214 Y-147.3649 Z-3.801

(Line Move)

X-39.2338 Y-145.4392 Z-3.801

(Line Move)

X-40.0361 Y-144.8777 Z-3.801

(Line Move)

X-40.7957 Y-144.2174 Z-3.801

(Line Move)

X-41.4704 Y-143.4959 Z-3.801

(Line Move)

X-42.0749 Y-142.7091 Z-3.801

(Line Move)

X-42.6009 Y-141.8968 Z-3.801

(Line Move)

X-43.4792 Y-140.1930 Z-3.801

(Line Move)

X-44.0578 Y-138.7202 Z-3.801

(Line Move)

X-44.5829 Y-137.1825 Z-3.801

(Line Move)

X-44.8659 Y-136.1138 Z-3.801

(Line Move)

X-45.0941 Y-135.0064 Z-3.801

(Line Move)

X-45.2537 Y-133.9406 Z-3.801

(Line Move)

X-47.2850 Y-109.1582 Z-3.801

(Line Move)

X-47.5297 Y-107.1296 Z-3.801

(Line Move)

X-47.8355 Y-105.1122 Z-3.801

(Line Move)

X-48.1978 Y-103.1472 Z-3.801

(Line Move)

X-48.6218 Y-101.1884 Z-3.801

(Line Move)

X-49.6512 Y-97.2072 Z-3.801

(Line Move)

X-54.2778 Y-81.2445 Z-3.801

(Line Move)

X-55.3607 Y-77.2579 Z-3.801

(Line Move)

X-56.3127 Y-73.1848 Z-3.801

(Line Move)

X-57.1043 Y-69.0801 Z-3.801

(Line Move)

X-57.4093 Y-66.9669 Z-3.801

(Line Move)

X-57.6052 Y-64.8871 Z-3.801

(Line Move)

X-57.6893 Y-62.7687 Z-3.801

(Line Move)

X-57.6412 Y-58.5391 Z-3.801

(Line Move)

X-57.4969 Y-56.6928 Z-3.801

(Line Move)

X-57.1484 Y-53.9182 Z-3.801

(Line Move)

X-56.5557 Y-51.1539 Z-3.801

(Line Move)

X-55.8549 Y-48.5368 Z-3.801

(Line Move)

X-55.2511 Y-46.7739 Z-3.801

(Line Move)

X-54.4724 Y-45.0087 Z-3.801

(Line Move)

X-52.4166 Y-40.9507 Z-3.801

(Line Move)

X-52.4152 Y-40.9480 Z-3.801

(Arc Move)

G3 X-45.9149 Y-27.9751 I-646.5092 J332.0583

(Line Move)

G1 X-45.9129 Y-27.9710 Z-3.801

(Line Move)

X-45.9109 Y-27.9669 Z-3.801

(Arc Move)

G2 X-41.6099 Y-20.8907 I44.587 J-22.2555

(Line Move)

G1 X-41.5827 Y-20.8533 Z-3.801

(Line Move)

X-40.0018 Y-19.0325 Z-3.801

(Line Move)

X-37.9601 Y-17.0352 Z-3.801

(Line Move)

X-36.7496 Y-15.7743 Z-3.801

(Line Move)

X-35.2869 Y-13.9439 Z-3.801

(Line Move)

X-34.0680 Y-12.7679 Z-3.801

(Line Move)

X-19.9305 Y0.2157 Z-3.801

(Line Move)

X-18.9737 Y0.9180 Z-3.801

(Line Move)

X-18.4052 Y1.1912 Z-3.801

(Line Move)

X-17.8350 Y1.3687 Z-3.801

(Line Move)

X-17.2415 Y1.4762 Z-3.801

(Line Move)

X-16.1008 Y1.5398 Z-3.801

(Line Move)

X-1.5645 Y1.5287 Z-3.801

(Line Move)

X-1.0679 Y1.5249 Z-3.801

(Line Move)

X-0.2418 Y1.3611 Z-3.801

(Line Move)

X1.0721 Y0.6461 Z-3.801

(Line Move)

X1.0799 Y0.0133 Z-3.801

(Arc Move)

G2 X1.3672 Y-46.7691 I-3808.77 J-46.7823

(Arc Move)

X0.9767 Y-101.3114 I-3809.0573 J0

(Line Move)

G1 X0.9736 Y-101.5274 Z-3.801

(Arc Move)

G3 Y-101.5305 I.216 J-.0031

(Arc Move)

X1.0347 Y-101.6810 I.216 J0

(Line Leadout Move)

G1 X1.8174 Y-102.4865

(Rapid Z up)

G0 Z3.

(Rapid Move)

X1.8507 Y-100.1608

(Rapid Z Down)

Z-.801

(Feed Z Down)

G1 Z-5.602 F411.48

(Line Leadin Move)

X1.0452 Y-100.9436 F1234.44

(Arc Move)

G3 X0.9798 Y-101.0954 I.1505 J-.1549

(Arc Move)

G2 X0.9767 Y-101.3114 I-3808.6698 J54.3264 F1645.92

(Line Move)

G1 X0.9632 Y-102.2506 Z-5.602

(Line Move)

X-0.4414 Y-102.4269 Z-5.602

(Line Move)

X-1.0949 Y-102.5661 Z-5.602

(Line Move)

X-1.7712 Y-102.8092 Z-5.602

(Line Move)

X-4.4481 Y-104.6732 Z-5.602

(Line Move)

X-7.0229 Y-106.6269 Z-5.602

(Line Move)

X-9.6389 Y-108.8080 Z-5.602

(Line Move)

X-10.8515 Y-109.9144 Z-5.602

(Line Move)

X-12.0031 Y-111.0598 Z-5.602

(Line Move)

X-13.0864 Y-112.2582 Z-5.602

(Line Move)

X-14.1013 Y-113.5311 Z-5.602

(Line Move)

X-15.0172 Y-114.8401 Z-5.602

(Line Move)

X-15.8642 Y-116.2114 Z-5.602

(Line Move)

X-17.4799 Y-119.1848 Z-5.602

(Line Move)

X-18.1730 Y-120.6363 Z-5.602

(Line Move)

X-18.7397 Y-122.0765 Z-5.602

(Line Move)

X-19.8226 Y-125.3249 Z-5.602

(Line Move)

X-20.9629 Y-128.5282 Z-5.602

(Arc Move)

G2 X-23.3754 Y-133.9203 I-34.7455 J12.3101

(Line Move)

G1 X-28.4016 Y-143.1754 Z-5.602

(Line Move)

X-29.7681 Y-145.6671 Z-5.602

(Line Move)

X-30.4580 Y-146.5898 Z-5.602

(Line Move)

X-30.8896 Y-146.9992 Z-5.602

(Line Move)

X-31.3801 Y-147.3596 Z-5.602

(Line Move)

X-31.9339 Y-147.6698 Z-5.602

(Line Move)

X-32.5491 Y-147.9105 Z-5.602

(Line Move)

X-33.2058 Y-148.0473 Z-5.602

(Line Move)

X-33.8593 Y-148.0661 Z-5.602

(Line Move)

X-34.4924 Y-147.9850 Z-5.602

(Line Move)

X-35.1032 Y-147.8169 Z-5.602

(Line Move)

X-36.1214 Y-147.3649 Z-5.602

(Line Move)

X-39.2338 Y-145.4392 Z-5.602

(Line Move)

X-40.0361 Y-144.8777 Z-5.602

(Line Move)

X-40.7957 Y-144.2174 Z-5.602

(Line Move)

X-41.4704 Y-143.4959 Z-5.602

(Line Move)

X-42.0749 Y-142.7091 Z-5.602

(Line Move)

X-42.6009 Y-141.8968 Z-5.602

(Line Move)

X-43.4792 Y-140.1930 Z-5.602

(Line Move)

X-44.0578 Y-138.7202 Z-5.602

(Line Move)

X-44.5829 Y-137.1825 Z-5.602

(Line Move)

X-44.8659 Y-136.1138 Z-5.602

(Line Move)

X-45.0941 Y-135.0064 Z-5.602

(Line Move)

X-45.2537 Y-133.9406 Z-5.602

(Line Move)

X-47.2850 Y-109.1582 Z-5.602

(Line Move)

X-47.5297 Y-107.1296 Z-5.602

(Line Move)

X-47.8355 Y-105.1122 Z-5.602

(Line Move)

X-48.1978 Y-103.1472 Z-5.602

(Line Move)

X-48.6218 Y-101.1884 Z-5.602

(Line Move)

X-49.6512 Y-97.2072 Z-5.602

(Line Move)

X-54.2778 Y-81.2445 Z-5.602

(Line Move)

X-55.3607 Y-77.2579 Z-5.602

(Line Move)

X-56.3127 Y-73.1848 Z-5.602

(Line Move)

X-57.1043 Y-69.0801 Z-5.602

(Line Move)

X-57.4093 Y-66.9669 Z-5.602

(Line Move)

X-57.6052 Y-64.8871 Z-5.602

(Line Move)

X-57.6893 Y-62.7687 Z-5.602

(Line Move)

X-57.6412 Y-58.5391 Z-5.602

(Line Move)

X-57.4969 Y-56.6928 Z-5.602

(Line Move)

X-57.1484 Y-53.9182 Z-5.602

(Line Move)

X-56.5557 Y-51.1539 Z-5.602

(Line Move)

X-55.8549 Y-48.5368 Z-5.602

(Line Move)

X-55.2511 Y-46.7739 Z-5.602

(Line Move)

X-54.4724 Y-45.0087 Z-5.602

(Line Move)

X-52.4166 Y-40.9507 Z-5.602

(Line Move)

X-52.4152 Y-40.9480 Z-5.602

(Arc Move)

G3 X-45.9149 Y-27.9751 I-646.5092 J332.0583

(Line Move)

G1 X-45.9129 Y-27.9710 Z-5.602

(Line Move)

X-45.9109 Y-27.9669 Z-5.602

(Arc Move)

G2 X-41.6099 Y-20.8907 I44.587 J-22.2555

(Line Move)

G1 X-41.5827 Y-20.8533 Z-5.602

(Line Move)

X-40.0018 Y-19.0325 Z-5.602

(Line Move)

X-37.9601 Y-17.0352 Z-5.602

(Line Move)

X-36.7496 Y-15.7743 Z-5.602

(Line Move)

X-35.2869 Y-13.9439 Z-5.602

(Line Move)

X-34.0680 Y-12.7679 Z-5.602

(Line Move)

X-19.9305 Y0.2157 Z-5.602

(Line Move)

X-18.9737 Y0.9180 Z-5.602

(Line Move)

X-18.4052 Y1.1912 Z-5.602

(Line Move)

X-17.8350 Y1.3687 Z-5.602

(Line Move)

X-17.2415 Y1.4762 Z-5.602

(Line Move)

X-16.1008 Y1.5398 Z-5.602

(Line Move)

X-1.5645 Y1.5287 Z-5.602

(Line Move)

X-1.0679 Y1.5249 Z-5.602

(Line Move)

X-0.2418 Y1.3611 Z-5.602

(Line Move)

X1.0721 Y0.6461 Z-5.602

(Line Move)

X1.0799 Y0.0133 Z-5.602

(Arc Move)

G2 X1.3672 Y-46.7691 I-3808.77 J-46.7823

(Arc Move)

X0.9767 Y-101.3114 I-3809.0573 J0

(Line Move)

G1 X0.9736 Y-101.5274 Z-5.602

(Arc Move)

G3 Y-101.5305 I.216 J-.0031

(Arc Move)

X1.0347 Y-101.6810 I.216 J0

(Line Leadout Move)

G1 X1.8174 Y-102.4865

(Rapid Z up)

G0 Z3.

(Rapid Move)

X1.8507 Y-100.1608

(Rapid Z Down)

Z-2.602

(Feed Z Down)

G1 Z-7.403 F411.48

(Line Leadin Move)

X1.0452 Y-100.9436 F1234.44

(Arc Move)

G3 X0.9798 Y-101.0954 I.1505 J-.1549

(Arc Move)

G2 X0.9767 Y-101.3114 I-3808.6698 J54.3264 F1645.92

(Line Move)

G1 X0.9632 Y-102.2506 Z-7.403

(Line Move)

X-0.4414 Y-102.4269 Z-7.403

(Line Move)

X-1.0949 Y-102.5661 Z-7.403

(Line Move)

X-1.7712 Y-102.8092 Z-7.403

(Line Move)

X-4.4481 Y-104.6732 Z-7.403

(Line Move)

X-7.0229 Y-106.6269 Z-7.403

(Line Move)

X-9.6389 Y-108.8080 Z-7.403

(Line Move)

X-10.8515 Y-109.9144 Z-7.403

(Line Move)

X-12.0031 Y-111.0598 Z-7.403

(Line Move)

X-13.0864 Y-112.2582 Z-7.403

(Line Move)

X-14.1013 Y-113.5311 Z-7.403

(Line Move)

X-15.0172 Y-114.8401 Z-7.403

(Line Move)

X-15.8642 Y-116.2114 Z-7.403

(Line Move)

X-17.4799 Y-119.1848 Z-7.403

(Line Move)

X-18.1730 Y-120.6363 Z-7.403

(Line Move)

X-18.7397 Y-122.0765 Z-7.403

(Line Move)

X-19.8226 Y-125.3249 Z-7.403

(Line Move)

X-20.9629 Y-128.5282 Z-7.403

(Arc Move)

G2 X-23.3754 Y-133.9203 I-34.7455 J12.3101

(Line Move)

G1 X-28.4016 Y-143.1754 Z-7.403

(Line Move)

X-29.7681 Y-145.6671 Z-7.403

(Line Move)

X-30.4580 Y-146.5898 Z-7.403

(Line Move)

X-30.8896 Y-146.9992 Z-7.403

(Line Move)

X-31.3801 Y-147.3596 Z-7.403

(Line Move)

X-31.9339 Y-147.6698 Z-7.403

(Line Move)

X-32.5491 Y-147.9105 Z-7.403

(Line Move)

X-33.2058 Y-148.0473 Z-7.403

(Line Move)

X-33.8593 Y-148.0661 Z-7.403

(Line Move)

X-34.4924 Y-147.9850 Z-7.403

(Line Move)

X-35.1032 Y-147.8169 Z-7.403

(Line Move)

X-36.1214 Y-147.3649 Z-7.403

(Line Move)

X-39.2338 Y-145.4392 Z-7.403

(Line Move)

X-40.0361 Y-144.8777 Z-7.403

(Line Move)

X-40.7957 Y-144.2174 Z-7.403

(Line Move)

X-41.4704 Y-143.4959 Z-7.403

(Line Move)

X-42.0749 Y-142.7091 Z-7.403

(Line Move)

X-42.6009 Y-141.8968 Z-7.403

(Line Move)

X-43.4792 Y-140.1930 Z-7.403

(Line Move)

X-44.0578 Y-138.7202 Z-7.403

(Line Move)

X-44.5829 Y-137.1825 Z-7.403

(Line Move)

X-44.8659 Y-136.1138 Z-7.403

(Line Move)

X-45.0941 Y-135.0064 Z-7.403

(Line Move)

X-45.2537 Y-133.9406 Z-7.403

(Line Move)

X-47.2850 Y-109.1582 Z-7.403

(Line Move)

X-47.5297 Y-107.1296 Z-7.403

(Line Move)

X-47.8355 Y-105.1122 Z-7.403

(Line Move)

X-48.1978 Y-103.1472 Z-7.403

(Line Move)

X-48.6218 Y-101.1884 Z-7.403

(Line Move)

X-49.6512 Y-97.2072 Z-7.403

(Line Move)

X-54.2778 Y-81.2445 Z-7.403

(Line Move)

X-55.3607 Y-77.2579 Z-7.403

(Line Move)

X-56.3127 Y-73.1848 Z-7.403

(Line Move)

X-57.1043 Y-69.0801 Z-7.403

(Line Move)

X-57.4093 Y-66.9669 Z-7.403

(Line Move)

X-57.6052 Y-64.8871 Z-7.403

(Line Move)

X-57.6893 Y-62.7687 Z-7.403

(Line Move)

X-57.6412 Y-58.5391 Z-7.403

(Line Move)

X-57.4969 Y-56.6928 Z-7.403

(Line Move)

X-57.1484 Y-53.9182 Z-7.403

(Line Move)

X-56.5557 Y-51.1539 Z-7.403

(Line Move)

X-55.8549 Y-48.5368 Z-7.403

(Line Move)

X-55.2511 Y-46.7739 Z-7.403

(Line Move)

X-54.4724 Y-45.0087 Z-7.403

(Line Move)

X-52.4166 Y-40.9507 Z-7.403

(Line Move)

X-52.4152 Y-40.9480 Z-7.403

(Arc Move)

G3 X-45.9149 Y-27.9751 I-646.5092 J332.0583

(Line Move)

G1 X-45.9129 Y-27.9710 Z-7.403

(Line Move)

X-45.9109 Y-27.9669 Z-7.403

(Arc Move)

G2 X-41.6099 Y-20.8907 I44.587 J-22.2555

(Line Move)

G1 X-41.5827 Y-20.8533 Z-7.403

(Line Move)

X-40.0018 Y-19.0325 Z-7.403

(Line Move)

X-37.9601 Y-17.0352 Z-7.403

(Line Move)

X-36.7496 Y-15.7743 Z-7.403

(Line Move)

X-35.2869 Y-13.9439 Z-7.403

(Line Move)

X-34.0680 Y-12.7679 Z-7.403

(Line Move)

X-19.9305 Y0.2157 Z-7.403

(Line Move)

X-18.9737 Y0.9180 Z-7.403

(Line Move)

X-18.4052 Y1.1912 Z-7.403

(Line Move)

X-17.8350 Y1.3687 Z-7.403

(Line Move)

X-17.2415 Y1.4762 Z-7.403

(Line Move)

X-16.1008 Y1.5398 Z-7.403

(Line Move)

X-1.5645 Y1.5287 Z-7.403

(Line Move)

X-1.0679 Y1.5249 Z-7.403

(Line Move)

X-0.2418 Y1.3611 Z-7.403

(Line Move)

X1.0721 Y0.6461 Z-7.403

(Line Move)

X1.0799 Y0.0133 Z-7.403

(Arc Move)

G2 X1.3672 Y-46.7691 I-3808.77 J-46.7823

(Arc Move)

X0.9767 Y-101.3114 I-3809.0573 J0

(Line Move)

G1 X0.9736 Y-101.5274 Z-7.403

(Arc Move)

G3 Y-101.5305 I.216 J-.0031

(Arc Move)

X1.0347 Y-101.6810 I.216 J0

(Line Leadout Move)

G1 X1.8174 Y-102.4865

(Rapid Z up)

G0 Z3.

(Rapid Move)

X1.8507 Y-100.1608

(Rapid Z Down)

Z-4.403

(Feed Z Down)

G1 Z-9.204 F411.48

(Line Leadin Move)

X1.0452 Y-100.9436 F1234.44

(Arc Move)

G3 X0.9798 Y-101.0954 I.1505 J-.1549

(Arc Move)

G2 X0.9767 Y-101.3114 I-3808.6698 J54.3264 F1645.92

(Line Move)

G1 X0.9632 Y-102.2506 Z-9.204

(Line Move)

X-0.4414 Y-102.4269 Z-9.204

(Line Move)

X-1.0949 Y-102.5661 Z-9.204

(Line Move)

X-1.7712 Y-102.8092 Z-9.204

(Line Move)

X-4.4481 Y-104.6732 Z-9.204

(Line Move)

X-7.0229 Y-106.6269 Z-9.204

(Line Move)

X-9.6389 Y-108.8080 Z-9.204

(Line Move)

X-10.8515 Y-109.9144 Z-9.204

(Line Move)

X-12.0031 Y-111.0598 Z-9.204

(Line Move)

X-13.0864 Y-112.2582 Z-9.204

(Line Move)

X-14.1013 Y-113.5311 Z-9.204

(Line Move)

X-15.0172 Y-114.8401 Z-9.204

(Line Move)

X-15.8642 Y-116.2114 Z-9.204

(Line Move)

X-17.4799 Y-119.1848 Z-9.204

(Line Move)

X-18.1730 Y-120.6363 Z-9.204

(Line Move)

X-18.7397 Y-122.0765 Z-9.204

(Line Move)

X-19.8226 Y-125.3249 Z-9.204

(Line Move)

X-20.9629 Y-128.5282 Z-9.204

(Arc Move)

G2 X-23.3754 Y-133.9203 I-34.7455 J12.3101

(Line Move)

G1 X-28.4016 Y-143.1754 Z-9.204

(Line Move)

X-29.7681 Y-145.6671 Z-9.204

(Line Move)

X-30.4580 Y-146.5898 Z-9.204

(Line Move)

X-30.8896 Y-146.9992 Z-9.204

(Line Move)

X-31.3801 Y-147.3596 Z-9.204

(Line Move)

X-31.9339 Y-147.6698 Z-9.204

(Line Move)

X-32.5491 Y-147.9105 Z-9.204

(Line Move)

X-33.2058 Y-148.0473 Z-9.204

(Line Move)

X-33.8593 Y-148.0661 Z-9.204

(Line Move)

X-34.4924 Y-147.9850 Z-9.204

(Line Move)

X-35.1032 Y-147.8169 Z-9.204

(Line Move)

X-36.1214 Y-147.3649 Z-9.204

(Line Move)

X-39.2338 Y-145.4392 Z-9.204

(Line Move)

X-40.0361 Y-144.8777 Z-9.204

(Line Move)

X-40.7957 Y-144.2174 Z-9.204

(Line Move)

X-41.4704 Y-143.4959 Z-9.204

(Line Move)

X-42.0749 Y-142.7091 Z-9.204

(Line Move)

X-42.6009 Y-141.8968 Z-9.204

(Line Move)

X-43.4792 Y-140.1930 Z-9.204

(Line Move)

X-44.0578 Y-138.7202 Z-9.204

(Line Move)

X-44.5829 Y-137.1825 Z-9.204

(Line Move)

X-44.8659 Y-136.1138 Z-9.204

(Line Move)

X-45.0941 Y-135.0064 Z-9.204

(Line Move)

X-45.2537 Y-133.9406 Z-9.204

(Line Move)

X-47.2850 Y-109.1582 Z-9.204

(Line Move)

X-47.5297 Y-107.1296 Z-9.204

(Line Move)

X-47.8355 Y-105.1122 Z-9.204

(Line Move)

X-48.1978 Y-103.1472 Z-9.204

(Line Move)

X-48.6218 Y-101.1884 Z-9.204

(Line Move)

X-49.6512 Y-97.2072 Z-9.204

(Line Move)

X-54.2778 Y-81.2445 Z-9.204

(Line Move)

X-55.3607 Y-77.2579 Z-9.204

(Line Move)

X-56.3127 Y-73.1848 Z-9.204

(Line Move)

X-57.1043 Y-69.0801 Z-9.204

(Line Move)

X-57.4093 Y-66.9669 Z-9.204

(Line Move)

X-57.6052 Y-64.8871 Z-9.204

(Line Move)

X-57.6893 Y-62.7687 Z-9.204

(Line Move)

X-57.6412 Y-58.5391 Z-9.204

(Line Move)

X-57.4969 Y-56.6928 Z-9.204

(Line Move)

X-57.1484 Y-53.9182 Z-9.204

(Line Move)

X-56.5557 Y-51.1539 Z-9.204

(Line Move)

X-55.8549 Y-48.5368 Z-9.204

(Line Move)

X-55.2511 Y-46.7739 Z-9.204

(Line Move)

X-54.4724 Y-45.0087 Z-9.204

(Line Move)

X-52.4166 Y-40.9507 Z-9.204

(Line Move)

X-52.4152 Y-40.9480 Z-9.204

(Arc Move)

G3 X-45.9149 Y-27.9751 I-646.5092 J332.0583

(Line Move)

G1 X-45.9129 Y-27.9710 Z-9.204

(Line Move)

X-45.9109 Y-27.9669 Z-9.204

(Arc Move)

G2 X-41.6099 Y-20.8907 I44.587 J-22.2555

(Line Move)

G1 X-41.5827 Y-20.8533 Z-9.204

(Line Move)

X-40.0018 Y-19.0325 Z-9.204

(Line Move)

X-37.9601 Y-17.0352 Z-9.204

(Line Move)

X-36.7496 Y-15.7743 Z-9.204

(Line Move)

X-35.2869 Y-13.9439 Z-9.204

(Line Move)

X-34.0680 Y-12.7679 Z-9.204

(Line Move)

X-19.9305 Y0.2157 Z-9.204

(Line Move)

X-18.9737 Y0.9180 Z-9.204

(Line Move)

X-18.4052 Y1.1912 Z-9.204

(Line Move)

X-17.8350 Y1.3687 Z-9.204

(Line Move)

X-17.2415 Y1.4762 Z-9.204

(Line Move)

X-16.1008 Y1.5398 Z-9.204

(Line Move)

X-1.5645 Y1.5287 Z-9.204

(Line Move)

X-1.0679 Y1.5249 Z-9.204

(Line Move)

X-0.2418 Y1.3611 Z-9.204

(Line Move)

X1.0721 Y0.6461 Z-9.204

(Line Move)

X1.0799 Y0.0133 Z-9.204

(Arc Move)

G2 X1.3672 Y-46.7691 I-3808.77 J-46.7823

(Arc Move)

X0.9767 Y-101.3114 I-3809.0573 J0

(Line Move)

G1 X0.9736 Y-101.5274 Z-9.204

(Arc Move)

G3 Y-101.5305 I.216 J-.0031

(Arc Move)

X1.0347 Y-101.6810 I.216 J0

(Line Leadout Move)

G1 X1.8174 Y-102.4865

(Rapid Z up)

G0 Z3.

(Rapid Move)

X1.8507 Y-100.1608

(Rapid Z Down)

Z-6.204

(Feed Z Down)

G1 Z-11.005 F411.48

(Line Leadin Move)

X1.0452 Y-100.9436 F1234.44

(Arc Move)

G3 X0.9798 Y-101.0954 I.1505 J-.1549

(Arc Move)

G2 X0.9767 Y-101.3114 I-3808.6698 J54.3264 F1645.92

(Line Move)

G1 X0.9632 Y-102.2506 Z-11.005

(Line Move)

X-0.4414 Y-102.4269 Z-11.005

(Line Move)

X-1.0949 Y-102.5661 Z-11.005

(Line Move)

X-1.7712 Y-102.8092 Z-11.005

(Line Move)

X-4.4481 Y-104.6732 Z-11.005

(Line Move)

X-7.0229 Y-106.6269 Z-11.005

(Line Move)

X-9.6389 Y-108.8080 Z-11.005

(Line Move)

X-10.8515 Y-109.9144 Z-11.005

(Line Move)

X-12.0031 Y-111.0598 Z-11.005

(Line Move)

X-13.0864 Y-112.2582 Z-11.005

(Line Move)

X-14.1013 Y-113.5311 Z-11.005

(Line Move)

X-15.0172 Y-114.8401 Z-11.005

(Line Move)

X-15.8642 Y-116.2114 Z-11.005

(Line Move)

X-17.4799 Y-119.1848 Z-11.005

(Line Move)

X-18.1730 Y-120.6363 Z-11.005

(Line Move)

X-18.7397 Y-122.0765 Z-11.005

(Line Move)

X-19.8226 Y-125.3249 Z-11.005

(Line Move)

X-20.9629 Y-128.5282 Z-11.005

(Arc Move)

G2 X-23.3754 Y-133.9203 I-34.7455 J12.3101

(Line Move)

G1 X-28.4016 Y-143.1754 Z-11.005

(Line Move)

X-29.7681 Y-145.6671 Z-11.005

(Line Move)

X-30.4580 Y-146.5898 Z-11.005

(Line Move)

X-30.8896 Y-146.9992 Z-11.005

(Line Move)

X-31.3801 Y-147.3596 Z-11.005

(Line Move)

X-31.9339 Y-147.6698 Z-11.005

(Line Move)

X-32.5491 Y-147.9105 Z-11.005

(Line Move)

X-33.2058 Y-148.0473 Z-11.005

(Line Move)

X-33.8593 Y-148.0661 Z-11.005

(Line Move)

X-34.4924 Y-147.9850 Z-11.005

(Line Move)

X-35.1032 Y-147.8169 Z-11.005

(Line Move)

X-36.1214 Y-147.3649 Z-11.005

(Line Move)

X-39.2338 Y-145.4392 Z-11.005

(Line Move)

X-40.0361 Y-144.8777 Z-11.005

(Line Move)

X-40.7957 Y-144.2174 Z-11.005

(Line Move)

X-41.4704 Y-143.4959 Z-11.005

(Line Move)

X-42.0749 Y-142.7091 Z-11.005

(Line Move)

X-42.6009 Y-141.8968 Z-11.005

(Line Move)

X-43.4792 Y-140.1930 Z-11.005

(Line Move)

X-44.0578 Y-138.7202 Z-11.005

(Line Move)

X-44.5829 Y-137.1825 Z-11.005

(Line Move)

X-44.8659 Y-136.1138 Z-11.005

(Line Move)

X-45.0941 Y-135.0064 Z-11.005

(Line Move)

X-45.2537 Y-133.9406 Z-11.005

(Line Move)

X-47.2850 Y-109.1582 Z-11.005

(Line Move)

X-47.5297 Y-107.1296 Z-11.005

(Line Move)

X-47.8355 Y-105.1122 Z-11.005

(Line Move)

X-48.1978 Y-103.1472 Z-11.005

(Line Move)

X-48.6218 Y-101.1884 Z-11.005

(Line Move)

X-49.6512 Y-97.2072 Z-11.005

(Line Move)

X-54.2778 Y-81.2445 Z-11.005

(Line Move)

X-55.3607 Y-77.2579 Z-11.005

(Line Move)

X-56.3127 Y-73.1848 Z-11.005

(Line Move)

X-57.1043 Y-69.0801 Z-11.005

(Line Move)

X-57.4093 Y-66.9669 Z-11.005

(Line Move)

X-57.6052 Y-64.8871 Z-11.005

(Line Move)

X-57.6893 Y-62.7687 Z-11.005

(Line Move)

X-57.6412 Y-58.5391 Z-11.005

(Line Move)

X-57.4969 Y-56.6928 Z-11.005

(Line Move)

X-57.1484 Y-53.9182 Z-11.005

(Line Move)

X-56.5557 Y-51.1539 Z-11.005

(Line Move)

X-55.8549 Y-48.5368 Z-11.005

(Line Move)

X-55.2511 Y-46.7739 Z-11.005

(Line Move)

X-54.4724 Y-45.0087 Z-11.005

(Line Move)

X-52.4166 Y-40.9507 Z-11.005

(Line Move)

X-52.4152 Y-40.9480 Z-11.005

(Arc Move)

G3 X-45.9149 Y-27.9751 I-646.5092 J332.0583

(Line Move)

G1 X-45.9129 Y-27.9710 Z-11.005

(Line Move)

X-45.9109 Y-27.9669 Z-11.005

(Arc Move)

G2 X-41.6099 Y-20.8907 I44.587 J-22.2555

(Line Move)

G1 X-41.5827 Y-20.8533 Z-11.005

(Line Move)

X-40.0018 Y-19.0325 Z-11.005

(Line Move)

X-37.9601 Y-17.0352 Z-11.005

(Line Move)

X-36.7496 Y-15.7743 Z-11.005

(Line Move)

X-35.2869 Y-13.9439 Z-11.005

(Line Move)

X-34.0680 Y-12.7679 Z-11.005

(Line Move)

X-19.9305 Y0.2157 Z-11.005

(Line Move)

X-18.9737 Y0.9180 Z-11.005

(Line Move)

X-18.4052 Y1.1912 Z-11.005

(Line Move)

X-17.8350 Y1.3687 Z-11.005

(Line Move)

X-17.2415 Y1.4762 Z-11.005

(Line Move)

X-16.1008 Y1.5398 Z-11.005

(Line Move)

X-1.5645 Y1.5287 Z-11.005

(Line Move)

X-1.0679 Y1.5249 Z-11.005

(Line Move)

X-0.2418 Y1.3611 Z-11.005

(Line Move)

X1.0721 Y0.6461 Z-11.005

(Line Move)

X1.0799 Y0.0133 Z-11.005

(Arc Move)

G2 X1.3672 Y-46.7691 I-3808.77 J-46.7823

(Arc Move)

X0.9767 Y-101.3114 I-3809.0573 J0

(Line Move)

G1 X0.9736 Y-101.5274 Z-11.005

(Arc Move)

G3 Y-101.5305 I.216 J-.0031

(Arc Move)

X1.0347 Y-101.6810 I.216 J0

(Line Leadout Move)

G1 X1.8174 Y-102.4865

(Rapid Z up)

G0 Z3.

(Rapid Z up)

Z25.

(Rapid Move)

X-25.8104 Y-64.1017

(Rapid Z Down)

Z2.8

(Feed Z Down)

G1 Z-.78 F411.48

(Line Move)

X-25.4884 Y-64.1017 Z-.78 F822.96

(Arc Move)

G3 X-25.8104 Y-63.7797 I-.322 J0 F1645.92

(Arc Move)

X-26.1324 Y-64.1017 I0 J-.322

(Arc Move)

X-25.8104 Y-64.4237 I.322 J0

(Arc Move)

X-25.4884 Y-64.1017 I0 J.322

(Line Move)

G1 X-24.6244 Y-64.1017 Z-.78

(Arc Move)

G3 X-25.8104 Y-62.9157 I-1.186 J0

(Arc Move)

X-26.9964 Y-64.1017 I0 J-1.186

(Arc Move)

X-25.8104 Y-65.2877 I1.186 J0

(Arc Move)

X-24.6244 Y-64.1017 I0 J1.186

(Line Move)

G1 X-23.7604 Y-64.1017 Z-.78

(Arc Move)

G3 X-25.8104 Y-62.0517 I-2.05 J0

(Arc Move)

X-27.8604 Y-64.1017 I0 J-2.05

(Arc Move)

X-25.8104 Y-66.1517 I2.05 J0

(Arc Move)

X-23.7604 Y-64.1017 I0 J2.05

(Line Move)

G1 X-22.8964 Y-64.1017 Z-.78

(Arc Move)

G3 X-25.8104 Y-61.1877 I-2.914 J0

(Arc Move)

X-28.7244 Y-64.1017 I0 J-2.914

(Arc Move)

X-25.8104 Y-67.0157 I2.914 J0

(Arc Move)

X-22.8964 Y-64.1017 I0 J2.914

(Line Move)

G1 X-22.0324 Y-64.1017 Z-.78

(Arc Move)

G3 X-25.8104 Y-60.3237 I-3.778 J0

(Arc Move)

X-29.5884 Y-64.1017 I0 J-3.778

(Arc Move)

X-25.8104 Y-67.8797 I3.778 J0

(Arc Move)

X-22.0324 Y-64.1017 I0 J3.778

(Line Move)

G1 X-21.1684 Y-64.1017 Z-.78

(Arc Move)

G3 X-25.8104 Y-59.4597 I-4.642 J0

(Arc Move)

X-30.4524 Y-64.1017 I0 J-4.642

(Arc Move)

X-25.8104 Y-68.7437 I4.642 J0

(Arc Move)

X-21.1684 Y-64.1017 I0 J4.642

(Line Move)

G1 X-20.3044 Y-64.1017 Z-.78

(Arc Move)

G3 X-25.8104 Y-58.5957 I-5.506 J0

(Arc Move)

X-31.3164 Y-64.1017 I0 J-5.506

(Arc Move)

X-25.8104 Y-69.6077 I5.506 J0

(Arc Move)

X-20.3044 Y-64.1017 I0 J5.506

(Line Move)

G1 X-19.4404 Y-64.1017 Z-.78

(Arc Move)

G3 X-25.8104 Y-57.7317 I-6.37 J0

(Arc Move)

X-32.1804 Y-64.1017 I0 J-6.37

(Arc Move)

X-25.8104 Y-70.4717 I6.37 J0

(Arc Move)

X-19.4404 Y-64.1017 I0 J6.37

(Arc Move)

X-25.8104 Y-57.7317 I-6.37 J0

(Arc Move)

X-32.1804 Y-64.1017 I0 J-6.37

(Arc Move)

X-25.8104 Y-70.4717 I6.37 J0

(Arc Move)

X-19.4404 Y-64.1017 I0 J6.37

(Line Move)

G1 X-25.8104 Y-64.1017 Z-.78

(Rapid Z up)

G0 Z2.8

(Rapid Z Down)

Z1.72

(Feed Z Down)

G1 Z-1.45 F411.48

(Line Move)

X-25.4884 Y-64.1017 Z-1.45 F822.96

(Arc Move)

G3 X-25.8104 Y-63.7797 I-.322 J0 F1645.92

(Arc Move)

X-26.1324 Y-64.1017 I0 J-.322

(Arc Move)

X-25.8104 Y-64.4237 I.322 J0

(Arc Move)

X-25.4884 Y-64.1017 I0 J.322

(Line Move)

G1 X-24.6244 Y-64.1017 Z-1.45

(Arc Move)

G3 X-25.8104 Y-62.9157 I-1.186 J0

(Arc Move)

X-26.9964 Y-64.1017 I0 J-1.186

(Arc Move)

X-25.8104 Y-65.2877 I1.186 J0

(Arc Move)

X-24.6244 Y-64.1017 I0 J1.186

(Line Move)

G1 X-23.7604 Y-64.1017 Z-1.45

(Arc Move)

G3 X-25.8104 Y-62.0517 I-2.05 J0

(Arc Move)

X-27.8604 Y-64.1017 I0 J-2.05

(Arc Move)

X-25.8104 Y-66.1517 I2.05 J0

(Arc Move)

X-23.7604 Y-64.1017 I0 J2.05

(Line Move)

G1 X-22.8964 Y-64.1017 Z-1.45

(Arc Move)

G3 X-25.8104 Y-61.1877 I-2.914 J0

(Arc Move)

X-28.7244 Y-64.1017 I0 J-2.914

(Arc Move)

X-25.8104 Y-67.0157 I2.914 J0

(Arc Move)

X-22.8964 Y-64.1017 I0 J2.914

(Line Move)

G1 X-22.0324 Y-64.1017 Z-1.45

(Arc Move)

G3 X-25.8104 Y-60.3237 I-3.778 J0

(Arc Move)

X-29.5884 Y-64.1017 I0 J-3.778

(Arc Move)

X-25.8104 Y-67.8797 I3.778 J0

(Arc Move)

X-22.0324 Y-64.1017 I0 J3.778

(Line Move)

G1 X-21.1684 Y-64.1017 Z-1.45

(Arc Move)

G3 X-25.8104 Y-59.4597 I-4.642 J0

(Arc Move)

X-30.4524 Y-64.1017 I0 J-4.642

(Arc Move)

X-25.8104 Y-68.7437 I4.642 J0

(Arc Move)

X-21.1684 Y-64.1017 I0 J4.642

(Line Move)

G1 X-20.3044 Y-64.1017 Z-1.45

(Arc Move)

G3 X-25.8104 Y-58.5957 I-5.506 J0

(Arc Move)

X-31.3164 Y-64.1017 I0 J-5.506

(Arc Move)

X-25.8104 Y-69.6077 I5.506 J0

(Arc Move)

X-20.3044 Y-64.1017 I0 J5.506

(Line Move)

G1 X-19.4404 Y-64.1017 Z-1.45

(Arc Move)

G3 X-25.8104 Y-57.7317 I-6.37 J0

(Arc Move)

X-32.1804 Y-64.1017 I0 J-6.37

(Arc Move)

X-25.8104 Y-70.4717 I6.37 J0

(Arc Move)

X-19.4404 Y-64.1017 I0 J6.37

(Arc Move)

X-25.8104 Y-57.7317 I-6.37 J0

(Arc Move)

X-32.1804 Y-64.1017 I0 J-6.37

(Arc Move)

X-25.8104 Y-70.4717 I6.37 J0

(Arc Move)

X-19.4404 Y-64.1017 I0 J6.37

(Line Move)

G1 X-25.8104 Y-64.1017 Z-1.45

(Rapid Z up)

G0 Z2.8

(Rapid Z Down)

Z1.05

(Feed Z Down)

G1 Z-1.7 F411.48

(Line Move)

X-25.4884 Y-64.1017 Z-1.7 F822.96

(Arc Move)

G3 X-25.8104 Y-63.7797 I-.322 J0 F1645.92

(Arc Move)

X-26.1324 Y-64.1017 I0 J-.322

(Arc Move)

X-25.8104 Y-64.4237 I.322 J0

(Arc Move)

X-25.4884 Y-64.1017 I0 J.322

(Line Move)

G1 X-24.6244 Y-64.1017 Z-1.7

(Arc Move)

G3 X-25.8104 Y-62.9157 I-1.186 J0

(Arc Move)

X-26.9964 Y-64.1017 I0 J-1.186

(Arc Move)

X-25.8104 Y-65.2877 I1.186 J0

(Arc Move)

X-24.6244 Y-64.1017 I0 J1.186

(Line Move)

G1 X-23.7604 Y-64.1017 Z-1.7

(Arc Move)

G3 X-25.8104 Y-62.0517 I-2.05 J0

(Arc Move)

X-27.8604 Y-64.1017 I0 J-2.05

(Arc Move)

X-25.8104 Y-66.1517 I2.05 J0

(Arc Move)

X-23.7604 Y-64.1017 I0 J2.05

(Line Move)

G1 X-22.8964 Y-64.1017 Z-1.7

(Arc Move)

G3 X-25.8104 Y-61.1877 I-2.914 J0

(Arc Move)

X-28.7244 Y-64.1017 I0 J-2.914

(Arc Move)

X-25.8104 Y-67.0157 I2.914 J0

(Arc Move)

X-22.8964 Y-64.1017 I0 J2.914

(Line Move)

G1 X-22.0324 Y-64.1017 Z-1.7

(Arc Move)

G3 X-25.8104 Y-60.3237 I-3.778 J0

(Arc Move)

X-29.5884 Y-64.1017 I0 J-3.778

(Arc Move)

X-25.8104 Y-67.8797 I3.778 J0

(Arc Move)

X-22.0324 Y-64.1017 I0 J3.778

(Line Move)

G1 X-21.1684 Y-64.1017 Z-1.7

(Arc Move)

G3 X-25.8104 Y-59.4597 I-4.642 J0

(Arc Move)

X-30.4524 Y-64.1017 I0 J-4.642

(Arc Move)

X-25.8104 Y-68.7437 I4.642 J0

(Arc Move)

X-21.1684 Y-64.1017 I0 J4.642

(Line Move)

G1 X-20.3044 Y-64.1017 Z-1.7

(Arc Move)

G3 X-25.8104 Y-58.5957 I-5.506 J0

(Arc Move)

X-31.3164 Y-64.1017 I0 J-5.506

(Arc Move)

X-25.8104 Y-69.6077 I5.506 J0

(Arc Move)

X-20.3044 Y-64.1017 I0 J5.506

(Line Move)

G1 X-19.4404 Y-64.1017 Z-1.7

(Arc Move)

G3 X-25.8104 Y-57.7317 I-6.37 J0

(Arc Move)

X-32.1804 Y-64.1017 I0 J-6.37

(Arc Move)

X-25.8104 Y-70.4717 I6.37 J0

(Arc Move)

X-19.4404 Y-64.1017 I0 J6.37

(Arc Move)

X-25.8104 Y-57.7317 I-6.37 J0

(Arc Move)

X-32.1804 Y-64.1017 I0 J-6.37

(Arc Move)

X-25.8104 Y-70.4717 I6.37 J0

(Arc Move)

X-19.4404 Y-64.1017 I0 J6.37

(Line Move)

G1 X-25.8104 Y-64.1017 Z-1.7

(Rapid Z up)

G0 Z2.8

(Rapid Z up)

Z25.

(Rapid Z Down)

Z3.3

(Feed Z Down)

G1 Z-.78 F411.48

(Line Leadin Move)

X-31.5390 Y-62.9673 F1234.44

(Line Leadin Move)

X-32.3587 Y-63.7352

(Arc Move)

G3 X-32.4269 Y-63.8858 I.1477 J-.1576

(Arc Move)

X-32.4304 Y-64.1017 I6.6165 J-.216 F1645.92

(Arc Move)

X-25.8104 Y-70.7217 I6.62 J0

(Arc Move)

X-19.1904 Y-64.1017 I0 J6.62

(Arc Move)

X-25.8104 Y-57.4817 I-6.62 J0

(Arc Move)

X-32.4304 Y-64.1017 I0 J-6.62

(Arc Move)

X-32.4269 Y-64.3177 I6.62 J0

(Arc Move)

X-32.3587 Y-64.4683 I.2159 J.007

(Line Leadout Move)

G1 X-31.5390 Y-65.2362

(Rapid Z up)

G0 Z3.3

(Rapid Move)

X-25.8104 Y-64.1017

(Rapid Z Down)

Z2.22

(Feed Z Down)

G1 Z-1.7 F411.48

(Line Leadin Move)

X-31.5390 Y-62.9673 F1234.44

(Line Leadin Move)

X-32.3587 Y-63.7352

(Arc Move)

G3 X-32.4269 Y-63.8858 I.1477 J-.1576

(Arc Move)

X-32.4304 Y-64.1017 I6.6165 J-.216 F1645.92

(Arc Move)

X-25.8104 Y-70.7217 I6.62 J0

(Arc Move)

X-19.1904 Y-64.1017 I0 J6.62

(Arc Move)

X-25.8104 Y-57.4817 I-6.62 J0

(Arc Move)

X-32.4304 Y-64.1017 I0 J-6.62

(Arc Move)

X-32.4269 Y-64.3177 I6.62 J0

(Arc Move)

X-32.3587 Y-64.4683 I.2159 J.007

(Line Leadout Move)

G1 X-31.5390 Y-65.2362

(Rapid Z up)

G0 Z3.3

(Last Rapid Z Up)

Z25. M9

(End of Tape)

G53

Z-2 

M5

G4 P1 

m8

M30

(Start of Tape)



(Made in : UPC)

(G Code optimized for RS-CNC32 with GRBL V0.9j controller)



( PART NUMBER=1 )

( PART NAME=  )

( PROGRAMMER=  )

( OPERATION NUMBER=  )

( DATE=  )



G90 G17 G21 G80

m8

(Init Tool Change)

(6MM CRB 2FL 19 LOC)

G53

G0 Z2 

G54

S12000 M3

M8

G4 P1 

(Rapid From Tool Change)

G0 G90 X64.3907 Y-100.1608

(Rapid Z Down)

Z3.

(Feed Z Down)

G1 Z-2. F411.48

(Line Leadin Move)

X63.5852 Y-100.9436 F1234.44

(Arc Move)

G3 X63.5198 Y-101.0954 I.1505 J-.1549

(Arc Move)

G2 X63.5167 Y-101.3114 I-3808.6698 J54.3264 F1645.92

(Line Move)

G1 X63.5032 Y-102.2506 Z-2.

(Line Move)

X62.0986 Y-102.4269 Z-2.

(Line Move)

X61.4451 Y-102.5661 Z-2.

(Line Move)

X60.7688 Y-102.8092 Z-2.

(Line Move)

X58.0919 Y-104.6732 Z-2.

(Line Move)

X55.5171 Y-106.6269 Z-2.

(Line Move)

X52.9011 Y-108.8080 Z-2.

(Line Move)

X51.6885 Y-109.9144 Z-2.

(Line Move)

X50.5369 Y-111.0598 Z-2.

(Line Move)

X49.4536 Y-112.2582 Z-2.

(Line Move)

X48.4387 Y-113.5311 Z-2.

(Line Move)

X47.5228 Y-114.8401 Z-2.

(Line Move)

X46.6758 Y-116.2114 Z-2.

(Line Move)

X45.0601 Y-119.1848 Z-2.

(Line Move) soucis ici

X45.3670 Y-120.6363 Z-2.

(Line Move)

X43.8003 Y-122.0765 Z-2.

(Line Move)

X42.7174 Y-125.3249 Z-2.

(Line Move)

X41.5771 Y-128.5282 Z-2.

(Arc Move)

G2 X39.1646 Y-133.9203 I-34.7455 J12.3101

(Line Move)

G1 X34.1384 Y-143.1754 Z-2.

(Line Move)

X32.7719 Y-145.6671 Z-2.

(Line Move)

X32.0820 Y-146.5898 Z-2.

(Line Move)

X31.6504 Y-146.9992 Z-2.

(Line Move)

X31.1599 Y-147.3596 Z-2.

(Line Move)

X30.6061 Y-147.6698 Z-2.

(Line Move)

X29.9909 Y-147.9105 Z-2.

(Line Move)

X29.3342 Y-148.0473 Z-2.

(Line Move)

X28.6807 Y-148.0661 Z-2.

(Line Move)

X28.0476 Y-147.9850 Z-2.

(Line Move)

X27.4368 Y-147.8169 Z-2.

(Line Move)

X26.4186 Y-147.3649 Z-2.

(Line Move)

X23.3062 Y-145.4392 Z-2.

(Line Move)

X22.5039 Y-144.8777 Z-2.

(Line Move)

X21.7443 Y-144.2174 Z-2.

(Line Move)

X21.0696 Y-143.4959 Z-2.

(Line Move)

X20.4651 Y-142.7091 Z-2.

(Line Move)

X19.9391 Y-141.8968 Z-2.

(Line Move)

X19.0608 Y-140.1930 Z-2.

(Line Move)

X18.4822 Y-138.7202 Z-2.

(Line Move)

X17.9571 Y-137.1825 Z-2.

(Line Move)

X17.6741 Y-136.1138 Z-2.

(Line Move)

X17.4459 Y-135.0064 Z-2.

(Line Move)

X17.2863 Y-133.9406 Z-2.

(Line Move)

X15.2550 Y-109.1582 Z-2.

(Line Move)

X15.0103 Y-107.1296 Z-2.

(Line Move)

X14.7045 Y-105.1122 Z-2.

(Line Move)

X14.3422 Y-103.1472 Z-2.

(Line Move)

X13.9182 Y-101.1884 Z-2.

(Line Move)

X12.8888 Y-97.2072 Z-2.

(Line Move)

X8.2622 Y-81.2445 Z-2.

(Line Move)

X7.1793 Y-77.2579 Z-2.

(Line Move)

X6.2273 Y-73.1848 Z-2.

(Line Move)

X5.4357 Y-69.0801 Z-2.

(Line Move)

X5.1307 Y-66.9669 Z-2.

(Line Move)

X4.9348 Y-64.8871 Z-2.

(Line Move)

X4.8507 Y-62.7687 Z-2.

(Line Move)

X4.8988 Y-58.5391 Z-2.

(Line Move)

X5.0431 Y-56.6928 Z-2.

(Line Move)

X5.3916 Y-53.9182 Z-2.

(Line Move)

X5.9843 Y-51.1539 Z-2.

(Line Move)

X6.6851 Y-48.5368 Z-2.

(Line Move)

X7.2889 Y-46.7739 Z-2.

(Line Move)

X8.0676 Y-45.0087 Z-2.

(Line Move)

X10.1234 Y-40.9507 Z-2.

(Line Move)

X10.1248 Y-40.9480 Z-2.

(Arc Move)

G3 X16.6251 Y-27.9751 I-646.5092 J332.0583

(Line Move)

G1 X16.6271 Y-27.9710 Z-2.

(Line Move)

X16.6291 Y-27.9669 Z-2.

(Arc Move)

G2 X20.9301 Y-20.8907 I44.587 J-22.2555

(Line Move)

G1 X20.9573 Y-20.8533 Z-2.

(Line Move)

X22.5382 Y-19.0325 Z-2.

(Line Move)

X24.5799 Y-17.0352 Z-2.

(Line Move)

X25.7904 Y-15.7743 Z-2.

(Line Move)

X27.2531 Y-13.9439 Z-2.

(Line Move)

X28.4720 Y-12.7679 Z-2.

(Line Move)

X42.6095 Y0.2157 Z-2.

(Line Move)

X43.5663 Y0.9180 Z-2.

(Line Move)

X44.1348 Y1.1912 Z-2.

(Line Move)

X44.7050 Y1.3687 Z-2.

(Line Move)

X45.2985 Y1.4762 Z-2.

(Line Move)

X46.4392 Y1.5398 Z-2.

(Line Move)

X60.9755 Y1.5287 Z-2.

(Line Move)

X61.4721 Y1.5249 Z-2.

(Line Move)

X62.2982 Y1.3611 Z-2.

(Line Move)

X63.6121 Y0.6461 Z-2.

(Line Move)

X63.6199 Y0.0133 Z-2.

(Arc Move)

G2 X63.9072 Y-46.7691 I-3808.77 J-46.7823

(Arc Move)

X63.5167 Y-101.3114 I-3809.0573 J0

(Line Move)

G1 X63.5136 Y-101.5274 Z-2.

(Arc Move)

G3 Y-101.5305 I.216 J-.0031

(Arc Move)

X63.5747 Y-101.6810 I.216 J0

(Line Leadout Move)

G1 X64.3574 Y-102.4865

(Rapid Z up)

G0 Z3.

(Rapid Move)

X64.3907 Y-100.1608

(Rapid Z Down)

Z1.

(Feed Z Down)

G1 Z-3.801 F411.48

(Line Leadin Move)

X63.5852 Y-100.9436 F1234.44

(Arc Move)

G3 X63.5198 Y-101.0954 I.1505 J-.1549

(Arc Move)

G2 X63.5167 Y-101.3114 I-3808.6698 J54.3264 F1645.92

(Line Move)

G1 X63.6400 Y-102.2506 Z-3.801

(Line Move) probleme

X63.6400 Y-102.4269 Z-3.801

(Line Move)

X61.4451 Y-102.5661 Z-3.801

(Line Move)

X60.7688 Y-102.8092 Z-3.801

(Line Move)

X58.0919 Y-104.6732 Z-3.801

(Line Move)

X55.5171 Y-106.6269 Z-3.801

(Line Move)

X52.9011 Y-108.8080 Z-3.801

(Line Move)

X51.6885 Y-109.9144 Z-3.801

(Line Move)

X50.5369 Y-111.0598 Z-3.801

(Line Move)

X49.4536 Y-112.2582 Z-3.801

(Line Move)

X48.4387 Y-113.5311 Z-3.801

(Line Move)

X47.5228 Y-114.8401 Z-3.801

(Line Move)

X46.6758 Y-116.2114 Z-3.801

(Line Move)

X45.0601 Y-119.1848 Z-3.801

(Line Move)

X44.3670 Y-120.6363 Z-3.801

(Line Move)

X43.8003 Y-122.0765 Z-3.801

(Line Move)

X42.7174 Y-125.3249 Z-3.801

(Line Move)

X41.5771 Y-128.5282 Z-3.801

(Arc Move)

G2 X39.1646 Y-133.9203 I-34.7455 J12.3101

(Line Move)

G1 X34.1384 Y-143.1754 Z-3.801

(Line Move)

X32.7719 Y-145.6671 Z-3.801

(Line Move)

X32.0820 Y-146.5898 Z-3.801

(Line Move)

X31.6504 Y-146.9992 Z-3.801

(Line Move)

X31.1599 Y-147.3596 Z-3.801

(Line Move)

X30.6061 Y-147.6698 Z-3.801

(Line Move)

X29.9909 Y-147.9105 Z-3.801

(Line Move)

X29.3342 Y-148.0473 Z-3.801

(Line Move)

X28.6807 Y-148.0661 Z-3.801

(Line Move)

X28.0476 Y-147.9850 Z-3.801

(Line Move)

X27.4368 Y-147.8169 Z-3.801

(Line Move)

X26.4186 Y-147.3649 Z-3.801

(Line Move)

X23.3062 Y-145.4392 Z-3.801

(Line Move)

X22.5039 Y-144.8777 Z-3.801

(Line Move)

X21.7443 Y-144.2174 Z-3.801

(Line Move)

X21.0696 Y-143.4959 Z-3.801

(Line Move)

X20.4651 Y-142.7091 Z-3.801

(Line Move)

X19.9391 Y-141.8968 Z-3.801

(Line Move)

X19.0608 Y-140.1930 Z-3.801

(Line Move)

X18.4822 Y-138.7202 Z-3.801

(Line Move)

X17.9571 Y-137.1825 Z-3.801

(Line Move)

X17.6741 Y-136.1138 Z-3.801

(Line Move)

X17.4459 Y-135.0064 Z-3.801

(Line Move)

X17.2863 Y-133.9406 Z-3.801

(Line Move)

X15.2550 Y-109.1582 Z-3.801

(Line Move)

X15.0103 Y-107.1296 Z-3.801

(Line Move)

X14.7045 Y-105.1122 Z-3.801

(Line Move)

X14.3422 Y-103.1472 Z-3.801

(Line Move)

X13.9182 Y-101.1884 Z-3.801

(Line Move)

X12.8888 Y-97.2072 Z-3.801

(Line Move)

X8.2622 Y-81.2445 Z-3.801

(Line Move)

X7.1793 Y-77.2579 Z-3.801

(Line Move)

X6.2273 Y-73.1848 Z-3.801

(Line Move)

X5.4357 Y-69.0801 Z-3.801

(Line Move)

X5.1307 Y-66.9669 Z-3.801

(Line Move)

X4.9348 Y-64.8871 Z-3.801

(Line Move)

X4.8507 Y-62.7687 Z-3.801

(Line Move)

X4.8988 Y-58.5391 Z-3.801

(Line Move)

X5.0431 Y-56.6928 Z-3.801

(Line Move)

X5.3916 Y-53.9182 Z-3.801

(Line Move)

X5.9843 Y-51.1539 Z-3.801

(Line Move)

X6.6851 Y-48.5368 Z-3.801

(Line Move)

X7.2889 Y-46.7739 Z-3.801

(Line Move)

X8.0676 Y-45.0087 Z-3.801

(Line Move)

X10.1234 Y-40.9507 Z-3.801

(Line Move)

X10.1248 Y-40.9480 Z-3.801

(Arc Move)

G3 X16.6251 Y-27.9751 I-646.5092 J332.0583

(Line Move)

G1 X16.6271 Y-27.9710 Z-3.801

(Line Move)

X16.6291 Y-27.9669 Z-3.801

(Arc Move)

G2 X20.9301 Y-20.8907 I44.587 J-22.2555

(Line Move)

G1 X20.9573 Y-20.8533 Z-3.801

(Line Move)

X22.5382 Y-19.0325 Z-3.801

(Line Move)

X24.5799 Y-17.0352 Z-3.801

(Line Move)

X25.7904 Y-15.7743 Z-3.801

(Line Move)

X27.2531 Y-13.9439 Z-3.801

(Line Move)

X28.4720 Y-12.7679 Z-3.801

(Line Move)

X42.6095 Y0.2157 Z-3.801

(Line Move)

X43.5663 Y0.9180 Z-3.801

(Line Move)

X44.1348 Y1.1912 Z-3.801

(Line Move)

X44.7050 Y1.3687 Z-3.801

(Line Move)

X45.2985 Y1.4762 Z-3.801

(Line Move)

X46.4392 Y1.5398 Z-3.801

(Line Move)

X60.9755 Y1.5287 Z-3.801

(Line Move)

X61.4721 Y1.5249 Z-3.801

(Line Move)

X62.2982 Y1.3611 Z-3.801

(Line Move)

X63.6121 Y0.6461 Z-3.801

(Line Move)

X63.6199 Y0.0133 Z-3.801

(Arc Move)

G2 X63.9072 Y-46.7691 I-3808.77 J-46.7823

(Arc Move)

X63.5167 Y-101.3114 I-3809.0573 J0

(Line Move)

G1 X63.5136 Y-101.5274 Z-3.801

(Arc Move)

G3 Y-101.5305 I.216 J-.0031

(Arc Move)

X63.5747 Y-101.6810 I.216 J0

(Line Leadout Move)

G1 X64.3574 Y-102.4865

(Rapid Z up)

G0 Z3.

(Rapid Move)

X64.3907 Y-100.1608

(Rapid Z Down)

Z-.801

(Feed Z Down)

G1 Z-5.602 F411.48

(Line Leadin Move)

X63.5852 Y-100.9436 F1234.44

(Arc Move)

G3 X63.5198 Y-101.0954 I.1505 J-.1549

(Arc Move)

G2 X63.5167 Y-101.3114 I-3808.6698 J54.3264 F1645.92

(Line Move)

G1 X63.5032 Y-102.2506 Z-5.602

(Line Move)

X62.0986 Y-102.4269 Z-5.602

(Line Move)

X61.4451 Y-102.5661 Z-5.602

(Line Move)

X60.7688 Y-102.8092 Z-5.602

(Line Move)

X58.0919 Y-104.6732 Z-5.602

(Line Move)

X55.5171 Y-106.6269 Z-5.602

(Line Move)

X52.9011 Y-108.8080 Z-5.602

(Line Move)

X51.6885 Y-109.9144 Z-5.602

(Line Move)

X50.5369 Y-111.0598 Z-5.602

(Line Move)

X49.4536 Y-112.2582 Z-5.602

(Line Move)

X48.4387 Y-113.5311 Z-5.602

(Line Move)

X47.5228 Y-114.8401 Z-5.602

(Line Move)

X46.6758 Y-116.2114 Z-5.602

(Line Move)

X45.0601 Y-119.1848 Z-5.602

(Line Move)

X44.3670 Y-120.6363 Z-5.602

(Line Move)

X43.8003 Y-122.0765 Z-5.602

(Line Move)

X42.7174 Y-125.3249 Z-5.602

(Line Move)

X41.5771 Y-128.5282 Z-5.602

(Arc Move)

G2 X39.1646 Y-133.9203 I-34.7455 J12.3101

(Line Move)

G1 X34.1384 Y-143.1754 Z-5.602

(Line Move)

X32.7719 Y-145.6671 Z-5.602

(Line Move)

X32.0820 Y-146.5898 Z-5.602

(Line Move)

X31.6504 Y-146.9992 Z-5.602

(Line Move)

X31.1599 Y-147.3596 Z-5.602

(Line Move)

X30.6061 Y-147.6698 Z-5.602

(Line Move)

X29.9909 Y-147.9105 Z-5.602

(Line Move)

X29.3342 Y-148.0473 Z-5.602

(Line Move)

X28.6807 Y-148.0661 Z-5.602

(Line Move)

X28.0476 Y-147.9850 Z-5.602

(Line Move)

X27.4368 Y-147.8169 Z-5.602

(Line Move)

X26.4186 Y-147.3649 Z-5.602

(Line Move)

X23.3062 Y-145.4392 Z-5.602

(Line Move)

X22.5039 Y-144.8777 Z-5.602

(Line Move)

X21.7443 Y-144.2174 Z-5.602

(Line Move)

X21.0696 Y-143.4959 Z-5.602

(Line Move)

X20.4651 Y-142.7091 Z-5.602

(Line Move)

X19.9391 Y-141.8968 Z-5.602

(Line Move)

X19.0608 Y-140.1930 Z-5.602

(Line Move)

X18.4822 Y-138.7202 Z-5.602

(Line Move)

X17.9571 Y-137.1825 Z-5.602

(Line Move)

X17.6741 Y-136.1138 Z-5.602

(Line Move)

X17.4459 Y-135.0064 Z-5.602

(Line Move)

X17.2863 Y-133.9406 Z-5.602

(Line Move)

X15.2550 Y-109.1582 Z-5.602

(Line Move)

X15.0103 Y-107.1296 Z-5.602

(Line Move)

X14.7045 Y-105.1122 Z-5.602

(Line Move)

X14.3422 Y-103.1472 Z-5.602

(Line Move)

X13.9182 Y-101.1884 Z-5.602

(Line Move)

X12.8888 Y-97.2072 Z-5.602

(Line Move)

X8.2622 Y-81.2445 Z-5.602

(Line Move)

X7.1793 Y-77.2579 Z-5.602

(Line Move)

X6.2273 Y-73.1848 Z-5.602

(Line Move)

X5.4357 Y-69.0801 Z-5.602

(Line Move)

X5.1307 Y-66.9669 Z-5.602

(Line Move)

X4.9348 Y-64.8871 Z-5.602

(Line Move)

X4.8507 Y-62.7687 Z-5.602

(Line Move)

X4.8988 Y-58.5391 Z-5.602

(Line Move)

X5.0431 Y-56.6928 Z-5.602

(Line Move)

X5.3916 Y-53.9182 Z-5.602

(Line Move)

X5.9843 Y-51.1539 Z-5.602

(Line Move)

X6.6851 Y-48.5368 Z-5.602

(Line Move)

X7.2889 Y-46.7739 Z-5.602

(Line Move)

X8.0676 Y-45.0087 Z-5.602

(Line Move)

X10.1234 Y-40.9507 Z-5.602

(Line Move)

X10.1248 Y-40.9480 Z-5.602

(Arc Move)

G3 X16.6251 Y-27.9751 I-646.5092 J332.0583

(Line Move)

G1 X16.6271 Y-27.9710 Z-5.602

(Line Move)

X16.6291 Y-27.9669 Z-5.602

(Arc Move)

G2 X20.9301 Y-20.8907 I44.587 J-22.2555

(Line Move)

G1 X20.9573 Y-20.8533 Z-5.602

(Line Move)

X22.5382 Y-19.0325 Z-5.602

(Line Move)

X24.5799 Y-17.0352 Z-5.602

(Line Move)

X25.7904 Y-15.7743 Z-5.602

(Line Move)

X27.2531 Y-13.9439 Z-5.602

(Line Move)

X28.4720 Y-12.7679 Z-5.602

(Line Move)

X42.6095 Y0.2157 Z-5.602

(Line Move)

X43.5663 Y0.9180 Z-5.602

(Line Move)

X44.1348 Y1.1912 Z-5.602

(Line Move)

X44.7050 Y1.3687 Z-5.602

(Line Move)

X45.2985 Y1.4762 Z-5.602

(Line Move)

X46.4392 Y1.5398 Z-5.602

(Line Move)

X60.9755 Y1.5287 Z-5.602

(Line Move)

X61.4721 Y1.5249 Z-5.602

(Line Move)

X62.2982 Y1.3611 Z-5.602

(Line Move)

X63.6121 Y0.6461 Z-5.602

(Line Move)

X63.6199 Y0.0133 Z-5.602

(Arc Move)

G2 X63.9072 Y-46.7691 I-3808.77 J-46.7823

(Arc Move)

X63.5167 Y-101.3114 I-3809.0573 J0

(Line Move)

G1 X63.5136 Y-101.5274 Z-5.602

(Arc Move)

G3 Y-101.5305 I.216 J-.0031

(Arc Move)

X63.5747 Y-101.6810 I.216 J0

(Line Leadout Move)

G1 X64.3574 Y-102.4865

(Rapid Z up)

G0 Z3.

(Rapid Move)

X64.3907 Y-100.1608

(Rapid Z Down)

Z-2.602

(Feed Z Down)

G1 Z-7.403 F411.48

(Line Leadin Move)

X63.5852 Y-100.9436 F1234.44

(Arc Move)

G3 X63.5198 Y-101.0954 I.1505 J-.1549

(Arc Move)

G2 X63.5167 Y-101.3114 I-3808.6698 J54.3264 F1645.92

(Line Move)

G1 X63.5032 Y-102.2506 Z-7.403

(Line Move)

X62.0986 Y-102.4269 Z-7.403

(Line Move)

X61.4451 Y-102.5661 Z-7.403

(Line Move)

X60.7688 Y-102.8092 Z-7.403

(Line Move)

X58.0919 Y-104.6732 Z-7.403

(Line Move)

X55.5171 Y-106.6269 Z-7.403

(Line Move)

X52.9011 Y-108.8080 Z-7.403

(Line Move)

X51.6885 Y-109.9144 Z-7.403

(Line Move)

X50.5369 Y-111.0598 Z-7.403

(Line Move)

X49.4536 Y-112.2582 Z-7.403

(Line Move)

X48.4387 Y-113.5311 Z-7.403

(Line Move)

X47.5228 Y-114.8401 Z-7.403

(Line Move)

X46.6758 Y-116.2114 Z-7.403

(Line Move)

X45.0601 Y-119.1848 Z-7.403

(Line Move)

X44.3670 Y-120.6363 Z-7.403

(Line Move)

X43.8003 Y-122.0765 Z-7.403

(Line Move)

X42.7174 Y-125.3249 Z-7.403

(Line Move)

X41.5771 Y-128.5282 Z-7.403

(Arc Move)

G2 X39.1646 Y-133.9203 I-34.7455 J12.3101

(Line Move)

G1 X34.1384 Y-143.1754 Z-7.403

(Line Move)

X32.7719 Y-145.6671 Z-7.403

(Line Move)

X32.0820 Y-146.5898 Z-7.403

(Line Move)

X31.6504 Y-146.9992 Z-7.403

(Line Move)

X31.1599 Y-147.3596 Z-7.403

(Line Move)

X30.6061 Y-147.6698 Z-7.403

(Line Move)

X29.9909 Y-147.9105 Z-7.403

(Line Move)

X29.3342 Y-148.0473 Z-7.403

(Line Move)

X28.6807 Y-148.0661 Z-7.403

(Line Move)

X28.0476 Y-147.9850 Z-7.403

(Line Move)

X27.4368 Y-147.8169 Z-7.403

(Line Move)

X26.4186 Y-147.3649 Z-7.403

(Line Move)

X23.3062 Y-145.4392 Z-7.403

(Line Move)

X22.5039 Y-144.8777 Z-7.403

(Line Move)

X21.7443 Y-144.2174 Z-7.403

(Line Move)

X21.0696 Y-143.4959 Z-7.403

(Line Move)

X20.4651 Y-142.7091 Z-7.403

(Line Move)

X19.9391 Y-141.8968 Z-7.403

(Line Move)

X19.0608 Y-140.1930 Z-7.403

(Line Move)

X18.4822 Y-138.7202 Z-7.403

(Line Move)

X17.9571 Y-137.1825 Z-7.403

(Line Move)

X17.6741 Y-136.1138 Z-7.403

(Line Move)

X17.4459 Y-135.0064 Z-7.403

(Line Move)

X17.2863 Y-133.9406 Z-7.403

(Line Move)

X15.2550 Y-109.1582 Z-7.403

(Line Move)

X15.0103 Y-107.1296 Z-7.403

(Line Move)

X14.7045 Y-105.1122 Z-7.403

(Line Move)

X14.3422 Y-103.1472 Z-7.403

(Line Move)

X13.9182 Y-101.1884 Z-7.403

(Line Move)

X12.8888 Y-97.2072 Z-7.403

(Line Move)

X8.2622 Y-81.2445 Z-7.403

(Line Move)

X7.1793 Y-77.2579 Z-7.403

(Line Move)

X6.2273 Y-73.1848 Z-7.403

(Line Move)

X5.4357 Y-69.0801 Z-7.403

(Line Move)

X5.1307 Y-66.9669 Z-7.403

(Line Move)

X4.9348 Y-64.8871 Z-7.403

(Line Move)

X4.8507 Y-62.7687 Z-7.403

(Line Move)

X4.8988 Y-58.5391 Z-7.403

(Line Move)

X5.0431 Y-56.6928 Z-7.403

(Line Move)

X5.3916 Y-53.9182 Z-7.403

(Line Move)

X5.9843 Y-51.1539 Z-7.403

(Line Move)

X6.6851 Y-48.5368 Z-7.403

(Line Move)

X7.2889 Y-46.7739 Z-7.403

(Line Move)

X8.0676 Y-45.0087 Z-7.403

(Line Move)

X10.1234 Y-40.9507 Z-7.403

(Line Move)

X10.1248 Y-40.9480 Z-7.403

(Arc Move)

G3 X16.6251 Y-27.9751 I-646.5092 J332.0583

(Line Move)

G1 X16.6271 Y-27.9710 Z-7.403

(Line Move)

X16.6291 Y-27.9669 Z-7.403

(Arc Move)

G2 X20.9301 Y-20.8907 I44.587 J-22.2555

(Line Move)

G1 X20.9573 Y-20.8533 Z-7.403

(Line Move)

X22.5382 Y-19.0325 Z-7.403

(Line Move)

X24.5799 Y-17.0352 Z-7.403

(Line Move)

X25.7904 Y-15.7743 Z-7.403

(Line Move)

X27.2531 Y-13.9439 Z-7.403

(Line Move)

X28.4720 Y-12.7679 Z-7.403

(Line Move)

X42.6095 Y0.2157 Z-7.403

(Line Move)

X43.5663 Y0.9180 Z-7.403

(Line Move)

X44.1348 Y1.1912 Z-7.403

(Line Move)

X44.7050 Y1.3687 Z-7.403

(Line Move)

X45.2985 Y1.4762 Z-7.403

(Line Move)

X46.4392 Y1.5398 Z-7.403

(Line Move)

X60.9755 Y1.5287 Z-7.403

(Line Move)

X61.4721 Y1.5249 Z-7.403

(Line Move)

X62.2982 Y1.3611 Z-7.403

(Line Move)

X63.6121 Y0.6461 Z-7.403

(Line Move)

X63.6199 Y0.0133 Z-7.403

(Arc Move)

G2 X63.9072 Y-46.7691 I-3808.77 J-46.7823

(Arc Move)

X63.5167 Y-101.3114 I-3809.0573 J0

(Line Move)

G1 X63.5136 Y-101.5274 Z-7.403

(Arc Move)

G3 Y-101.5305 I.216 J-.0031

(Arc Move)

X63.5747 Y-101.6810 I.216 J0

(Line Leadout Move)

G1 X64.3574 Y-102.4865

(Rapid Z up)

G0 Z3.

(Rapid Move)

X64.3907 Y-100.1608

(Rapid Z Down)

Z-4.403

(Feed Z Down)

G1 Z-9.204 F411.48

(Line Leadin Move)

X63.5852 Y-100.9436 F1234.44

(Arc Move)

G3 X63.5198 Y-101.0954 I.1505 J-.1549

(Arc Move)

G2 X63.5167 Y-101.3114 I-3808.6698 J54.3264 F1645.92

(Line Move)

G1 X63.5032 Y-102.2506 Z-9.204

(Line Move)

X62.0986 Y-102.4269 Z-9.204

(Line Move)

X61.4451 Y-102.5661 Z-9.204

(Line Move)

X60.7688 Y-102.8092 Z-9.204

(Line Move)

X58.0919 Y-104.6732 Z-9.204

(Line Move)

X55.5171 Y-106.6269 Z-9.204

(Line Move)

X52.9011 Y-108.8080 Z-9.204

(Line Move)

X51.6885 Y-109.9144 Z-9.204

(Line Move)

X50.5369 Y-111.0598 Z-9.204

(Line Move)

X49.4536 Y-112.2582 Z-9.204

(Line Move)

X48.4387 Y-113.5311 Z-9.204

(Line Move)

X47.5228 Y-114.8401 Z-9.204

(Line Move)

X46.6758 Y-116.2114 Z-9.204

(Line Move)

X45.0601 Y-119.1848 Z-9.204

(Line Move)

X44.3670 Y-120.6363 Z-9.204

(Line Move)

X43.8003 Y-122.0765 Z-9.204

(Line Move)

X42.7174 Y-125.3249 Z-9.204

(Line Move)

X41.5771 Y-128.5282 Z-9.204

(Arc Move)

G2 X39.1646 Y-133.9203 I-34.7455 J12.3101

(Line Move)

G1 X34.1384 Y-143.1754 Z-9.204

(Line Move)

X32.7719 Y-145.6671 Z-9.204

(Line Move)

X32.0820 Y-146.5898 Z-9.204

(Line Move)

X31.6504 Y-146.9992 Z-9.204

(Line Move)

X31.1599 Y-147.3596 Z-9.204

(Line Move)

X30.6061 Y-147.6698 Z-9.204

(Line Move)

X29.9909 Y-147.9105 Z-9.204

(Line Move)

X29.3342 Y-148.0473 Z-9.204

(Line Move)

X28.6807 Y-148.0661 Z-9.204

(Line Move)

X28.0476 Y-147.9850 Z-9.204

(Line Move)

X27.4368 Y-147.8169 Z-9.204

(Line Move)

X26.4186 Y-147.3649 Z-9.204

(Line Move)

X23.3062 Y-145.4392 Z-9.204

(Line Move)

X22.5039 Y-144.8777 Z-9.204

(Line Move)

X21.7443 Y-144.2174 Z-9.204

(Line Move)

X21.0696 Y-143.4959 Z-9.204

(Line Move)

X20.4651 Y-142.7091 Z-9.204

(Line Move)

X19.9391 Y-141.8968 Z-9.204

(Line Move)

X19.0608 Y-140.1930 Z-9.204

(Line Move)

X18.4822 Y-138.7202 Z-9.204

(Line Move)

X17.9571 Y-137.1825 Z-9.204

(Line Move)

X17.6741 Y-136.1138 Z-9.204

(Line Move)

X17.4459 Y-135.0064 Z-9.204

(Line Move)

X17.2863 Y-133.9406 Z-9.204

(Line Move)

X15.2550 Y-109.1582 Z-9.204

(Line Move)

X15.0103 Y-107.1296 Z-9.204

(Line Move)

X14.7045 Y-105.1122 Z-9.204

(Line Move)

X14.3422 Y-103.1472 Z-9.204

(Line Move)

X13.9182 Y-101.1884 Z-9.204

(Line Move)

X12.8888 Y-97.2072 Z-9.204

(Line Move)

X8.2622 Y-81.2445 Z-9.204

(Line Move)

X7.1793 Y-77.2579 Z-9.204

(Line Move)

X6.2273 Y-73.1848 Z-9.204

(Line Move)

X5.4357 Y-69.0801 Z-9.204

(Line Move)

X5.1307 Y-66.9669 Z-9.204

(Line Move)

X4.9348 Y-64.8871 Z-9.204

(Line Move)

X4.8507 Y-62.7687 Z-9.204

(Line Move)

X4.8988 Y-58.5391 Z-9.204

(Line Move)

X5.0431 Y-56.6928 Z-9.204

(Line Move)

X5.3916 Y-53.9182 Z-9.204

(Line Move)

X5.9843 Y-51.1539 Z-9.204

(Line Move)

X6.6851 Y-48.5368 Z-9.204

(Line Move)

X7.2889 Y-46.7739 Z-9.204

(Line Move)

X8.0676 Y-45.0087 Z-9.204

(Line Move)

X10.1234 Y-40.9507 Z-9.204

(Line Move)

X10.1248 Y-40.9480 Z-9.204

(Arc Move)

G3 X16.6251 Y-27.9751 I-646.5092 J332.0583

(Line Move)

G1 X16.6271 Y-27.9710 Z-9.204

(Line Move)

X16.6291 Y-27.9669 Z-9.204

(Arc Move)

G2 X20.9301 Y-20.8907 I44.587 J-22.2555

(Line Move)

G1 X20.9573 Y-20.8533 Z-9.204

(Line Move)

X22.5382 Y-19.0325 Z-9.204

(Line Move)

X24.5799 Y-17.0352 Z-9.204

(Line Move)

X25.7904 Y-15.7743 Z-9.204

(Line Move)

X27.2531 Y-13.9439 Z-9.204

(Line Move)

X28.4720 Y-12.7679 Z-9.204

(Line Move)

X42.6095 Y0.2157 Z-9.204

(Line Move)

X43.5663 Y0.9180 Z-9.204

(Line Move)

X44.1348 Y1.1912 Z-9.204

(Line Move)

X44.7050 Y1.3687 Z-9.204

(Line Move)

X45.2985 Y1.4762 Z-9.204

(Line Move)

X46.4392 Y1.5398 Z-9.204

(Line Move)

X60.9755 Y1.5287 Z-9.204

(Line Move)

X61.4721 Y1.5249 Z-9.204

(Line Move)

X62.2982 Y1.3611 Z-9.204

(Line Move)

X63.6121 Y0.6461 Z-9.204

(Line Move)

X63.6199 Y0.0133 Z-9.204

(Arc Move)

G2 X63.9072 Y-46.7691 I-3808.77 J-46.7823

(Arc Move)

X63.5167 Y-101.3114 I-3809.0573 J0

(Line Move)

G1 X63.5136 Y-101.5274 Z-9.204

(Arc Move)

G3 Y-101.5305 I.216 J-.0031

(Arc Move)

X63.5747 Y-101.6810 I.216 J0

(Line Leadout Move)

G1 X64.3574 Y-102.4865

(Rapid Z up)

G0 Z3.

(Rapid Move)

X64.3907 Y-100.1608

(Rapid Z Down)

Z-6.204

(Feed Z Down)

G1 Z-11.005 F411.48

(Line Leadin Move)

X63.5852 Y-100.9436 F1234.44

(Arc Move)

G3 X63.5198 Y-101.0954 I.1505 J-.1549

(Arc Move)

G2 X63.5167 Y-101.3114 I-3808.6698 J54.3264 F1645.92

(Line Move)

G1 X63.5032 Y-102.2506 Z-11.005

(Line Move)

X62.0986 Y-102.4269 Z-11.005

(Line Move)

X61.4451 Y-102.5661 Z-11.005

(Line Move)

X60.7688 Y-102.8092 Z-11.005

(Line Move)

X58.0919 Y-104.6732 Z-11.005

(Line Move)

X55.5171 Y-106.6269 Z-11.005

(Line Move)

X52.9011 Y-108.8080 Z-11.005

(Line Move)

X51.6885 Y-109.9144 Z-11.005

(Line Move)

X50.5369 Y-111.0598 Z-11.005

(Line Move)

X49.4536 Y-112.2582 Z-11.005

(Line Move)

X48.4387 Y-113.5311 Z-11.005

(Line Move)

X47.5228 Y-114.8401 Z-11.005

(Line Move)

X46.6758 Y-116.2114 Z-11.005

(Line Move)

X45.0601 Y-119.1848 Z-11.005

(Line Move)

X44.3670 Y-120.6363 Z-11.005

(Line Move)

X43.8003 Y-122.0765 Z-11.005

(Line Move)

X42.7174 Y-125.3249 Z-11.005

(Line Move)

X41.5771 Y-128.5282 Z-11.005

(Arc Move)

G2 X39.1646 Y-133.9203 I-34.7455 J12.3101

(Line Move)

G1 X34.1384 Y-143.1754 Z-11.005

(Line Move)

X32.7719 Y-145.6671 Z-11.005

(Line Move)

X32.0820 Y-146.5898 Z-11.005

(Line Move)

X31.6504 Y-146.9992 Z-11.005

(Line Move)

X31.1599 Y-147.3596 Z-11.005

(Line Move)

X30.6061 Y-147.6698 Z-11.005

(Line Move)

X29.9909 Y-147.9105 Z-11.005

(Line Move)

X29.3342 Y-148.0473 Z-11.005

(Line Move)

X28.6807 Y-148.0661 Z-11.005

(Line Move)

X28.0476 Y-147.9850 Z-11.005

(Line Move)

X27.4368 Y-147.8169 Z-11.005

(Line Move)

X26.4186 Y-147.3649 Z-11.005

(Line Move)

X23.3062 Y-145.4392 Z-11.005

(Line Move)

X22.5039 Y-144.8777 Z-11.005

(Line Move)

X21.7443 Y-144.2174 Z-11.005

(Line Move)

X21.0696 Y-143.4959 Z-11.005

(Line Move)

X20.4651 Y-142.7091 Z-11.005

(Line Move)

X19.9391 Y-141.8968 Z-11.005

(Line Move)

X19.0608 Y-140.1930 Z-11.005

(Line Move)

X18.4822 Y-138.7202 Z-11.005

(Line Move)

X17.9571 Y-137.1825 Z-11.005

(Line Move)

X17.6741 Y-136.1138 Z-11.005

(Line Move)

X17.4459 Y-135.0064 Z-11.005

(Line Move)

X17.2863 Y-133.9406 Z-11.005

(Line Move)

X15.2550 Y-109.1582 Z-11.005

(Line Move)

X15.0103 Y-107.1296 Z-11.005

(Line Move)

X14.7045 Y-105.1122 Z-11.005

(Line Move)

X14.3422 Y-103.1472 Z-11.005

(Line Move)

X13.9182 Y-101.1884 Z-11.005

(Line Move)

X12.8888 Y-97.2072 Z-11.005

(Line Move)

X8.2622 Y-81.2445 Z-11.005

(Line Move)

X7.1793 Y-77.2579 Z-11.005

(Line Move)

X6.2273 Y-73.1848 Z-11.005

(Line Move)

X5.4357 Y-69.0801 Z-11.005

(Line Move)

X5.1307 Y-66.9669 Z-11.005

(Line Move)

X4.9348 Y-64.8871 Z-11.005

(Line Move)

X4.8507 Y-62.7687 Z-11.005

(Line Move)

X4.8988 Y-58.5391 Z-11.005

(Line Move)

X5.0431 Y-56.6928 Z-11.005

(Line Move)

X5.3916 Y-53.9182 Z-11.005

(Line Move)

X5.9843 Y-51.1539 Z-11.005

(Line Move)

X6.6851 Y-48.5368 Z-11.005

(Line Move)

X7.2889 Y-46.7739 Z-11.005

(Line Move)

X8.0676 Y-45.0087 Z-11.005

(Line Move)

X10.1234 Y-40.9507 Z-11.005

(Line Move)

X10.1248 Y-40.9480 Z-11.005

(Arc Move)

G3 X16.6251 Y-27.9751 I-646.5092 J332.0583

(Line Move)

G1 X16.6271 Y-27.9710 Z-11.005

(Line Move)

X16.6291 Y-27.9669 Z-11.005

(Arc Move)

G2 X20.9301 Y-20.8907 I44.587 J-22.2555

(Line Move)

G1 X20.9573 Y-20.8533 Z-11.005

(Line Move)

X22.5382 Y-19.0325 Z-11.005

(Line Move)

X24.5799 Y-17.0352 Z-11.005

(Line Move)

X25.7904 Y-15.7743 Z-11.005

(Line Move)

X27.2531 Y-13.9439 Z-11.005

(Line Move)

X28.4720 Y-12.7679 Z-11.005

(Line Move)

X42.6095 Y0.2157 Z-11.005

(Line Move)

X43.5663 Y0.9180 Z-11.005

(Line Move)

X44.1348 Y1.1912 Z-11.005

(Line Move)

X44.7050 Y1.3687 Z-11.005

(Line Move)

X45.2985 Y1.4762 Z-11.005

(Line Move)

X46.4392 Y1.5398 Z-11.005

(Line Move)

X60.9755 Y1.5287 Z-11.005

(Line Move)

X61.4721 Y1.5249 Z-11.005

(Line Move)

X62.2982 Y1.3611 Z-11.005

(Line Move)

X63.6121 Y0.6461 Z-11.005

(Line Move)

X63.6199 Y0.0133 Z-11.005

(Arc Move)

G2 X63.9072 Y-46.7691 I-3808.77 J-46.7823

(Arc Move)

X63.5167 Y-101.3114 I-3809.0573 J0

(Line Move)

G1 X63.5136 Y-101.5274 Z-11.005

(Arc Move)

G3 Y-101.5305 I.216 J-.0031

(Arc Move)

X63.5747 Y-101.6810 I.216 J0

(Line Leadout Move)

G1 X64.3574 Y-102.4865

(Rapid Z up)

G0 Z3.

(Rapid Z up)

Z25.

(Rapid Move)

X36.7296 Y-64.1017

(Rapid Z Down)

Z2.8

(Feed Z Down)

G1 Z-.78 F411.48

(Line Move)

X37.0516 Y-64.1017 Z-.78 F822.96

(Arc Move)

G3 X36.7296 Y-63.7797 I-.322 J0 F1645.92

(Arc Move)

X36.4076 Y-64.1017 I0 J-.322

(Arc Move)

X36.7296 Y-64.4237 I.322 J0

(Arc Move)

X37.0516 Y-64.1017 I0 J.322

(Line Move)

G1 X37.9156 Y-64.1017 Z-.78

(Arc Move)

G3 X36.7296 Y-62.9157 I-1.186 J0

(Arc Move)

X35.5436 Y-64.1017 I0 J-1.186

(Arc Move)

X36.7296 Y-65.2877 I1.186 J0

(Arc Move)

X37.9156 Y-64.1017 I0 J1.186

(Line Move)

G1 X38.7796 Y-64.1017 Z-.78

(Arc Move)

G3 X36.7296 Y-62.0517 I-2.05 J0

(Arc Move)

X34.6796 Y-64.1017 I0 J-2.05

(Arc Move)

X36.7296 Y-66.1517 I2.05 J0

(Arc Move)

X38.7796 Y-64.1017 I0 J2.05

(Line Move)

G1 X39.6436 Y-64.1017 Z-.78

(Arc Move)

G3 X36.7296 Y-61.1877 I-2.914 J0

(Arc Move)

X33.8156 Y-64.1017 I0 J-2.914

(Arc Move)

X36.7296 Y-67.0157 I2.914 J0

(Arc Move)

X39.6436 Y-64.1017 I0 J2.914

(Line Move)

G1 X40.5076 Y-64.1017 Z-.78

(Arc Move)

G3 X36.7296 Y-60.3237 I-3.778 J0

(Arc Move)

X32.9516 Y-64.1017 I0 J-3.778

(Arc Move)

X36.7296 Y-67.8797 I3.778 J0

(Arc Move)

X40.5076 Y-64.1017 I0 J3.778

(Line Move)

G1 X41.3716 Y-64.1017 Z-.78

(Arc Move)

G3 X36.7296 Y-59.4597 I-4.642 J0

(Arc Move)

X32.0876 Y-64.1017 I0 J-4.642

(Arc Move)

X36.7296 Y-68.7437 I4.642 J0

(Arc Move)

X41.3716 Y-64.1017 I0 J4.642

(Line Move)

G1 X42.2356 Y-64.1017 Z-.78

(Arc Move)

G3 X36.7296 Y-58.5957 I-5.506 J0

(Arc Move)

X31.2236 Y-64.1017 I0 J-5.506

(Arc Move)

X36.7296 Y-69.6077 I5.506 J0

(Arc Move)

X42.2356 Y-64.1017 I0 J5.506

(Line Move)

G1 X43.0996 Y-64.1017 Z-.78

(Arc Move)

G3 X36.7296 Y-57.7317 I-6.37 J0

(Arc Move)

X30.3596 Y-64.1017 I0 J-6.37

(Arc Move)

X36.7296 Y-70.4717 I6.37 J0

(Arc Move)

X43.0996 Y-64.1017 I0 J6.37

(Arc Move)

X36.7296 Y-57.7317 I-6.37 J0

(Arc Move)

X30.3596 Y-64.1017 I0 J-6.37

(Arc Move)

X36.7296 Y-70.4717 I6.37 J0

(Arc Move)

X43.0996 Y-64.1017 I0 J6.37

(Line Move)

G1 X36.7296 Y-64.1017 Z-.78

(Rapid Z up)

G0 Z2.8

(Rapid Z Down)

Z1.72

(Feed Z Down)

G1 Z-1.45 F411.48

(Line Move)

X37.0516 Y-64.1017 Z-1.45 F822.96

(Arc Move)

G3 X36.7296 Y-63.7797 I-.322 J0 F1645.92

(Arc Move)

X36.4076 Y-64.1017 I0 J-.322

(Arc Move)

X36.7296 Y-64.4237 I.322 J0

(Arc Move)

X37.0516 Y-64.1017 I0 J.322

(Line Move)

G1 X37.9156 Y-64.1017 Z-1.45

(Arc Move)

G3 X36.7296 Y-62.9157 I-1.186 J0

(Arc Move)

X35.5436 Y-64.1017 I0 J-1.186

(Arc Move)

X36.7296 Y-65.2877 I1.186 J0

(Arc Move)

X37.9156 Y-64.1017 I0 J1.186

(Line Move)

G1 X38.7796 Y-64.1017 Z-1.45

(Arc Move)

G3 X36.7296 Y-62.0517 I-2.05 J0

(Arc Move)

X34.6796 Y-64.1017 I0 J-2.05

(Arc Move)

X36.7296 Y-66.1517 I2.05 J0

(Arc Move)

X38.7796 Y-64.1017 I0 J2.05

(Line Move)

G1 X39.6436 Y-64.1017 Z-1.45

(Arc Move)

G3 X36.7296 Y-61.1877 I-2.914 J0

(Arc Move)

X33.8156 Y-64.1017 I0 J-2.914

(Arc Move)

X36.7296 Y-67.0157 I2.914 J0

(Arc Move)

X39.6436 Y-64.1017 I0 J2.914

(Line Move)

G1 X40.5076 Y-64.1017 Z-1.45

(Arc Move)

G3 X36.7296 Y-60.3237 I-3.778 J0

(Arc Move)

X32.9516 Y-64.1017 I0 J-3.778

(Arc Move)

X36.7296 Y-67.8797 I3.778 J0

(Arc Move)

X40.5076 Y-64.1017 I0 J3.778

(Line Move)

G1 X41.3716 Y-64.1017 Z-1.45

(Arc Move)

G3 X36.7296 Y-59.4597 I-4.642 J0

(Arc Move)

X32.0876 Y-64.1017 I0 J-4.642

(Arc Move)

X36.7296 Y-68.7437 I4.642 J0

(Arc Move)

X41.3716 Y-64.1017 I0 J4.642

(Line Move)

G1 X42.2356 Y-64.1017 Z-1.45

(Arc Move)

G3 X36.7296 Y-58.5957 I-5.506 J0

(Arc Move)

X31.2236 Y-64.1017 I0 J-5.506

(Arc Move)

X36.7296 Y-69.6077 I5.506 J0

(Arc Move)

X42.2356 Y-64.1017 I0 J5.506

(Line Move)

G1 X43.0996 Y-64.1017 Z-1.45

(Arc Move)

G3 X36.7296 Y-57.7317 I-6.37 J0

(Arc Move)

X30.3596 Y-64.1017 I0 J-6.37

(Arc Move)

X36.7296 Y-70.4717 I6.37 J0

(Arc Move)

X43.0996 Y-64.1017 I0 J6.37

(Arc Move)

X36.7296 Y-57.7317 I-6.37 J0

(Arc Move)

X30.3596 Y-64.1017 I0 J-6.37

(Arc Move)

X36.7296 Y-70.4717 I6.37 J0

(Arc Move)

X43.0996 Y-64.1017 I0 J6.37

(Line Move)

G1 X36.7296 Y-64.1017 Z-1.45

(Rapid Z up)

G0 Z2.8

(Rapid Z Down)

Z1.05

(Feed Z Down)

G1 Z-1.7 F411.48

(Line Move)

X37.0516 Y-64.1017 Z-1.7 F822.96

(Arc Move)

G3 X36.7296 Y-63.7797 I-.322 J0 F1645.92

(Arc Move)

X36.4076 Y-64.1017 I0 J-.322

(Arc Move)

X36.7296 Y-64.4237 I.322 J0

(Arc Move)

X37.0516 Y-64.1017 I0 J.322

(Line Move)

G1 X37.9156 Y-64.1017 Z-1.7

(Arc Move)

G3 X36.7296 Y-62.9157 I-1.186 J0

(Arc Move)

X35.5436 Y-64.1017 I0 J-1.186

(Arc Move)

X36.7296 Y-65.2877 I1.186 J0

(Arc Move)

X37.9156 Y-64.1017 I0 J1.186

(Line Move)

G1 X38.7796 Y-64.1017 Z-1.7

(Arc Move)

G3 X36.7296 Y-62.0517 I-2.05 J0

(Arc Move)

X34.6796 Y-64.1017 I0 J-2.05

(Arc Move)

X36.7296 Y-66.1517 I2.05 J0

(Arc Move)

X38.7796 Y-64.1017 I0 J2.05

(Line Move)

G1 X39.6436 Y-64.1017 Z-1.7

(Arc Move)

G3 X36.7296 Y-61.1877 I-2.914 J0

(Arc Move)

X33.8156 Y-64.1017 I0 J-2.914

(Arc Move)

X36.7296 Y-67.0157 I2.914 J0

(Arc Move)

X39.6436 Y-64.1017 I0 J2.914

(Line Move)

G1 X40.5076 Y-64.1017 Z-1.7

(Arc Move)

G3 X36.7296 Y-60.3237 I-3.778 J0

(Arc Move)

X32.9516 Y-64.1017 I0 J-3.778

(Arc Move)

X36.7296 Y-67.8797 I3.778 J0

(Arc Move)

X40.5076 Y-64.1017 I0 J3.778

(Line Move)

G1 X41.3716 Y-64.1017 Z-1.7

(Arc Move)

G3 X36.7296 Y-59.4597 I-4.642 J0

(Arc Move)

X32.0876 Y-64.1017 I0 J-4.642

(Arc Move)

X36.7296 Y-68.7437 I4.642 J0

(Arc Move)

X41.3716 Y-64.1017 I0 J4.642

(Line Move)

G1 X42.2356 Y-64.1017 Z-1.7

(Arc Move)

G3 X36.7296 Y-58.5957 I-5.506 J0

(Arc Move)

X31.2236 Y-64.1017 I0 J-5.506

(Arc Move)

X36.7296 Y-69.6077 I5.506 J0

(Arc Move)

X42.2356 Y-64.1017 I0 J5.506

(Line Move)

G1 X43.0996 Y-64.1017 Z-1.7

(Arc Move)

G3 X36.7296 Y-57.7317 I-6.37 J0

(Arc Move)

X30.3596 Y-64.1017 I0 J-6.37

(Arc Move)

X36.7296 Y-70.4717 I6.37 J0

(Arc Move)

X43.0996 Y-64.1017 I0 J6.37

(Arc Move)

X36.7296 Y-57.7317 I-6.37 J0

(Arc Move)

X30.3596 Y-64.1017 I0 J-6.37

(Arc Move)

X36.7296 Y-70.4717 I6.37 J0

(Arc Move)

X43.0996 Y-64.1017 I0 J6.37

(Line Move)

G1 X36.7296 Y-64.1017 Z-1.7

(Rapid Z up)

G0 Z2.8

(Rapid Z up)

Z25.

(Rapid Z Down)

Z3.3

(Feed Z Down)

G1 Z-.78 F411.48

(Line Leadin Move)

X31.0010 Y-62.9673 F1234.44

(Line Leadin Move)

X30.1813 Y-63.7352

(Arc Move)

G3 X30.1131 Y-63.8858 I.1477 J-.1576

(Arc Move)

X30.1096 Y-64.1017 I6.6165 J-.216 F1645.92

(Arc Move)

X36.7296 Y-70.7217 I6.62 J0

(Arc Move)

X43.3496 Y-64.1017 I0 J6.62

(Arc Move)

X36.7296 Y-57.4817 I-6.62 J0

(Arc Move)

X30.1096 Y-64.1017 I0 J-6.62

(Arc Move)

X30.1131 Y-64.3177 I6.62 J0

(Arc Move)

X30.1813 Y-64.4683 I.2159 J.007

(Line Leadout Move)

G1 X31.0010 Y-65.2362

(Rapid Z up)

G0 Z3.3

(Rapid Move)

X36.7296 Y-64.1017

(Rapid Z Down)

Z2.22

(Feed Z Down)

G1 Z-1.7 F411.48

(Line Leadin Move)

X31.0010 Y-62.9673 F1234.44

(Line Leadin Move)

X30.1813 Y-63.7352

(Arc Move)

G3 X30.1131 Y-63.8858 I.1477 J-.1576

(Arc Move)

X30.1096 Y-64.1017 I6.6165 J-.216 F1645.92

(Arc Move)

X36.7296 Y-70.7217 I6.62 J0

(Arc Move)

X43.3496 Y-64.1017 I0 J6.62

(Arc Move)

X36.7296 Y-57.4817 I-6.62 J0

(Arc Move)

X30.1096 Y-64.1017 I0 J-6.62

(Arc Move)

X30.1131 Y-64.3177 I6.62 J0

(Arc Move)

X30.1813 Y-64.4683 I.2159 J.007

(Line Leadout Move)

G1 X31.0010 Y-65.2362

(Rapid Z up)

G0 Z3.3

(Last Rapid Z Up)

Z25. M9

(End of Tape)

G53

Z-2 

M5

G4 P1 

m8

M30

(Start of Tape)



(Made in : UPC)

(G Code optimized for RS-CNC32 with GRBL V0.9j controller)



( PART NUMBER=1 )

( PART NAME=  )

( PROGRAMMER=  )

( OPERATION NUMBER=  )

( DATE=  )



G90 G17 G21 G80

m8

(Init Tool Change)

(6MM CRB 2FL 19 LOC)

G53

G0 Z2 

G54

S12000 M3

M8

G4 P1 

(Rapid From Tool Change)

G0 G90 X126.9307 Y-100.1608

(Rapid Z Down)

Z3.

(Feed Z Down)

G1 Z-2. F411.48

(Line Leadin Move)

X126.1252 Y-100.9436 F1234.44

(Arc Move)

G3 X126.0598 Y-101.0954 I.1505 J-.1549

(Arc Move)

G2 X126.0567 Y-101.3114 I-3808.6698 J54.3264 F1645.92

(Line Move)

G1 X126.0432 Y-102.2506 Z-2.

(Line Move)

X124.6386 Y-102.4269 Z-2.

(Line Move)

X123.9851 Y-102.5661 Z-2.

(Line Move)

X123.3088 Y-102.8092 Z-2.

(Line Move)

X120.6319 Y-104.6732 Z-2.

(Line Move)

X118.0571 Y-106.6269 Z-2.

(Line Move)

X115.4411 Y-108.8080 Z-2.

(Line Move)

X114.2285 Y-109.9144 Z-2.

(Line Move)

X113.0769 Y-111.0598 Z-2.

(Line Move)

X111.9936 Y-112.2582 Z-2.

(Line Move)

X110.9787 Y-113.5311 Z-2.

(Line Move)

X110.0628 Y-114.8401 Z-2.

(Line Move)

X109.2158 Y-116.2114 Z-2.

(Line Move)

X107.6001 Y-119.1848 Z-2.

(Line Move) soucis ici

X107.9070 Y-120.6363 Z-2.

(Line Move)

X106.3403 Y-122.0765 Z-2.

(Line Move)

X105.2574 Y-125.3249 Z-2.

(Line Move)

X104.1171 Y-128.5282 Z-2.

(Arc Move)

G2 X101.7046 Y-133.9203 I-34.7455 J12.3101

(Line Move)

G1 X96.6784 Y-143.1754 Z-2.

(Line Move)

X95.3119 Y-145.6671 Z-2.

(Line Move)

X94.6220 Y-146.5898 Z-2.

(Line Move)

X94.1904 Y-146.9992 Z-2.

(Line Move)

X93.6999 Y-147.3596 Z-2.

(Line Move)

X93.1461 Y-147.6698 Z-2.

(Line Move)

X92.5309 Y-147.9105 Z-2.

(Line Move)

X91.8742 Y-148.0473 Z-2.

(Line Move)

X91.2207 Y-148.0661 Z-2.

(Line Move)

X90.5876 Y-147.9850 Z-2.

(Line Move)

X89.9768 Y-147.8169 Z-2.

(Line Move)

X88.9586 Y-147.3649 Z-2.

(Line Move)

X85.8462 Y-145.4392 Z-2.

(Line Move)

X85.0439 Y-144.8777 Z-2.

(Line Move)

X84.2843 Y-144.2174 Z-2.

(Line Move)

X83.6096 Y-143.4959 Z-2.

(Line Move)

X83.0051 Y-142.7091 Z-2.

(Line Move)

X82.4791 Y-141.8968 Z-2.

(Line Move)

X81.6008 Y-140.1930 Z-2.

(Line Move)

X81.0222 Y-138.7202 Z-2.

(Line Move)

X80.4971 Y-137.1825 Z-2.

(Line Move)

X80.2141 Y-136.1138 Z-2.

(Line Move)

X79.9859 Y-135.0064 Z-2.

(Line Move)

X79.8263 Y-133.9406 Z-2.

(Line Move)

X77.7950 Y-109.1582 Z-2.

(Line Move)

X77.5503 Y-107.1296 Z-2.

(Line Move)

X77.2445 Y-105.1122 Z-2.

(Line Move)

X76.8822 Y-103.1472 Z-2.

(Line Move)

X76.4582 Y-101.1884 Z-2.

(Line Move)

X75.4288 Y-97.2072 Z-2.

(Line Move)

X70.8022 Y-81.2445 Z-2.

(Line Move)

X69.7193 Y-77.2579 Z-2.

(Line Move)

X68.7673 Y-73.1848 Z-2.

(Line Move)

X67.9757 Y-69.0801 Z-2.

(Line Move)

X67.6707 Y-66.9669 Z-2.

(Line Move)

X67.4748 Y-64.8871 Z-2.

(Line Move)

X67.3907 Y-62.7687 Z-2.

(Line Move)

X67.4388 Y-58.5391 Z-2.

(Line Move)

X67.5831 Y-56.6928 Z-2.

(Line Move)

X67.9316 Y-53.9182 Z-2.

(Line Move)

X68.5243 Y-51.1539 Z-2.

(Line Move)

X69.2251 Y-48.5368 Z-2.

(Line Move)

X69.8289 Y-46.7739 Z-2.

(Line Move)

X70.6076 Y-45.0087 Z-2.

(Line Move)

X72.6634 Y-40.9507 Z-2.

(Line Move)

X72.6648 Y-40.9480 Z-2.

(Arc Move)

G3 X79.1651 Y-27.9751 I-646.5092 J332.0583

(Line Move)

G1 X79.1671 Y-27.9710 Z-2.

(Line Move)

X79.1691 Y-27.9669 Z-2.

(Arc Move)

G2 X83.4701 Y-20.8907 I44.587 J-22.2555

(Line Move)

G1 X83.4973 Y-20.8533 Z-2.

(Line Move)

X85.0782 Y-19.0325 Z-2.

(Line Move)

X87.1199 Y-17.0352 Z-2.

(Line Move)

X88.3304 Y-15.7743 Z-2.

(Line Move)

X89.7931 Y-13.9439 Z-2.

(Line Move)

X91.0120 Y-12.7679 Z-2.

(Line Move)

X105.1495 Y0.2157 Z-2.

(Line Move)

X106.1063 Y0.9180 Z-2.

(Line Move)

X106.6748 Y1.1912 Z-2.

(Line Move)

X107.2450 Y1.3687 Z-2.

(Line Move)

X107.8385 Y1.4762 Z-2.

(Line Move)

X108.9792 Y1.5398 Z-2.

(Line Move)

X123.5155 Y1.5287 Z-2.

(Line Move)

X124.0121 Y1.5249 Z-2.

(Line Move)

X124.8382 Y1.3611 Z-2.

(Line Move)

X126.1521 Y0.6461 Z-2.

(Line Move)

X126.1599 Y0.0133 Z-2.

(Arc Move)

G2 X126.4472 Y-46.7691 I-3808.77 J-46.7823

(Arc Move)

X126.0567 Y-101.3114 I-3809.0573 J0

(Line Move)

G1 X126.0536 Y-101.5274 Z-2.

(Arc Move)

G3 Y-101.5305 I.216 J-.0031

(Arc Move)

X126.1147 Y-101.6810 I.216 J0

(Line Leadout Move)

G1 X126.8974 Y-102.4865

(Rapid Z up)

G0 Z3.

(Rapid Move)

X126.9307 Y-100.1608

(Rapid Z Down)

Z1.

(Feed Z Down)

G1 Z-3.801 F411.48

(Line Leadin Move)

X126.1252 Y-100.9436 F1234.44

(Arc Move)

G3 X126.0598 Y-101.0954 I.1505 J-.1549

(Arc Move)

G2 X126.0567 Y-101.3114 I-3808.6698 J54.3264 F1645.92

(Line Move)

G1 X126.1800 Y-102.2506 Z-3.801

(Line Move) probleme

X126.1800 Y-102.4269 Z-3.801

(Line Move)

X123.9851 Y-102.5661 Z-3.801

(Line Move)

X123.3088 Y-102.8092 Z-3.801

(Line Move)

X120.6319 Y-104.6732 Z-3.801

(Line Move)

X118.0571 Y-106.6269 Z-3.801

(Line Move)

X115.4411 Y-108.8080 Z-3.801

(Line Move)

X114.2285 Y-109.9144 Z-3.801

(Line Move)

X113.0769 Y-111.0598 Z-3.801

(Line Move)

X111.9936 Y-112.2582 Z-3.801

(Line Move)

X110.9787 Y-113.5311 Z-3.801

(Line Move)

X110.0628 Y-114.8401 Z-3.801

(Line Move)

X109.2158 Y-116.2114 Z-3.801

(Line Move)

X107.6001 Y-119.1848 Z-3.801

(Line Move)

X106.9070 Y-120.6363 Z-3.801

(Line Move)

X106.3403 Y-122.0765 Z-3.801

(Line Move)

X105.2574 Y-125.3249 Z-3.801

(Line Move)

X104.1171 Y-128.5282 Z-3.801

(Arc Move)

G2 X101.7046 Y-133.9203 I-34.7455 J12.3101

(Line Move)

G1 X96.6784 Y-143.1754 Z-3.801

(Line Move)

X95.3119 Y-145.6671 Z-3.801

(Line Move)

X94.6220 Y-146.5898 Z-3.801

(Line Move)

X94.1904 Y-146.9992 Z-3.801

(Line Move)

X93.6999 Y-147.3596 Z-3.801

(Line Move)

X93.1461 Y-147.6698 Z-3.801

(Line Move)

X92.5309 Y-147.9105 Z-3.801

(Line Move)

X91.8742 Y-148.0473 Z-3.801

(Line Move)

X91.2207 Y-148.0661 Z-3.801

(Line Move)

X90.5876 Y-147.9850 Z-3.801

(Line Move)

X89.9768 Y-147.8169 Z-3.801

(Line Move)

X88.9586 Y-147.3649 Z-3.801

(Line Move)

X85.8462 Y-145.4392 Z-3.801

(Line Move)

X85.0439 Y-144.8777 Z-3.801

(Line Move)

X84.2843 Y-144.2174 Z-3.801

(Line Move)

X83.6096 Y-143.4959 Z-3.801

(Line Move)

X83.0051 Y-142.7091 Z-3.801

(Line Move)

X82.4791 Y-141.8968 Z-3.801

(Line Move)

X81.6008 Y-140.1930 Z-3.801

(Line Move)

X81.0222 Y-138.7202 Z-3.801

(Line Move)

X80.4971 Y-137.1825 Z-3.801

(Line Move)

X80.2141 Y-136.1138 Z-3.801

(Line Move)

X79.9859 Y-135.0064 Z-3.801

(Line Move)

X79.8263 Y-133.9406 Z-3.801

(Line Move)

X77.7950 Y-109.1582 Z-3.801

(Line Move)

X77.5503 Y-107.1296 Z-3.801

(Line Move)

X77.2445 Y-105.1122 Z-3.801

(Line Move)

X76.8822 Y-103.1472 Z-3.801

(Line Move)

X76.4582 Y-101.1884 Z-3.801

(Line Move)

X75.4288 Y-97.2072 Z-3.801

(Line Move)

X70.8022 Y-81.2445 Z-3.801

(Line Move)

X69.7193 Y-77.2579 Z-3.801

(Line Move)

X68.7673 Y-73.1848 Z-3.801

(Line Move)

X67.9757 Y-69.0801 Z-3.801

(Line Move)

X67.6707 Y-66.9669 Z-3.801

(Line Move)

X67.4748 Y-64.8871 Z-3.801

(Line Move)

X67.3907 Y-62.7687 Z-3.801

(Line Move)

X67.4388 Y-58.5391 Z-3.801

(Line Move)

X67.5831 Y-56.6928 Z-3.801

(Line Move)

X67.9316 Y-53.9182 Z-3.801

(Line Move)

X68.5243 Y-51.1539 Z-3.801

(Line Move)

X69.2251 Y-48.5368 Z-3.801

(Line Move)

X69.8289 Y-46.7739 Z-3.801

(Line Move)

X70.6076 Y-45.0087 Z-3.801

(Line Move)

X72.6634 Y-40.9507 Z-3.801

(Line Move)

X72.6648 Y-40.9480 Z-3.801

(Arc Move)

G3 X79.1651 Y-27.9751 I-646.5092 J332.0583

(Line Move)

G1 X79.1671 Y-27.9710 Z-3.801

(Line Move)

X79.1691 Y-27.9669 Z-3.801

(Arc Move)

G2 X83.4701 Y-20.8907 I44.587 J-22.2555

(Line Move)

G1 X83.4973 Y-20.8533 Z-3.801

(Line Move)

X85.0782 Y-19.0325 Z-3.801

(Line Move)

X87.1199 Y-17.0352 Z-3.801

(Line Move)

X88.3304 Y-15.7743 Z-3.801

(Line Move)

X89.7931 Y-13.9439 Z-3.801

(Line Move)

X91.0120 Y-12.7679 Z-3.801

(Line Move)

X105.1495 Y0.2157 Z-3.801

(Line Move)

X106.1063 Y0.9180 Z-3.801

(Line Move)

X106.6748 Y1.1912 Z-3.801

(Line Move)

X107.2450 Y1.3687 Z-3.801

(Line Move)

X107.8385 Y1.4762 Z-3.801

(Line Move)

X108.9792 Y1.5398 Z-3.801

(Line Move)

X123.5155 Y1.5287 Z-3.801

(Line Move)

X124.0121 Y1.5249 Z-3.801

(Line Move)

X124.8382 Y1.3611 Z-3.801

(Line Move)

X126.1521 Y0.6461 Z-3.801

(Line Move)

X126.1599 Y0.0133 Z-3.801

(Arc Move)

G2 X126.4472 Y-46.7691 I-3808.77 J-46.7823

(Arc Move)

X126.0567 Y-101.3114 I-3809.0573 J0

(Line Move)

G1 X126.0536 Y-101.5274 Z-3.801

(Arc Move)

G3 Y-101.5305 I.216 J-.0031

(Arc Move)

X126.1147 Y-101.6810 I.216 J0

(Line Leadout Move)

G1 X126.8974 Y-102.4865

(Rapid Z up)

G0 Z3.

(Rapid Move)

X126.9307 Y-100.1608

(Rapid Z Down)

Z-.801

(Feed Z Down)

G1 Z-5.602 F411.48

(Line Leadin Move)

X126.1252 Y-100.9436 F1234.44

(Arc Move)

G3 X126.0598 Y-101.0954 I.1505 J-.1549

(Arc Move)

G2 X126.0567 Y-101.3114 I-3808.6698 J54.3264 F1645.92

(Line Move)

G1 X126.0432 Y-102.2506 Z-5.602

(Line Move)

X124.6386 Y-102.4269 Z-5.602

(Line Move)

X123.9851 Y-102.5661 Z-5.602

(Line Move)

X123.3088 Y-102.8092 Z-5.602

(Line Move)

X120.6319 Y-104.6732 Z-5.602

(Line Move)

X118.0571 Y-106.6269 Z-5.602

(Line Move)

X115.4411 Y-108.8080 Z-5.602

(Line Move)

X114.2285 Y-109.9144 Z-5.602

(Line Move)

X113.0769 Y-111.0598 Z-5.602

(Line Move)

X111.9936 Y-112.2582 Z-5.602

(Line Move)

X110.9787 Y-113.5311 Z-5.602

(Line Move)

X110.0628 Y-114.8401 Z-5.602

(Line Move)

X109.2158 Y-116.2114 Z-5.602

(Line Move)

X107.6001 Y-119.1848 Z-5.602

(Line Move)

X106.9070 Y-120.6363 Z-5.602

(Line Move)

X106.3403 Y-122.0765 Z-5.602

(Line Move)

X105.2574 Y-125.3249 Z-5.602

(Line Move)

X104.1171 Y-128.5282 Z-5.602

(Arc Move)

G2 X101.7046 Y-133.9203 I-34.7455 J12.3101

(Line Move)

G1 X96.6784 Y-143.1754 Z-5.602

(Line Move)

X95.3119 Y-145.6671 Z-5.602

(Line Move)

X94.6220 Y-146.5898 Z-5.602

(Line Move)

X94.1904 Y-146.9992 Z-5.602

(Line Move)

X93.6999 Y-147.3596 Z-5.602

(Line Move)

X93.1461 Y-147.6698 Z-5.602

(Line Move)

X92.5309 Y-147.9105 Z-5.602

(Line Move)

X91.8742 Y-148.0473 Z-5.602

(Line Move)

X91.2207 Y-148.0661 Z-5.602

(Line Move)

X90.5876 Y-147.9850 Z-5.602

(Line Move)

X89.9768 Y-147.8169 Z-5.602

(Line Move)

X88.9586 Y-147.3649 Z-5.602

(Line Move)

X85.8462 Y-145.4392 Z-5.602

(Line Move)

X85.0439 Y-144.8777 Z-5.602

(Line Move)

X84.2843 Y-144.2174 Z-5.602

(Line Move)

X83.6096 Y-143.4959 Z-5.602

(Line Move)

X83.0051 Y-142.7091 Z-5.602

(Line Move)

X82.4791 Y-141.8968 Z-5.602

(Line Move)

X81.6008 Y-140.1930 Z-5.602

(Line Move)

X81.0222 Y-138.7202 Z-5.602

(Line Move)

X80.4971 Y-137.1825 Z-5.602

(Line Move)

X80.2141 Y-136.1138 Z-5.602

(Line Move)

X79.9859 Y-135.0064 Z-5.602

(Line Move)

X79.8263 Y-133.9406 Z-5.602

(Line Move)

X77.7950 Y-109.1582 Z-5.602

(Line Move)

X77.5503 Y-107.1296 Z-5.602

(Line Move)

X77.2445 Y-105.1122 Z-5.602

(Line Move)

X76.8822 Y-103.1472 Z-5.602

(Line Move)

X76.4582 Y-101.1884 Z-5.602

(Line Move)

X75.4288 Y-97.2072 Z-5.602

(Line Move)

X70.8022 Y-81.2445 Z-5.602

(Line Move)

X69.7193 Y-77.2579 Z-5.602

(Line Move)

X68.7673 Y-73.1848 Z-5.602

(Line Move)

X67.9757 Y-69.0801 Z-5.602

(Line Move)

X67.6707 Y-66.9669 Z-5.602

(Line Move)

X67.4748 Y-64.8871 Z-5.602

(Line Move)

X67.3907 Y-62.7687 Z-5.602

(Line Move)

X67.4388 Y-58.5391 Z-5.602

(Line Move)

X67.5831 Y-56.6928 Z-5.602

(Line Move)

X67.9316 Y-53.9182 Z-5.602

(Line Move)

X68.5243 Y-51.1539 Z-5.602

(Line Move)

X69.2251 Y-48.5368 Z-5.602

(Line Move)

X69.8289 Y-46.7739 Z-5.602

(Line Move)

X70.6076 Y-45.0087 Z-5.602

(Line Move)

X72.6634 Y-40.9507 Z-5.602

(Line Move)

X72.6648 Y-40.9480 Z-5.602

(Arc Move)

G3 X79.1651 Y-27.9751 I-646.5092 J332.0583

(Line Move)

G1 X79.1671 Y-27.9710 Z-5.602

(Line Move)

X79.1691 Y-27.9669 Z-5.602

(Arc Move)

G2 X83.4701 Y-20.8907 I44.587 J-22.2555

(Line Move)

G1 X83.4973 Y-20.8533 Z-5.602

(Line Move)

X85.0782 Y-19.0325 Z-5.602

(Line Move)

X87.1199 Y-17.0352 Z-5.602

(Line Move)

X88.3304 Y-15.7743 Z-5.602

(Line Move)

X89.7931 Y-13.9439 Z-5.602

(Line Move)

X91.0120 Y-12.7679 Z-5.602

(Line Move)

X105.1495 Y0.2157 Z-5.602

(Line Move)

X106.1063 Y0.9180 Z-5.602

(Line Move)

X106.6748 Y1.1912 Z-5.602

(Line Move)

X107.2450 Y1.3687 Z-5.602

(Line Move)

X107.8385 Y1.4762 Z-5.602

(Line Move)

X108.9792 Y1.5398 Z-5.602

(Line Move)

X123.5155 Y1.5287 Z-5.602

(Line Move)

X124.0121 Y1.5249 Z-5.602

(Line Move)

X124.8382 Y1.3611 Z-5.602

(Line Move)

X126.1521 Y0.6461 Z-5.602

(Line Move)

X126.1599 Y0.0133 Z-5.602

(Arc Move)

G2 X126.4472 Y-46.7691 I-3808.77 J-46.7823

(Arc Move)

X126.0567 Y-101.3114 I-3809.0573 J0

(Line Move)

G1 X126.0536 Y-101.5274 Z-5.602

(Arc Move)

G3 Y-101.5305 I.216 J-.0031

(Arc Move)

X126.1147 Y-101.6810 I.216 J0

(Line Leadout Move)

G1 X126.8974 Y-102.4865

(Rapid Z up)

G0 Z3.

(Rapid Move)

X126.9307 Y-100.1608

(Rapid Z Down)

Z-2.602

(Feed Z Down)

G1 Z-7.403 F411.48

(Line Leadin Move)

X126.1252 Y-100.9436 F1234.44

(Arc Move)

G3 X126.0598 Y-101.0954 I.1505 J-.1549

(Arc Move)

G2 X126.0567 Y-101.3114 I-3808.6698 J54.3264 F1645.92

(Line Move)

G1 X126.0432 Y-102.2506 Z-7.403

(Line Move)

X124.6386 Y-102.4269 Z-7.403

(Line Move)

X123.9851 Y-102.5661 Z-7.403

(Line Move)

X123.3088 Y-102.8092 Z-7.403

(Line Move)

X120.6319 Y-104.6732 Z-7.403

(Line Move)

X118.0571 Y-106.6269 Z-7.403

(Line Move)

X115.4411 Y-108.8080 Z-7.403

(Line Move)

X114.2285 Y-109.9144 Z-7.403

(Line Move)

X113.0769 Y-111.0598 Z-7.403

(Line Move)

X111.9936 Y-112.2582 Z-7.403

(Line Move)

X110.9787 Y-113.5311 Z-7.403

(Line Move)

X110.0628 Y-114.8401 Z-7.403

(Line Move)

X109.2158 Y-116.2114 Z-7.403

(Line Move)

X107.6001 Y-119.1848 Z-7.403

(Line Move)

X106.9070 Y-120.6363 Z-7.403

(Line Move)

X106.3403 Y-122.0765 Z-7.403

(Line Move)

X105.2574 Y-125.3249 Z-7.403

(Line Move)

X104.1171 Y-128.5282 Z-7.403

(Arc Move)

G2 X101.7046 Y-133.9203 I-34.7455 J12.3101

(Line Move)

G1 X96.6784 Y-143.1754 Z-7.403

(Line Move)

X95.3119 Y-145.6671 Z-7.403

(Line Move)

X94.6220 Y-146.5898 Z-7.403

(Line Move)

X94.1904 Y-146.9992 Z-7.403

(Line Move)

X93.6999 Y-147.3596 Z-7.403

(Line Move)

X93.1461 Y-147.6698 Z-7.403

(Line Move)

X92.5309 Y-147.9105 Z-7.403

(Line Move)

X91.8742 Y-148.0473 Z-7.403

(Line Move)

X91.2207 Y-148.0661 Z-7.403

(Line Move)

X90.5876 Y-147.9850 Z-7.403

(Line Move)

X89.9768 Y-147.8169 Z-7.403

(Line Move)

X88.9586 Y-147.3649 Z-7.403

(Line Move)

X85.8462 Y-145.4392 Z-7.403

(Line Move)

X85.0439 Y-144.8777 Z-7.403

(Line Move)

X84.2843 Y-144.2174 Z-7.403

(Line Move)

X83.6096 Y-143.4959 Z-7.403

(Line Move)

X83.0051 Y-142.7091 Z-7.403

(Line Move)

X82.4791 Y-141.8968 Z-7.403

(Line Move)

X81.6008 Y-140.1930 Z-7.403

(Line Move)

X81.0222 Y-138.7202 Z-7.403

(Line Move)

X80.4971 Y-137.1825 Z-7.403

(Line Move)

X80.2141 Y-136.1138 Z-7.403

(Line Move)

X79.9859 Y-135.0064 Z-7.403

(Line Move)

X79.8263 Y-133.9406 Z-7.403

(Line Move)

X77.7950 Y-109.1582 Z-7.403

(Line Move)

X77.5503 Y-107.1296 Z-7.403

(Line Move)

X77.2445 Y-105.1122 Z-7.403

(Line Move)

X76.8822 Y-103.1472 Z-7.403

(Line Move)

X76.4582 Y-101.1884 Z-7.403

(Line Move)

X75.4288 Y-97.2072 Z-7.403

(Line Move)

X70.8022 Y-81.2445 Z-7.403

(Line Move)

X69.7193 Y-77.2579 Z-7.403

(Line Move)

X68.7673 Y-73.1848 Z-7.403

(Line Move)

X67.9757 Y-69.0801 Z-7.403

(Line Move)

X67.6707 Y-66.9669 Z-7.403

(Line Move)

X67.4748 Y-64.8871 Z-7.403

(Line Move)

X67.3907 Y-62.7687 Z-7.403

(Line Move)

X67.4388 Y-58.5391 Z-7.403

(Line Move)

X67.5831 Y-56.6928 Z-7.403

(Line Move)

X67.9316 Y-53.9182 Z-7.403

(Line Move)

X68.5243 Y-51.1539 Z-7.403

(Line Move)

X69.2251 Y-48.5368 Z-7.403

(Line Move)

X69.8289 Y-46.7739 Z-7.403

(Line Move)

X70.6076 Y-45.0087 Z-7.403

(Line Move)

X72.6634 Y-40.9507 Z-7.403

(Line Move)

X72.6648 Y-40.9480 Z-7.403

(Arc Move)

G3 X79.1651 Y-27.9751 I-646.5092 J332.0583

(Line Move)

G1 X79.1671 Y-27.9710 Z-7.403

(Line Move)

X79.1691 Y-27.9669 Z-7.403

(Arc Move)

G2 X83.4701 Y-20.8907 I44.587 J-22.2555

(Line Move)

G1 X83.4973 Y-20.8533 Z-7.403

(Line Move)

X85.0782 Y-19.0325 Z-7.403

(Line Move)

X87.1199 Y-17.0352 Z-7.403

(Line Move)

X88.3304 Y-15.7743 Z-7.403

(Line Move)

X89.7931 Y-13.9439 Z-7.403

(Line Move)

X91.0120 Y-12.7679 Z-7.403

(Line Move)

X105.1495 Y0.2157 Z-7.403

(Line Move)

X106.1063 Y0.9180 Z-7.403

(Line Move)

X106.6748 Y1.1912 Z-7.403

(Line Move)

X107.2450 Y1.3687 Z-7.403

(Line Move)

X107.8385 Y1.4762 Z-7.403

(Line Move)

X108.9792 Y1.5398 Z-7.403

(Line Move)

X123.5155 Y1.5287 Z-7.403

(Line Move)

X124.0121 Y1.5249 Z-7.403

(Line Move)

X124.8382 Y1.3611 Z-7.403

(Line Move)

X126.1521 Y0.6461 Z-7.403

(Line Move)

X126.1599 Y0.0133 Z-7.403

(Arc Move)

G2 X126.4472 Y-46.7691 I-3808.77 J-46.7823

(Arc Move)

X126.0567 Y-101.3114 I-3809.0573 J0

(Line Move)

G1 X126.0536 Y-101.5274 Z-7.403

(Arc Move)

G3 Y-101.5305 I.216 J-.0031

(Arc Move)

X126.1147 Y-101.6810 I.216 J0

(Line Leadout Move)

G1 X126.8974 Y-102.4865

(Rapid Z up)

G0 Z3.

(Rapid Move)

X126.9307 Y-100.1608

(Rapid Z Down)

Z-4.403

(Feed Z Down)

G1 Z-9.204 F411.48

(Line Leadin Move)

X126.1252 Y-100.9436 F1234.44

(Arc Move)

G3 X126.0598 Y-101.0954 I.1505 J-.1549

(Arc Move)

G2 X126.0567 Y-101.3114 I-3808.6698 J54.3264 F1645.92

(Line Move)

G1 X126.0432 Y-102.2506 Z-9.204

(Line Move)

X124.6386 Y-102.4269 Z-9.204

(Line Move)

X123.9851 Y-102.5661 Z-9.204

(Line Move)

X123.3088 Y-102.8092 Z-9.204

(Line Move)

X120.6319 Y-104.6732 Z-9.204

(Line Move)

X118.0571 Y-106.6269 Z-9.204

(Line Move)

X115.4411 Y-108.8080 Z-9.204

(Line Move)

X114.2285 Y-109.9144 Z-9.204

(Line Move)

X113.0769 Y-111.0598 Z-9.204

(Line Move)

X111.9936 Y-112.2582 Z-9.204

(Line Move)

X110.9787 Y-113.5311 Z-9.204

(Line Move)

X110.0628 Y-114.8401 Z-9.204

(Line Move)

X109.2158 Y-116.2114 Z-9.204

(Line Move)

X107.6001 Y-119.1848 Z-9.204

(Line Move)

X106.9070 Y-120.6363 Z-9.204

(Line Move)

X106.3403 Y-122.0765 Z-9.204

(Line Move)

X105.2574 Y-125.3249 Z-9.204

(Line Move)

X104.1171 Y-128.5282 Z-9.204

(Arc Move)

G2 X101.7046 Y-133.9203 I-34.7455 J12.3101

(Line Move)

G1 X96.6784 Y-143.1754 Z-9.204

(Line Move)

X95.3119 Y-145.6671 Z-9.204

(Line Move)

X94.6220 Y-146.5898 Z-9.204

(Line Move)

X94.1904 Y-146.9992 Z-9.204

(Line Move)

X93.6999 Y-147.3596 Z-9.204

(Line Move)

X93.1461 Y-147.6698 Z-9.204

(Line Move)

X92.5309 Y-147.9105 Z-9.204

(Line Move)

X91.8742 Y-148.0473 Z-9.204

(Line Move)

X91.2207 Y-148.0661 Z-9.204

(Line Move)

X90.5876 Y-147.9850 Z-9.204

(Line Move)

X89.9768 Y-147.8169 Z-9.204

(Line Move)

X88.9586 Y-147.3649 Z-9.204

(Line Move)

X85.8462 Y-145.4392 Z-9.204

(Line Move)

X85.0439 Y-144.8777 Z-9.204

(Line Move)

X84.2843 Y-144.2174 Z-9.204

(Line Move)

X83.6096 Y-143.4959 Z-9.204

(Line Move)

X83.0051 Y-142.7091 Z-9.204

(Line Move)

X82.4791 Y-141.8968 Z-9.204

(Line Move)

X81.6008 Y-140.1930 Z-9.204

(Line Move)

X81.0222 Y-138.7202 Z-9.204

(Line Move)

X80.4971 Y-137.1825 Z-9.204

(Line Move)

X80.2141 Y-136.1138 Z-9.204

(Line Move)

X79.9859 Y-135.0064 Z-9.204

(Line Move)

X79.8263 Y-133.9406 Z-9.204

(Line Move)

X77.7950 Y-109.1582 Z-9.204

(Line Move)

X77.5503 Y-107.1296 Z-9.204

(Line Move)

X77.2445 Y-105.1122 Z-9.204

(Line Move)

X76.8822 Y-103.1472 Z-9.204

(Line Move)

X76.4582 Y-101.1884 Z-9.204

(Line Move)

X75.4288 Y-97.2072 Z-9.204

(Line Move)

X70.8022 Y-81.2445 Z-9.204

(Line Move)

X69.7193 Y-77.2579 Z-9.204

(Line Move)

X68.7673 Y-73.1848 Z-9.204

(Line Move)

X67.9757 Y-69.0801 Z-9.204

(Line Move)

X67.6707 Y-66.9669 Z-9.204

(Line Move)

X67.4748 Y-64.8871 Z-9.204

(Line Move)

X67.3907 Y-62.7687 Z-9.204

(Line Move)

X67.4388 Y-58.5391 Z-9.204

(Line Move)

X67.5831 Y-56.6928 Z-9.204

(Line Move)

X67.9316 Y-53.9182 Z-9.204

(Line Move)

X68.5243 Y-51.1539 Z-9.204

(Line Move)

X69.2251 Y-48.5368 Z-9.204

(Line Move)

X69.8289 Y-46.7739 Z-9.204

(Line Move)

X70.6076 Y-45.0087 Z-9.204

(Line Move)

X72.6634 Y-40.9507 Z-9.204

(Line Move)

X72.6648 Y-40.9480 Z-9.204

(Arc Move)

G3 X79.1651 Y-27.9751 I-646.5092 J332.0583

(Line Move)

G1 X79.1671 Y-27.9710 Z-9.204

(Line Move)

X79.1691 Y-27.9669 Z-9.204

(Arc Move)

G2 X83.4701 Y-20.8907 I44.587 J-22.2555

(Line Move)

G1 X83.4973 Y-20.8533 Z-9.204

(Line Move)

X85.0782 Y-19.0325 Z-9.204

(Line Move)

X87.1199 Y-17.0352 Z-9.204

(Line Move)

X88.3304 Y-15.7743 Z-9.204

(Line Move)

X89.7931 Y-13.9439 Z-9.204

(Line Move)

X91.0120 Y-12.7679 Z-9.204

(Line Move)

X105.1495 Y0.2157 Z-9.204

(Line Move)

X106.1063 Y0.9180 Z-9.204

(Line Move)

X106.6748 Y1.1912 Z-9.204

(Line Move)

X107.2450 Y1.3687 Z-9.204

(Line Move)

X107.8385 Y1.4762 Z-9.204

(Line Move)

X108.9792 Y1.5398 Z-9.204

(Line Move)

X123.5155 Y1.5287 Z-9.204

(Line Move)

X124.0121 Y1.5249 Z-9.204

(Line Move)

X124.8382 Y1.3611 Z-9.204

(Line Move)

X126.1521 Y0.6461 Z-9.204

(Line Move)

X126.1599 Y0.0133 Z-9.204

(Arc Move)

G2 X126.4472 Y-46.7691 I-3808.77 J-46.7823

(Arc Move)

X126.0567 Y-101.3114 I-3809.0573 J0

(Line Move)

G1 X126.0536 Y-101.5274 Z-9.204

(Arc Move)

G3 Y-101.5305 I.216 J-.0031

(Arc Move)

X126.1147 Y-101.6810 I.216 J0

(Line Leadout Move)

G1 X126.8974 Y-102.4865

(Rapid Z up)

G0 Z3.

(Rapid Move)

X126.9307 Y-100.1608

(Rapid Z Down)

Z-6.204

(Feed Z Down)

G1 Z-11.005 F411.48

(Line Leadin Move)

X126.1252 Y-100.9436 F1234.44

(Arc Move)

G3 X126.0598 Y-101.0954 I.1505 J-.1549

(Arc Move)

G2 X126.0567 Y-101.3114 I-3808.6698 J54.3264 F1645.92

(Line Move)

G1 X126.0432 Y-102.2506 Z-11.005

(Line Move)

X124.6386 Y-102.4269 Z-11.005

(Line Move)

X123.9851 Y-102.5661 Z-11.005

(Line Move)

X123.3088 Y-102.8092 Z-11.005

(Line Move)

X120.6319 Y-104.6732 Z-11.005

(Line Move)

X118.0571 Y-106.6269 Z-11.005

(Line Move)

X115.4411 Y-108.8080 Z-11.005

(Line Move)

X114.2285 Y-109.9144 Z-11.005

(Line Move)

X113.0769 Y-111.0598 Z-11.005

(Line Move)

X111.9936 Y-112.2582 Z-11.005

(Line Move)

X110.9787 Y-113.5311 Z-11.005

(Line Move)

X110.0628 Y-114.8401 Z-11.005

(Line Move)

X109.2158 Y-116.2114 Z-11.005

(Line Move)

X107.6001 Y-119.1848 Z-11.005

(Line Move)

X106.9070 Y-120.6363 Z-11.005

(Line Move)

X106.3403 Y-122.0765 Z-11.005

(Line Move)

X105.2574 Y-125.3249 Z-11.005

(Line Move)

X104.1171 Y-128.5282 Z-11.005

(Arc Move)

G2 X101.7046 Y-133.9203 I-34.7455 J12.3101

(Line Move)

G1 X96.6784 Y-143.1754 Z-11.005

(Line Move)

X95.3119 Y-145.6671 Z-11.005

(Line Move)

X94.6220 Y-146.5898 Z-11.005

(Line Move)

X94.1904 Y-146.9992 Z-11.005

(Line Move)

X93.6999 Y-147.3596 Z-11.005

(Line Move)

X93.1461 Y-147.6698 Z-11.005

(Line Move)

X92.5309 Y-147.9105 Z-11.005

(Line Move)

X91.8742 Y-148.0473 Z-11.005

(Line Move)

X91.2207 Y-148.0661 Z-11.005

(Line Move)

X90.5876 Y-147.9850 Z-11.005

(Line Move)

X89.9768 Y-147.8169 Z-11.005

(Line Move)

X88.9586 Y-147.3649 Z-11.005

(Line Move)

X85.8462 Y-145.4392 Z-11.005

(Line Move)

X85.0439 Y-144.8777 Z-11.005

(Line Move)

X84.2843 Y-144.2174 Z-11.005

(Line Move)

X83.6096 Y-143.4959 Z-11.005

(Line Move)

X83.0051 Y-142.7091 Z-11.005

(Line Move)

X82.4791 Y-141.8968 Z-11.005

(Line Move)

X81.6008 Y-140.1930 Z-11.005

(Line Move)

X81.0222 Y-138.7202 Z-11.005

(Line Move)

X80.4971 Y-137.1825 Z-11.005

(Line Move)

X80.2141 Y-136.1138 Z-11.005

(Line Move)

X79.9859 Y-135.0064 Z-11.005

(Line Move)

X79.8263 Y-133.9406 Z-11.005

(Line Move)

X77.7950 Y-109.1582 Z-11.005

(Line Move)

X77.5503 Y-107.1296 Z-11.005

(Line Move)

X77.2445 Y-105.1122 Z-11.005

(Line Move)

X76.8822 Y-103.1472 Z-11.005

(Line Move)

X76.4582 Y-101.1884 Z-11.005

(Line Move)

X75.4288 Y-97.2072 Z-11.005

(Line Move)

X70.8022 Y-81.2445 Z-11.005

(Line Move)

X69.7193 Y-77.2579 Z-11.005

(Line Move)

X68.7673 Y-73.1848 Z-11.005

(Line Move)

X67.9757 Y-69.0801 Z-11.005

(Line Move)

X67.6707 Y-66.9669 Z-11.005

(Line Move)

X67.4748 Y-64.8871 Z-11.005

(Line Move)

X67.3907 Y-62.7687 Z-11.005

(Line Move)

X67.4388 Y-58.5391 Z-11.005

(Line Move)

X67.5831 Y-56.6928 Z-11.005

(Line Move)

X67.9316 Y-53.9182 Z-11.005

(Line Move)

X68.5243 Y-51.1539 Z-11.005

(Line Move)

X69.2251 Y-48.5368 Z-11.005

(Line Move)

X69.8289 Y-46.7739 Z-11.005

(Line Move)

X70.6076 Y-45.0087 Z-11.005

(Line Move)

X72.6634 Y-40.9507 Z-11.005

(Line Move)

X72.6648 Y-40.9480 Z-11.005

(Arc Move)

G3 X79.1651 Y-27.9751 I-646.5092 J332.0583

(Line Move)

G1 X79.1671 Y-27.9710 Z-11.005

(Line Move)

X79.1691 Y-27.9669 Z-11.005

(Arc Move)

G2 X83.4701 Y-20.8907 I44.587 J-22.2555

(Line Move)

G1 X83.4973 Y-20.8533 Z-11.005

(Line Move)

X85.0782 Y-19.0325 Z-11.005

(Line Move)

X87.1199 Y-17.0352 Z-11.005

(Line Move)

X88.3304 Y-15.7743 Z-11.005

(Line Move)

X89.7931 Y-13.9439 Z-11.005

(Line Move)

X91.0120 Y-12.7679 Z-11.005

(Line Move)

X105.1495 Y0.2157 Z-11.005

(Line Move)

X106.1063 Y0.9180 Z-11.005

(Line Move)

X106.6748 Y1.1912 Z-11.005

(Line Move)

X107.2450 Y1.3687 Z-11.005

(Line Move)

X107.8385 Y1.4762 Z-11.005

(Line Move)

X108.9792 Y1.5398 Z-11.005

(Line Move)

X123.5155 Y1.5287 Z-11.005

(Line Move)

X124.0121 Y1.5249 Z-11.005

(Line Move)

X124.8382 Y1.3611 Z-11.005

(Line Move)

X126.1521 Y0.6461 Z-11.005

(Line Move)

X126.1599 Y0.0133 Z-11.005

(Arc Move)

G2 X126.4472 Y-46.7691 I-3808.77 J-46.7823

(Arc Move)

X126.0567 Y-101.3114 I-3809.0573 J0

(Line Move)

G1 X126.0536 Y-101.5274 Z-11.005

(Arc Move)

G3 Y-101.5305 I.216 J-.0031

(Arc Move)

X126.1147 Y-101.6810 I.216 J0

(Line Leadout Move)

G1 X126.8974 Y-102.4865

(Rapid Z up)

G0 Z3.

(Rapid Z up)

Z25.

(Rapid Move)

X99.2696 Y-64.1017

(Rapid Z Down)

Z2.8

(Feed Z Down)

G1 Z-.78 F411.48

(Line Move)

X99.5916 Y-64.1017 Z-.78 F822.96

(Arc Move)

G3 X99.2696 Y-63.7797 I-.322 J0 F1645.92

(Arc Move)

X98.9476 Y-64.1017 I0 J-.322

(Arc Move)

X99.2696 Y-64.4237 I.322 J0

(Arc Move)

X99.5916 Y-64.1017 I0 J.322

(Line Move)

G1 X100.4556 Y-64.1017 Z-.78

(Arc Move)

G3 X99.2696 Y-62.9157 I-1.186 J0

(Arc Move)

X98.0836 Y-64.1017 I0 J-1.186

(Arc Move)

X99.2696 Y-65.2877 I1.186 J0

(Arc Move)

X100.4556 Y-64.1017 I0 J1.186

(Line Move)

G1 X101.3196 Y-64.1017 Z-.78

(Arc Move)

G3 X99.2696 Y-62.0517 I-2.05 J0

(Arc Move)

X97.2196 Y-64.1017 I0 J-2.05

(Arc Move)

X99.2696 Y-66.1517 I2.05 J0

(Arc Move)

X101.3196 Y-64.1017 I0 J2.05

(Line Move)

G1 X102.1836 Y-64.1017 Z-.78

(Arc Move)

G3 X99.2696 Y-61.1877 I-2.914 J0

(Arc Move)

X96.3556 Y-64.1017 I0 J-2.914

(Arc Move)

X99.2696 Y-67.0157 I2.914 J0

(Arc Move)

X102.1836 Y-64.1017 I0 J2.914

(Line Move)

G1 X103.0476 Y-64.1017 Z-.78

(Arc Move)

G3 X99.2696 Y-60.3237 I-3.778 J0

(Arc Move)

X95.4916 Y-64.1017 I0 J-3.778

(Arc Move)

X99.2696 Y-67.8797 I3.778 J0

(Arc Move)

X103.0476 Y-64.1017 I0 J3.778

(Line Move)

G1 X103.9116 Y-64.1017 Z-.78

(Arc Move)

G3 X99.2696 Y-59.4597 I-4.642 J0

(Arc Move)

X94.6276 Y-64.1017 I0 J-4.642

(Arc Move)

X99.2696 Y-68.7437 I4.642 J0

(Arc Move)

X103.9116 Y-64.1017 I0 J4.642

(Line Move)

G1 X104.7756 Y-64.1017 Z-.78

(Arc Move)

G3 X99.2696 Y-58.5957 I-5.506 J0

(Arc Move)

X93.7636 Y-64.1017 I0 J-5.506

(Arc Move)

X99.2696 Y-69.6077 I5.506 J0

(Arc Move)

X104.7756 Y-64.1017 I0 J5.506

(Line Move)

G1 X105.6396 Y-64.1017 Z-.78

(Arc Move)

G3 X99.2696 Y-57.7317 I-6.37 J0

(Arc Move)

X92.8996 Y-64.1017 I0 J-6.37

(Arc Move)

X99.2696 Y-70.4717 I6.37 J0

(Arc Move)

X105.6396 Y-64.1017 I0 J6.37

(Arc Move)

X99.2696 Y-57.7317 I-6.37 J0

(Arc Move)

X92.8996 Y-64.1017 I0 J-6.37

(Arc Move)

X99.2696 Y-70.4717 I6.37 J0

(Arc Move)

X105.6396 Y-64.1017 I0 J6.37

(Line Move)

G1 X99.2696 Y-64.1017 Z-.78

(Rapid Z up)

G0 Z2.8

(Rapid Z Down)

Z1.72

(Feed Z Down)

G1 Z-1.45 F411.48

(Line Move)

X99.5916 Y-64.1017 Z-1.45 F822.96

(Arc Move)

G3 X99.2696 Y-63.7797 I-.322 J0 F1645.92

(Arc Move)

X98.9476 Y-64.1017 I0 J-.322

(Arc Move)

X99.2696 Y-64.4237 I.322 J0

(Arc Move)

X99.5916 Y-64.1017 I0 J.322

(Line Move)

G1 X100.4556 Y-64.1017 Z-1.45

(Arc Move)

G3 X99.2696 Y-62.9157 I-1.186 J0

(Arc Move)

X98.0836 Y-64.1017 I0 J-1.186

(Arc Move)

X99.2696 Y-65.2877 I1.186 J0

(Arc Move)

X100.4556 Y-64.1017 I0 J1.186

(Line Move)

G1 X101.3196 Y-64.1017 Z-1.45

(Arc Move)

G3 X99.2696 Y-62.0517 I-2.05 J0

(Arc Move)

X97.2196 Y-64.1017 I0 J-2.05

(Arc Move)

X99.2696 Y-66.1517 I2.05 J0

(Arc Move)

X101.3196 Y-64.1017 I0 J2.05

(Line Move)

G1 X102.1836 Y-64.1017 Z-1.45

(Arc Move)

G3 X99.2696 Y-61.1877 I-2.914 J0

(Arc Move)

X96.3556 Y-64.1017 I0 J-2.914

(Arc Move)

X99.2696 Y-67.0157 I2.914 J0

(Arc Move)

X102.1836 Y-64.1017 I0 J2.914

(Line Move)

G1 X103.0476 Y-64.1017 Z-1.45

(Arc Move)

G3 X99.2696 Y-60.3237 I-3.778 J0

(Arc Move)

X95.4916 Y-64.1017 I0 J-3.778

(Arc Move)

X99.2696 Y-67.8797 I3.778 J0

(Arc Move)

X103.0476 Y-64.1017 I0 J3.778

(Line Move)

G1 X103.9116 Y-64.1017 Z-1.45

(Arc Move)

G3 X99.2696 Y-59.4597 I-4.642 J0

(Arc Move)

X94.6276 Y-64.1017 I0 J-4.642

(Arc Move)

X99.2696 Y-68.7437 I4.642 J0

(Arc Move)

X103.9116 Y-64.1017 I0 J4.642

(Line Move)

G1 X104.7756 Y-64.1017 Z-1.45

(Arc Move)

G3 X99.2696 Y-58.5957 I-5.506 J0

(Arc Move)

X93.7636 Y-64.1017 I0 J-5.506

(Arc Move)

X99.2696 Y-69.6077 I5.506 J0

(Arc Move)

X104.7756 Y-64.1017 I0 J5.506

(Line Move)

G1 X105.6396 Y-64.1017 Z-1.45

(Arc Move)

G3 X99.2696 Y-57.7317 I-6.37 J0

(Arc Move)

X92.8996 Y-64.1017 I0 J-6.37

(Arc Move)

X99.2696 Y-70.4717 I6.37 J0

(Arc Move)

X105.6396 Y-64.1017 I0 J6.37

(Arc Move)

X99.2696 Y-57.7317 I-6.37 J0

(Arc Move)

X92.8996 Y-64.1017 I0 J-6.37

(Arc Move)

X99.2696 Y-70.4717 I6.37 J0

(Arc Move)

X105.6396 Y-64.1017 I0 J6.37

(Line Move)

G1 X99.2696 Y-64.1017 Z-1.45

(Rapid Z up)

G0 Z2.8

(Rapid Z Down)

Z1.05

(Feed Z Down)

G1 Z-1.7 F411.48

(Line Move)

X99.5916 Y-64.1017 Z-1.7 F822.96

(Arc Move)

G3 X99.2696 Y-63.7797 I-.322 J0 F1645.92

(Arc Move)

X98.9476 Y-64.1017 I0 J-.322

(Arc Move)

X99.2696 Y-64.4237 I.322 J0

(Arc Move)

X99.5916 Y-64.1017 I0 J.322

(Line Move)

G1 X100.4556 Y-64.1017 Z-1.7

(Arc Move)

G3 X99.2696 Y-62.9157 I-1.186 J0

(Arc Move)

X98.0836 Y-64.1017 I0 J-1.186

(Arc Move)

X99.2696 Y-65.2877 I1.186 J0

(Arc Move)

X100.4556 Y-64.1017 I0 J1.186

(Line Move)

G1 X101.3196 Y-64.1017 Z-1.7

(Arc Move)

G3 X99.2696 Y-62.0517 I-2.05 J0

(Arc Move)

X97.2196 Y-64.1017 I0 J-2.05

(Arc Move)

X99.2696 Y-66.1517 I2.05 J0

(Arc Move)

X101.3196 Y-64.1017 I0 J2.05

(Line Move)

G1 X102.1836 Y-64.1017 Z-1.7

(Arc Move)

G3 X99.2696 Y-61.1877 I-2.914 J0

(Arc Move)

X96.3556 Y-64.1017 I0 J-2.914

(Arc Move)

X99.2696 Y-67.0157 I2.914 J0

(Arc Move)

X102.1836 Y-64.1017 I0 J2.914

(Line Move)

G1 X103.0476 Y-64.1017 Z-1.7

(Arc Move)

G3 X99.2696 Y-60.3237 I-3.778 J0

(Arc Move)

X95.4916 Y-64.1017 I0 J-3.778

(Arc Move)

X99.2696 Y-67.8797 I3.778 J0

(Arc Move)

X103.0476 Y-64.1017 I0 J3.778

(Line Move)

G1 X103.9116 Y-64.1017 Z-1.7

(Arc Move)

G3 X99.2696 Y-59.4597 I-4.642 J0

(Arc Move)

X94.6276 Y-64.1017 I0 J-4.642

(Arc Move)

X99.2696 Y-68.7437 I4.642 J0

(Arc Move)

X103.9116 Y-64.1017 I0 J4.642

(Line Move)

G1 X104.7756 Y-64.1017 Z-1.7

(Arc Move)

G3 X99.2696 Y-58.5957 I-5.506 J0

(Arc Move)

X93.7636 Y-64.1017 I0 J-5.506

(Arc Move)

X99.2696 Y-69.6077 I5.506 J0

(Arc Move)

X104.7756 Y-64.1017 I0 J5.506

(Line Move)

G1 X105.6396 Y-64.1017 Z-1.7

(Arc Move)

G3 X99.2696 Y-57.7317 I-6.37 J0

(Arc Move)

X92.8996 Y-64.1017 I0 J-6.37

(Arc Move)

X99.2696 Y-70.4717 I6.37 J0

(Arc Move)

X105.6396 Y-64.1017 I0 J6.37

(Arc Move)

X99.2696 Y-57.7317 I-6.37 J0

(Arc Move)

X92.8996 Y-64.1017 I0 J-6.37

(Arc Move)

X99.2696 Y-70.4717 I6.37 J0

(Arc Move)

X105.6396 Y-64.1017 I0 J6.37

(Line Move)

G1 X99.2696 Y-64.1017 Z-1.7

(Rapid Z up)

G0 Z2.8

(Rapid Z up)

Z25.

(Rapid Z Down)

Z3.3

(Feed Z Down)

G1 Z-.78 F411.48

(Line Leadin Move)

X93.5410 Y-62.9673 F1234.44

(Line Leadin Move)

X92.7213 Y-63.7352

(Arc Move)

G3 X92.6531 Y-63.8858 I.1477 J-.1576

(Arc Move)

X92.6496 Y-64.1017 I6.6165 J-.216 F1645.92

(Arc Move)

X99.2696 Y-70.7217 I6.62 J0

(Arc Move)

X105.8896 Y-64.1017 I0 J6.62

(Arc Move)

X99.2696 Y-57.4817 I-6.62 J0

(Arc Move)

X92.6496 Y-64.1017 I0 J-6.62

(Arc Move)

X92.6531 Y-64.3177 I6.62 J0

(Arc Move)

X92.7213 Y-64.4683 I.2159 J.007

(Line Leadout Move)

G1 X93.5410 Y-65.2362

(Rapid Z up)

G0 Z3.3

(Rapid Move)

X99.2696 Y-64.1017

(Rapid Z Down)

Z2.22

(Feed Z Down)

G1 Z-1.7 F411.48

(Line Leadin Move)

X93.5410 Y-62.9673 F1234.44

(Line Leadin Move)

X92.7213 Y-63.7352

(Arc Move)

G3 X92.6531 Y-63.8858 I.1477 J-.1576

(Arc Move)

X92.6496 Y-64.1017 I6.6165 J-.216 F1645.92

(Arc Move)

X99.2696 Y-70.7217 I6.62 J0

(Arc Move)

X105.8896 Y-64.1017 I0 J6.62

(Arc Move)

X99.2696 Y-57.4817 I-6.62 J0

(Arc Move)

X92.6496 Y-64.1017 I0 J-6.62

(Arc Move)

X92.6531 Y-64.3177 I6.62 J0

(Arc Move)

X92.7213 Y-64.4683 I.2159 J.007

(Line Leadout Move)

G1 X93.5410 Y-65.2362

(Rapid Z up)

G0 Z3.3

(Last Rapid Z Up)

Z25. M9

(End of Tape)

G53

Z-2 

M5

G4 P1 

m8

M30

(Start of Tape)



(Made in : UPC)

(G Code optimized for RS-CNC32 with GRBL V0.9j controller)



( PART NUMBER=1 )

( PART NAME=  )

( PROGRAMMER=  )

( OPERATION NUMBER=  )

( DATE=  )



G90 G17 G21 G80

m8

(Init Tool Change)

(6MM CRB 2FL 19 LOC)

G53

G0 Z2 

G54

S12000 M3

M8

G4 P1 

(Rapid From Tool Change)

G0 G90 X189.4707 Y-100.1608

(Rapid Z Down)

Z3.

(Feed Z Down)

G1 Z-2. F411.48

(Line Leadin Move)

X188.6652 Y-100.9436 F1234.44

(Arc Move)

G3 X188.5998 Y-101.0954 I.1505 J-.1549

(Arc Move)

G2 X188.5967 Y-101.3114 I-3808.6698 J54.3264 F1645.92

(Line Move)

G1 X188.5832 Y-102.2506 Z-2.

(Line Move)

X187.1786 Y-102.4269 Z-2.

(Line Move)

X186.5251 Y-102.5661 Z-2.

(Line Move)

X185.8488 Y-102.8092 Z-2.

(Line Move)

X183.1719 Y-104.6732 Z-2.

(Line Move)

X180.5971 Y-106.6269 Z-2.

(Line Move)

X177.9811 Y-108.8080 Z-2.

(Line Move)

X176.7685 Y-109.9144 Z-2.

(Line Move)

X175.6169 Y-111.0598 Z-2.

(Line Move)

X174.5336 Y-112.2582 Z-2.

(Line Move)

X173.5187 Y-113.5311 Z-2.

(Line Move)

X172.6028 Y-114.8401 Z-2.

(Line Move)

X171.7558 Y-116.2114 Z-2.

(Line Move)

X170.1401 Y-119.1848 Z-2.

(Line Move) soucis ici

X170.4470 Y-120.6363 Z-2.

(Line Move)

X168.8803 Y-122.0765 Z-2.

(Line Move)

X167.7974 Y-125.3249 Z-2.

(Line Move)

X166.6571 Y-128.5282 Z-2.

(Arc Move)

G2 X164.2446 Y-133.9203 I-34.7455 J12.3101

(Line Move)

G1 X159.2184 Y-143.1754 Z-2.

(Line Move)

X157.8519 Y-145.6671 Z-2.

(Line Move)

X157.1620 Y-146.5898 Z-2.

(Line Move)

X156.7304 Y-146.9992 Z-2.

(Line Move)

X156.2399 Y-147.3596 Z-2.

(Line Move)

X155.6861 Y-147.6698 Z-2.

(Line Move)

X155.0709 Y-147.9105 Z-2.

(Line Move)

X154.4142 Y-148.0473 Z-2.

(Line Move)

X153.7607 Y-148.0661 Z-2.

(Line Move)

X153.1276 Y-147.9850 Z-2.

(Line Move)

